; generated by Slic3r 1.2.9 on 2019-09-19 at 11:12:51

; external perimeters extrusion width = 0.40mm
; perimeters extrusion width = 0.56mm
; infill extrusion width = 0.56mm
; solid infill extrusion width = 0.56mm
; top infill extrusion width = 0.56mm

M107
M190 S65 ; set bed temperature
M104 S200 ; set temperature
G28 ; home all axes
G1 Z5 F5000 ; lift nozzle

M109 S200 ; wait for temperature to be reached
G21 ; set units to millimeters
G90 ; use absolute coordinates
M82 ; use absolute distances for extrusion
G92 E0
G1 Z0.350 F7800.000
G1 E-2.00000 F2400.00000
G92 E0
G1 X89.807 Y89.525 F7800.000
G1 E2.00000 F2400.00000
G1 X90.599 Y88.808 E2.03439 F1800.000
G1 X91.294 Y88.260 E2.06287
G1 X92.175 Y87.655 E2.09726
G1 X92.936 Y87.204 E2.12573
G1 X93.853 Y86.741 E2.15879
G1 X94.705 Y86.376 E2.18860
G1 X95.714 Y86.026 E2.22299
G1 X96.568 Y85.792 E2.25147
G1 X97.615 Y85.579 E2.28585
G1 X98.492 Y85.461 E2.31433
G1 X99.559 Y85.390 E2.34873
G1 X100.444 Y85.390 E2.37720
G1 X101.510 Y85.461 E2.41159 F1800.000
G1 X102.387 Y85.579 E2.44007
G1 X103.434 Y85.792 E2.47446
G1 X104.288 Y86.026 E2.50293
G1 X105.297 Y86.376 E2.53732
G1 X106.112 Y86.722 E2.56580
G1 X107.066 Y87.204 E2.60019
G1 X107.827 Y87.655 E2.62867
G1 X108.708 Y88.260 E2.66306
G1 X109.403 Y88.808 E2.69154
G1 X110.196 Y89.525 E2.72593
G1 X110.811 Y90.161 E2.75440
G1 X111.501 Y90.977 E2.78879
G1 X112.026 Y91.690 E2.81727
G1 X112.601 Y92.591 E2.85166
G1 X113.026 Y93.367 E2.88014
G1 X113.476 Y94.336 E2.91453
G1 X113.794 Y95.162 E2.94300
G1 X114.111 Y96.183 E2.97739
G1 X114.316 Y97.044 E3.00587
G1 X114.493 Y98.097 E3.04026
G1 X114.582 Y98.978 E3.06874
G1 X114.618 Y100.046 E3.10313
G1 X114.588 Y100.930 E3.13160
G1 X114.481 Y101.994 E3.16599
G1 X114.334 Y102.866 E3.19447
G1 X114.086 Y103.906 E3.22886
G1 X113.824 Y104.751 E3.25734
G1 X113.440 Y105.749 E3.29173
G1 X113.067 Y106.551 E3.32021
G1 X112.554 Y107.489 E3.35460
G1 X112.078 Y108.234 E3.38307
G1 X111.444 Y109.095 E3.41746
G1 X110.872 Y109.771 E3.44594
G1 X110.129 Y110.539 E3.48033
G1 X109.473 Y111.132 E3.50881
G1 X108.634 Y111.795 E3.54320
G1 X107.905 Y112.296 E3.57167
G1 X106.985 Y112.840 E3.60606
G1 X106.195 Y113.239 E3.63454
G1 X105.212 Y113.657 E3.66893
G1 X104.376 Y113.947 E3.69741
G1 X103.345 Y114.229 E3.73180
G1 X102.478 Y114.405 E3.76028
G1 X101.418 Y114.548 E3.79467
G1 X100.535 Y114.607 E3.82314
G1 X99.467 Y114.607 E3.85753
G1 X98.584 Y114.548 E3.88601
G1 X97.525 Y114.405 E3.92040
G1 X96.657 Y114.229 E3.94888
G1 X95.627 Y113.947 E3.98327
G1 X94.791 Y113.657 E4.01174
G1 X93.807 Y113.239 E4.04613
G1 X93.017 Y112.840 E4.07461
G1 X92.097 Y112.296 E4.10900
G1 X91.368 Y111.795 E4.13748
G1 X90.529 Y111.132 E4.17187
G1 X89.873 Y110.539 E4.20035
G1 X89.130 Y109.771 E4.23473
G1 X88.558 Y109.095 E4.26321
G1 X87.924 Y108.234 E4.29760
G1 X87.448 Y107.488 E4.32608
G1 X86.935 Y106.551 E4.36048
G1 X86.562 Y105.749 E4.38895
G1 X86.193 Y104.790 E4.42200
G1 X85.916 Y103.906 E4.45181
G1 X85.668 Y102.866 E4.48620
G1 X85.521 Y101.994 E4.51468
G1 X85.418 Y100.972 E4.54773
G1 X85.384 Y100.046 E4.57754
G1 X85.420 Y98.978 E4.61193
G1 X85.509 Y98.097 E4.64041
G1 X85.686 Y97.044 E4.67480
G1 X85.892 Y96.183 E4.70328
G1 X86.208 Y95.162 E4.73767
G1 X86.526 Y94.336 E4.76614
G1 X86.976 Y93.367 E4.80054
G1 X87.401 Y92.591 E4.82901
G1 X87.976 Y91.690 E4.86340
G1 X88.501 Y90.977 E4.89188
G1 X89.191 Y90.161 E4.92627
G1 X89.765 Y89.568 E4.95281
G1 E2.95281 F2400.00000
G92 E0
G1 X103.792 Y103.508 F7800.000
G1 E2.00000 F2400.00000
G1 X103.331 Y103.969 E2.02095 F1800.000
G1 X102.592 Y104.487 E2.05002
G1 X101.773 Y104.868 E2.07908
G1 X100.901 Y105.102 E2.10814
G1 X100.001 Y105.181 E2.13720
G1 X99.101 Y105.102 E2.16626
G1 X98.229 Y104.868 E2.19532
G1 X97.411 Y104.487 E2.22438
G1 X96.671 Y103.969 E2.25344
G1 X96.032 Y103.330 E2.28250
G1 X95.514 Y102.590 E2.31156
G1 X95.133 Y101.772 E2.34062
G1 X94.899 Y100.900 E2.36968
G1 X94.820 Y100.000 E2.39874
G1 X94.899 Y99.100 E2.42780
G1 X95.133 Y98.228 E2.45686
G1 X95.514 Y97.410 E2.48592
G1 X96.032 Y96.670 E2.51498
G1 X96.671 Y96.031 E2.54404
G1 X97.411 Y95.513 E2.57310
G1 X98.229 Y95.132 E2.60216
G1 X99.101 Y94.898 E2.63122
G1 X99.664 Y94.849 E2.64940
G1 X100.001 Y94.819 E2.66028 F1800.000
G1 X100.901 Y94.898 E2.68934
G1 X101.773 Y95.132 E2.71840
G1 X102.592 Y95.513 E2.74746
G1 X103.331 Y96.031 E2.77652
G1 X103.970 Y96.670 E2.80559
G1 X104.488 Y97.410 E2.83465
G1 X104.869 Y98.228 E2.86371
G1 X105.103 Y99.100 E2.89277
G1 X105.182 Y100.000 E2.92183
G1 X105.103 Y100.900 E2.95089
G1 X104.869 Y101.772 E2.97995
G1 X104.488 Y102.590 E3.00901
G1 X103.970 Y103.330 E3.03807
G1 X103.834 Y103.466 E3.04424
G1 X103.350 Y103.066 F7800.000
G1 X102.928 Y103.488 E3.06344 F1800.000
G1 X102.278 Y103.944 E3.08898
G1 X101.558 Y104.279 E3.11452
G1 X100.792 Y104.484 E3.14006
G1 X100.001 Y104.554 E3.16561
G1 X99.210 Y104.484 E3.19115
G1 X98.444 Y104.279 E3.21669
G1 X97.724 Y103.944 E3.24223
G1 X97.074 Y103.488 E3.26777
G1 X96.513 Y102.927 E3.29332
G1 X96.058 Y102.277 E3.31886
G1 X95.722 Y101.557 E3.34440
G1 X95.517 Y100.791 E3.36994
G1 X95.447 Y100.000 E3.39548
G1 X95.517 Y99.209 E3.42103
G1 X95.722 Y98.443 E3.44657
G1 X96.058 Y97.723 E3.47211
G1 X96.513 Y97.073 E3.49765
G1 X97.074 Y96.512 E3.52319
G1 X97.724 Y96.056 E3.54874
G1 X98.444 Y95.721 E3.57428
G1 X99.210 Y95.516 E3.59982
G1 X99.719 Y95.471 E3.61624
G1 X100.001 Y95.446 E3.62536 F1800.000
G1 X100.792 Y95.516 E3.65090
G1 X101.558 Y95.721 E3.67644
G1 X102.278 Y96.056 E3.70199
G1 X102.928 Y96.512 E3.72753
G1 X103.489 Y97.073 E3.75307
G1 X103.945 Y97.723 E3.77861
G1 X104.280 Y98.443 E3.80415
G1 X104.485 Y99.209 E3.82970
G1 X104.555 Y100.000 E3.85524
G1 X104.485 Y100.791 E3.88078
G1 X104.280 Y101.557 E3.90632
G1 X103.945 Y102.277 E3.93186
G1 X103.489 Y102.927 E3.95741
G1 X103.392 Y103.024 E3.96182
G1 X102.908 Y102.625 F7800.000
G1 X102.525 Y103.008 E3.97926 F1800.000
G1 X101.964 Y103.400 E4.00128
G1 X101.344 Y103.690 E4.02330
G1 X100.683 Y103.867 E4.04533
G1 X100.001 Y103.926 E4.06735
G1 X99.319 Y103.867 E4.08937
G1 X98.658 Y103.690 E4.11140
G1 X98.038 Y103.400 E4.13342
G1 X97.477 Y103.008 E4.15544
G1 X96.993 Y102.524 E4.17747
G1 X96.601 Y101.963 E4.19949
G1 X96.312 Y101.343 E4.22151
G1 X96.134 Y100.682 E4.24354
G1 X96.075 Y100.000 E4.26556
G1 X96.134 Y99.318 E4.28759
G1 X96.312 Y98.657 E4.30961
G1 X96.601 Y98.037 E4.33163
G1 X96.993 Y97.476 E4.35366
G1 X97.477 Y96.992 E4.37568
G1 X98.038 Y96.600 E4.39770
G1 X98.658 Y96.310 E4.41973
G1 X99.319 Y96.133 E4.44175
G1 X99.773 Y96.094 E4.45641
G1 X100.001 Y96.074 E4.46377 F1800.000
G1 X100.683 Y96.133 E4.48580
G1 X101.344 Y96.310 E4.50782
G1 X101.964 Y96.600 E4.52984
G1 X102.525 Y96.992 E4.55187
G1 X103.009 Y97.476 E4.57389
G1 X103.401 Y98.037 E4.59591
G1 X103.691 Y98.657 E4.61794
G1 X103.868 Y99.318 E4.63996
G1 X103.927 Y100.000 E4.66198
G1 X103.868 Y100.682 E4.68401
G1 X103.691 Y101.343 E4.70603
G1 X103.401 Y101.963 E4.72805
G1 X103.009 Y102.524 E4.75008
G1 X102.950 Y102.582 E4.75273
G1 X103.012 Y103.011 F7800.000
G1 X104.682 Y104.340 F7800.000
G1 X104.292 Y104.744 E4.77080 F1800.000
G1 X103.621 Y105.274 E4.79830
G1 X102.918 Y105.690 E4.82459
G1 X102.095 Y106.044 E4.85341
G1 X101.275 Y106.268 E4.88078
G1 X100.428 Y106.382 E4.90827
G1 X99.574 Y106.382 E4.93577
G1 X98.727 Y106.268 E4.96327
G1 X97.903 Y106.043 E4.99077
G1 X97.116 Y105.709 E5.01826
G1 X96.381 Y105.274 E5.04576
G1 X95.710 Y104.744 E5.07326
G1 X95.116 Y104.130 E5.10075
G1 X94.609 Y103.442 E5.12825
G1 X94.199 Y102.693 E5.15575
G1 X93.892 Y101.895 E5.18324
G1 X93.694 Y101.064 E5.21074
G1 X93.612 Y100.251 E5.23703
G1 X93.637 Y99.356 E5.26585
G1 X93.779 Y98.517 E5.29322
G1 X94.032 Y97.701 E5.32072
G1 X94.392 Y96.926 E5.34821
G1 X94.851 Y96.206 E5.37571
G1 X95.403 Y95.553 E5.40321
G1 X96.037 Y94.980 E5.43070
G1 X96.741 Y94.496 E5.45820
G1 X97.470 Y94.128 E5.48449
G1 X98.315 Y93.830 E5.51331
G1 X99.148 Y93.660 E5.54068
G1 X100.001 Y93.603 E5.56818
G1 X100.816 Y93.658 E5.59447
G1 X101.695 Y93.832 E5.62329 F1800.000
G1 X102.498 Y94.111 E5.65066
G1 X103.261 Y94.496 E5.67815
G1 X103.965 Y94.980 E5.70565
G1 X104.599 Y95.553 E5.73315
G1 X105.151 Y96.206 E5.76064
G1 X105.611 Y96.926 E5.78814
G1 X105.970 Y97.701 E5.81564
G1 X106.223 Y98.517 E5.84313
G1 X106.366 Y99.360 E5.87063
G1 X106.394 Y100.214 E5.89813
G1 X106.309 Y101.064 E5.92562
G1 X106.111 Y101.895 E5.95312
G1 X105.803 Y102.693 E5.98062
G1 X105.393 Y103.442 E6.00812
G1 X104.886 Y104.130 E6.03561
G1 X104.724 Y104.297 E6.04311
G1 X105.131 Y104.775 F7800.000
G1 X104.712 Y105.209 E6.06252 F1800.000
G1 X103.976 Y105.790 E6.09271
G1 X103.202 Y106.248 E6.12164
G1 X102.302 Y106.635 E6.15316
G1 X101.400 Y106.882 E6.18327
G1 X100.470 Y107.007 E6.21346
G1 X99.532 Y107.007 E6.24365
G1 X98.602 Y106.882 E6.27384
G1 X97.697 Y106.634 E6.30403
G1 X96.834 Y106.268 E6.33421
G1 X96.026 Y105.790 E6.36440
G1 X95.290 Y105.209 E6.39459
G1 X94.638 Y104.534 E6.42478
G1 X94.081 Y103.779 E6.45497
G1 X93.631 Y102.956 E6.48516
G1 X93.293 Y102.081 E6.51535
G1 X93.076 Y101.168 E6.54554
G1 X92.986 Y100.274 E6.57447
G1 X93.014 Y99.295 E6.60598
G1 X93.169 Y98.372 E6.63609
G1 X93.447 Y97.476 E6.66628
G1 X93.842 Y96.625 E6.69647
G1 X94.347 Y95.834 E6.72666
G1 X94.953 Y95.118 E6.75685
G1 X95.649 Y94.488 E6.78704
G1 X96.422 Y93.957 E6.81723
G1 X97.224 Y93.552 E6.84616
G1 X98.148 Y93.226 E6.87767
G1 X99.065 Y93.040 E6.90778
G1 X100.001 Y92.977 E6.93797
G1 X100.898 Y93.037 E6.96690
G1 X101.859 Y93.227 E6.99842 F1800.000
G1 X102.743 Y93.534 E7.02853
G1 X103.580 Y93.957 E7.05872
G1 X104.354 Y94.488 E7.08891
G1 X105.049 Y95.118 E7.11910
G1 X105.655 Y95.834 E7.14928
G1 X106.160 Y96.625 E7.17947
G1 X106.555 Y97.476 E7.20966
G1 X106.833 Y98.372 E7.23985
G1 X106.989 Y99.297 E7.27004
G1 X107.020 Y100.235 E7.30023
G1 X106.926 Y101.168 E7.33042
G1 X106.709 Y102.081 E7.36061
G1 X106.372 Y102.956 E7.39080
G1 X105.921 Y103.779 E7.42099
G1 X105.364 Y104.534 E7.45117
G1 X105.173 Y104.732 E7.46002
G1 X105.581 Y105.209 F7800.000
G1 X105.132 Y105.673 E7.48078 F1800.000
G1 X104.330 Y106.306 E7.51366
G1 X103.486 Y106.806 E7.54523
G1 X102.509 Y107.226 E7.57944
G1 X101.525 Y107.496 E7.61229
G1 X100.512 Y107.632 E7.64517
G1 X99.490 Y107.632 E7.67806
G1 X98.477 Y107.496 E7.71094
G1 X97.492 Y107.226 E7.74382
G1 X96.551 Y106.827 E7.77670
G1 X95.672 Y106.306 E7.80958
G1 X94.870 Y105.673 E7.84246
G1 X94.160 Y104.939 E7.87534
G1 X93.554 Y104.116 E7.90822
G1 X93.063 Y103.220 E7.94111
G1 X92.695 Y102.266 E7.97399
G1 X92.458 Y101.272 E8.00687
G1 X92.360 Y100.296 E8.03844
G1 X92.390 Y99.233 E8.07265
G1 X92.560 Y98.227 E8.10550
G1 X92.863 Y97.251 E8.13838
G1 X93.293 Y96.324 E8.17126
G1 X93.843 Y95.463 E8.20414
G1 X94.503 Y94.682 E8.23703
G1 X95.260 Y93.997 E8.26991
G1 X96.103 Y93.419 E8.30279
G1 X96.979 Y92.976 E8.33436
G1 X97.981 Y92.622 E8.36857
G1 X98.982 Y92.419 E8.40142
G1 X100.001 Y92.351 E8.43430
G1 X100.980 Y92.416 E8.46587
G1 X102.023 Y92.623 E8.50008 F1800.000
G1 X102.987 Y92.958 E8.53293
G1 X103.899 Y93.419 E8.56581
G1 X104.742 Y93.997 E8.59870
G1 X105.500 Y94.682 E8.63158
G1 X106.159 Y95.463 E8.66446
G1 X106.709 Y96.324 E8.69734
G1 X107.139 Y97.251 E8.73022
G1 X107.442 Y98.227 E8.76310
G1 X107.612 Y99.234 E8.79598
G1 X107.646 Y100.256 E8.82886
G1 X107.544 Y101.272 E8.86175
G1 X107.307 Y102.266 E8.89463
G1 X106.940 Y103.220 E8.92751
G1 X106.449 Y104.116 E8.96039
G1 X105.842 Y104.939 E8.99327
G1 X105.622 Y105.166 E9.00346
G1 X105.193 Y105.112 F7800.000
G1 X104.255 Y103.906 F7800.000
G1 X103.879 Y104.288 E9.04003 F1800.000
G1 X103.699 Y104.446 E9.05640
G1 X103.271 Y104.764 E9.09274
G1 X102.870 Y105.020 E9.12520
G1 X102.640 Y105.142 E9.14300
G1 X101.956 Y105.445 E9.19404
G1 X101.153 Y105.668 E9.25088
G1 X100.387 Y105.766 E9.30357
G1 X100.026 Y105.782 E9.32821
G1 X99.615 Y105.766 E9.35628
G1 X98.849 Y105.668 E9.40897
G1 X98.046 Y105.446 E9.46581
G1 X97.394 Y105.158 E9.51440
G1 X97.132 Y105.020 E9.53465
G1 X96.731 Y104.764 E9.56711
G1 X96.303 Y104.446 E9.60346
G1 X96.123 Y104.288 E9.61983
G1 X95.581 Y103.737 E9.67256
G1 X95.128 Y103.111 E9.72528
G1 X94.981 Y102.869 E9.74457
G1 X94.760 Y102.432 E9.77799
G1 X94.576 Y102.001 E9.80995
G1 X94.480 Y101.713 E9.83070
G1 X94.294 Y100.963 E9.88342
G1 X94.225 Y100.229 E9.93369
G1 X94.220 Y99.975 E9.95103
G1 X94.252 Y99.416 E9.98922 F1800.000
G1 X94.303 Y99.021 E10.01641
G1 X94.379 Y98.660 E10.04156
G1 X94.573 Y97.997 E10.08868
G1 X94.928 Y97.220 E10.14698
G1 X95.349 Y96.572 E10.19968
G1 X95.588 Y96.264 E10.22628
G1 X95.847 Y95.983 E10.25239
G1 X96.417 Y95.461 E10.30508
G1 X97.085 Y95.001 E10.36045
G1 X97.712 Y94.694 E10.40806
G1 X98.048 Y94.560 E10.43271
G1 X98.480 Y94.426 E10.46359
G1 X99.022 Y94.300 E10.50153
G1 X100.001 Y94.211 E10.56863
G1 X100.736 Y94.267 E10.61890
G1 X101.030 Y94.312 E10.63916
G1 X101.533 Y94.429 E10.67443
G1 X102.002 Y94.575 E10.70798
G1 X102.258 Y94.679 E10.72676
G1 X102.917 Y95.001 E10.77683
G1 X103.585 Y95.461 E10.83220
G1 X104.155 Y95.983 E10.88489
G1 X104.414 Y96.264 E10.91099
G1 X104.654 Y96.572 E10.93760
G1 X105.074 Y97.220 E10.99029
G1 X105.429 Y97.997 E11.04860
G1 X105.623 Y98.660 E11.09572
G1 X105.699 Y99.021 E11.12086
G1 X105.751 Y99.422 E11.14843
G1 X105.780 Y100.193 E11.20112
G1 X105.705 Y100.980 E11.25502
G1 X105.522 Y101.713 E11.30656
G1 X105.426 Y102.001 E11.32731
G1 X105.242 Y102.432 E11.35927
G1 X104.996 Y102.913 E11.39613
G1 X104.450 Y103.700 E11.46147
G1 X104.297 Y103.863 E11.47673
G1 Z0.600 F7800.000
G1 X103.279 Y102.930 F7800.000
G1 X102.833 Y103.376 E11.48839 F900.000
G1 X102.204 Y103.816 E11.50259
G1 X101.508 Y104.141 E11.51679
G1 X100.766 Y104.340 E11.53099
G1 X100.001 Y104.406 E11.54519
G1 X99.236 Y104.340 E11.55939
G1 X98.494 Y104.141 E11.57359
G1 X97.798 Y103.816 E11.58779
G1 X97.169 Y103.376 E11.60200
G1 X96.626 Y102.832 E11.61620
G1 X96.185 Y102.203 E11.63040
G1 X95.860 Y101.507 E11.64460
G1 X95.662 Y100.765 E11.65880
G1 X95.594 Y99.995 E11.67310
G1 X95.671 Y99.198 E11.68790
G1 X95.860 Y98.493 E11.70140
G1 X96.185 Y97.797 E11.71560
G1 X96.626 Y97.168 E11.72980
G1 X97.169 Y96.624 E11.74400
G1 X97.798 Y96.184 E11.75820
G1 X98.499 Y95.857 E11.77250
G1 X99.274 Y95.657 E11.78730
G1 X100.001 Y95.594 E11.80080 F900.000
G1 X100.766 Y95.660 E11.81500
G1 X101.508 Y95.859 E11.82920
G1 X102.204 Y96.184 E11.84340
G1 X102.833 Y96.624 E11.85760
G1 X103.377 Y97.168 E11.87180
G1 X103.817 Y97.797 E11.88600
G1 X104.142 Y98.493 E11.90020
G1 X104.341 Y99.235 E11.91441
G1 X104.408 Y100.000 E11.92861
G1 X104.341 Y100.765 E11.94281
G1 X104.142 Y101.507 E11.95701
G1 X103.817 Y102.203 E11.97121
G1 X103.322 Y102.887 E11.98683
G1 X102.924 Y102.574 F7800.000
G1 X102.509 Y102.989 E11.99767 F900.000
G1 X101.952 Y103.379 E12.01025
G1 X101.336 Y103.667 E12.02282
G1 X100.679 Y103.843 E12.03540
G1 X100.001 Y103.902 E12.04797
G1 X99.324 Y103.843 E12.06055
G1 X98.667 Y103.667 E12.07312
G1 X98.050 Y103.379 E12.08570
G1 X97.493 Y102.989 E12.09827
G1 X97.012 Y102.508 E12.11085
G1 X96.622 Y101.951 E12.12342
G1 X96.334 Y101.335 E12.13600
G1 X96.158 Y100.678 E12.14857
G1 X96.099 Y99.997 E12.16120
G1 X96.168 Y99.288 E12.17437
G1 X96.334 Y98.665 E12.18629
G1 X96.622 Y98.049 E12.19886
G1 X97.012 Y97.492 E12.21144
G1 X97.493 Y97.011 E12.22401
G1 X98.050 Y96.621 E12.23659
G1 X98.669 Y96.332 E12.24922
G1 X99.359 Y96.154 E12.26239
G1 X100.001 Y96.098 E12.27431 F900.000
G1 X100.679 Y96.157 E12.28688
G1 X101.336 Y96.333 E12.29946
G1 X101.952 Y96.621 E12.31203
G1 X102.509 Y97.011 E12.32461
G1 X102.990 Y97.492 E12.33718
G1 X103.380 Y98.049 E12.34976
G1 X103.668 Y98.665 E12.36233
G1 X103.844 Y99.322 E12.37491
G1 X103.903 Y100.000 E12.38748
G1 X103.844 Y100.678 E12.40006
G1 X103.668 Y101.335 E12.41263
G1 X103.380 Y101.951 E12.42521
G1 X102.966 Y102.532 E12.43840
G1 X102.624 Y102.274 F7800.000
G1 X102.235 Y102.663 E12.44539 F900.000
G1 X101.739 Y103.010 E12.45311
G1 X101.190 Y103.266 E12.46083
G1 X100.605 Y103.423 E12.46855
G1 X100.001 Y103.476 E12.47627
G1 X99.398 Y103.423 E12.48399
G1 X98.812 Y103.266 E12.49170
G1 X98.263 Y103.010 E12.49942
G1 X97.767 Y102.663 E12.50714
G1 X97.338 Y102.234 E12.51486
G1 X96.991 Y101.738 E12.52258
G1 X96.735 Y101.189 E12.53030
G1 X96.578 Y100.604 E12.53802
G1 X96.525 Y99.999 E12.54575
