; generated by Slic3r 1.2.9 on 2019-09-19 at 11:57:13

; external perimeters extrusion width = 0.40mm
; perimeters extrusion width = 0.56mm
; infill extrusion width = 0.56mm
; solid infill extrusion width = 0.56mm
; top infill extrusion width = 0.56mm

M107
M190 S65 ; set bed temperature
M104 S200 ; set temperature
G28 ; home all axes
G1 Z5 F5000 ; lift nozzle

M109 S200 ; wait for temperature to be reached
G21 ; set units to millimeters
G90 ; use absolute coordinates
M82 ; use absolute distances for extrusion
G92 E0
G1 Z0.350 F7800.000
G1 E-2.00000 F2400.00000
G92 E0
G1 X89.806 Y89.525 F7800.000
G1 E2.00000 F2400.00000
G1 X90.598 Y88.808 E2.03439 F1800.000
G1 X91.293 Y88.260 E2.06287
G1 X92.174 Y87.655 E2.09726
G1 X92.935 Y87.204 E2.12573
G1 X93.889 Y86.722 E2.16012
G1 X94.704 Y86.376 E2.18860
G1 X95.714 Y86.026 E2.22299
G1 X96.567 Y85.792 E2.25147
G1 X97.614 Y85.579 E2.28586
G1 X98.492 Y85.461 E2.31434
G1 X99.516 Y85.393 E2.34739
G1 X100.443 Y85.390 E2.37720
G1 X101.509 Y85.461 E2.41159 F1800.000
G1 X102.386 Y85.579 E2.44007
G1 X103.433 Y85.792 E2.47446
G1 X104.287 Y86.026 E2.50293
G1 X105.297 Y86.376 E2.53732
G1 X106.111 Y86.722 E2.56580
G1 X107.065 Y87.204 E2.60019
G1 X107.827 Y87.655 E2.62867
G1 X108.708 Y88.260 E2.66306
G1 X109.402 Y88.808 E2.69154
G1 X110.195 Y89.525 E2.72593
G1 X110.810 Y90.161 E2.75440
G1 X111.500 Y90.977 E2.78879
G1 X112.025 Y91.690 E2.81727
G1 X112.600 Y92.591 E2.85166
G1 X113.025 Y93.367 E2.88014
G1 X113.475 Y94.336 E2.91453
G1 X113.793 Y95.162 E2.94300
G1 X114.110 Y96.183 E2.97739
G1 X114.315 Y97.044 E3.00587
G1 X114.493 Y98.097 E3.04026
G1 X114.581 Y98.978 E3.06874
G1 X114.617 Y100.046 E3.10313
G1 X114.587 Y100.930 E3.13160
G1 X114.480 Y101.994 E3.16599
G1 X114.333 Y102.866 E3.19447
G1 X114.086 Y103.906 E3.22886
G1 X113.823 Y104.751 E3.25734
G1 X113.439 Y105.749 E3.29173
G1 X113.067 Y106.551 E3.32021
G1 X112.553 Y107.489 E3.35460
G1 X112.077 Y108.234 E3.38307
G1 X111.443 Y109.095 E3.41746
G1 X110.872 Y109.771 E3.44594
G1 X110.129 Y110.539 E3.48033
G1 X109.472 Y111.132 E3.50881
G1 X108.634 Y111.795 E3.54320
G1 X107.904 Y112.296 E3.57167
G1 X106.985 Y112.840 E3.60606
G1 X106.195 Y113.239 E3.63454
G1 X105.211 Y113.657 E3.66893
G1 X104.375 Y113.947 E3.69741
G1 X103.344 Y114.229 E3.73180
G1 X102.477 Y114.405 E3.76028
G1 X101.459 Y114.542 E3.79333
G1 X100.535 Y114.607 E3.82314
G1 X99.466 Y114.607 E3.85753
G1 X98.583 Y114.548 E3.88601
G1 X97.524 Y114.405 E3.92040
G1 X96.657 Y114.229 E3.94887
G1 X95.626 Y113.947 E3.98326
G1 X94.790 Y113.657 E4.01174
G1 X93.806 Y113.239 E4.04613
G1 X93.016 Y112.840 E4.07461
G1 X92.097 Y112.296 E4.10900
G1 X91.367 Y111.795 E4.13747
G1 X90.528 Y111.132 E4.17186
G1 X89.872 Y110.539 E4.20034
G1 X89.129 Y109.771 E4.23473
G1 X88.558 Y109.095 E4.26321
G1 X87.924 Y108.234 E4.29760
G1 X87.447 Y107.488 E4.32608
G1 X86.934 Y106.551 E4.36047
G1 X86.561 Y105.749 E4.38894
G1 X86.192 Y104.790 E4.42199
G1 X85.915 Y103.906 E4.45181
G1 X85.667 Y102.866 E4.48620
G1 X85.520 Y101.994 E4.51467
G1 X85.417 Y100.972 E4.54773
G1 X85.384 Y100.046 E4.57754
G1 X85.419 Y98.978 E4.61193
G1 X85.508 Y98.097 E4.64041
G1 X85.686 Y97.043 E4.67480
G1 X85.891 Y96.183 E4.70327
G1 X86.207 Y95.162 E4.73766
G1 X86.525 Y94.336 E4.76614
G1 X86.975 Y93.367 E4.80053
G1 X87.401 Y92.591 E4.82901
G1 X87.976 Y91.690 E4.86340
G1 X88.501 Y90.977 E4.89187
G1 X89.191 Y90.161 E4.92626
G1 X89.764 Y89.568 E4.95281
G1 E2.95281 F2400.00000
G92 E0
G1 X103.086 Y102.805 F7800.000
G1 E2.00000 F2400.00000
G1 X102.688 Y103.203 E2.01810 F1800.000
G1 X102.091 Y103.621 E2.04155
G1 X101.430 Y103.929 E2.06500
G1 X100.726 Y104.117 E2.08846
G1 X100.000 Y104.181 E2.11191
G1 X99.274 Y104.117 E2.13536
G1 X98.570 Y103.929 E2.15881
G1 X97.910 Y103.621 E2.18226
G1 X97.313 Y103.203 E2.20571
G1 X96.798 Y102.687 E2.22916
G1 X96.380 Y102.090 E2.25261
G1 X96.072 Y101.430 E2.27607
G1 X95.883 Y100.726 E2.29952
G1 X95.819 Y100.000 E2.32297
G1 X95.883 Y99.274 E2.34642
G1 X96.072 Y98.570 E2.36987
G1 X96.380 Y97.910 E2.39332
G1 X96.798 Y97.313 E2.41677
G1 X97.313 Y96.797 E2.44022
G1 X97.910 Y96.379 E2.46368
G1 X98.570 Y96.071 E2.48713
G1 X99.274 Y95.883 E2.51058
G1 X99.724 Y95.843 E2.52511
G1 X100.000 Y95.819 E2.53403 F1800.000
G1 X100.726 Y95.883 E2.55748
G1 X101.430 Y96.071 E2.58093
G1 X102.091 Y96.379 E2.60438
G1 X102.688 Y96.797 E2.62784
G1 X103.203 Y97.313 E2.65129
G1 X103.621 Y97.910 E2.67474
G1 X103.929 Y98.570 E2.69819
G1 X104.118 Y99.274 E2.72164
G1 X104.181 Y100.000 E2.74509
G1 X104.118 Y100.726 E2.76854
G1 X103.929 Y101.430 E2.79199
G1 X103.621 Y102.090 E2.81545
G1 X103.203 Y102.687 E2.83890
G1 X103.128 Y102.763 E2.84232
G1 X102.644 Y102.363 F7800.000
G1 X102.285 Y102.722 E2.85866 F1800.000
G1 X101.777 Y103.078 E2.87859
G1 X101.216 Y103.339 E2.89852
G1 X100.617 Y103.500 E2.91846
G1 X100.000 Y103.554 E2.93839
G1 X99.383 Y103.500 E2.95832
G1 X98.785 Y103.339 E2.97825
G1 X98.224 Y103.078 E2.99819
G1 X97.716 Y102.722 E3.01812
G1 X97.278 Y102.284 E3.03805
G1 X96.923 Y101.777 E3.05799
G1 X96.661 Y101.215 E3.07792
G1 X96.501 Y100.617 E3.09785
G1 X96.447 Y100.000 E3.11778
G1 X96.501 Y99.383 E3.13772
G1 X96.661 Y98.785 E3.15765
G1 X96.923 Y98.223 E3.17758
G1 X97.278 Y97.716 E3.19752
G1 X97.716 Y97.278 E3.21745
G1 X98.224 Y96.922 E3.23738
G1 X98.785 Y96.661 E3.25731
G1 X99.383 Y96.500 E3.27725
G1 X99.779 Y96.466 E3.29002
G1 X100.000 Y96.446 E3.29718 F1800.000
G1 X100.617 Y96.500 E3.31711
G1 X101.216 Y96.661 E3.33705
G1 X101.777 Y96.922 E3.35698
G1 X102.285 Y97.278 E3.37691
G1 X102.723 Y97.716 E3.39684
G1 X103.078 Y98.223 E3.41678
G1 X103.340 Y98.785 E3.43671
G1 X103.500 Y99.383 E3.45664
G1 X103.554 Y100.000 E3.47657
G1 X103.500 Y100.617 E3.49651
G1 X103.340 Y101.215 E3.51644
G1 X103.078 Y101.777 E3.53637
G1 X102.686 Y102.321 E3.55794
G1 X102.202 Y101.921 F7800.000
G1 X101.881 Y102.242 E3.57253 F1800.000
G1 X101.463 Y102.534 E3.58894
G1 X101.001 Y102.750 E3.60535
G1 X100.508 Y102.882 E3.62177
G1 X100.000 Y102.926 E3.63818
G1 X99.492 Y102.882 E3.65460
G1 X98.999 Y102.750 E3.67101
G1 X98.537 Y102.534 E3.68743
G1 X98.119 Y102.242 E3.70384
G1 X97.759 Y101.881 E3.72025
G1 X97.466 Y101.463 E3.73667
G1 X97.250 Y101.001 E3.75308
G1 X97.118 Y100.508 E3.76950
G1 X97.074 Y100.000 E3.78591
G1 X97.118 Y99.492 E3.80233
G1 X97.250 Y98.999 E3.81874
G1 X97.466 Y98.537 E3.83515
G1 X97.759 Y98.119 E3.85157
G1 X98.119 Y97.758 E3.86798
G1 X98.537 Y97.466 E3.88440
G1 X98.999 Y97.250 E3.90081
G1 X99.492 Y97.118 E3.91723
G1 X99.833 Y97.088 E3.92824
G1 X100.000 Y97.074 E3.93364 F1800.000
G1 X100.508 Y97.118 E3.95005
G1 X101.001 Y97.250 E3.96647
G1 X101.463 Y97.466 E3.98288
G1 X101.881 Y97.758 E3.99930
G1 X102.242 Y98.119 E4.01571
G1 X102.535 Y98.537 E4.03213
G1 X102.750 Y98.999 E4.04854
G1 X102.882 Y99.492 E4.06495
G1 X102.927 Y100.000 E4.08137
G1 X102.882 Y100.508 E4.09778
G1 X102.750 Y101.001 E4.11420
G1 X102.535 Y101.463 E4.13061
G1 X102.244 Y101.878 E4.14693
G1 X102.325 Y102.302 F7800.000
G1 X104.692 Y104.330 F7800.000
G1 X104.291 Y104.744 E4.16548 F1800.000
G1 X103.620 Y105.274 E4.19298
G1 X102.885 Y105.709 E4.22048
G1 X102.099 Y106.043 E4.24797
G1 X101.274 Y106.268 E4.27547
G1 X100.465 Y106.377 E4.30176
G1 X99.569 Y106.382 E4.33058
G1 X98.726 Y106.268 E4.35795
G1 X97.902 Y106.043 E4.38545
G1 X97.115 Y105.709 E4.41294
G1 X96.380 Y105.274 E4.44044
G1 X95.739 Y104.767 E4.46673
G1 X95.113 Y104.127 E4.49555
G1 X94.609 Y103.442 E4.52292
G1 X94.198 Y102.693 E4.55041
G1 X93.891 Y101.895 E4.57791
G1 X93.693 Y101.064 E4.60541
G1 X93.611 Y100.251 E4.63170
G1 X93.636 Y99.356 E4.66052
G1 X93.778 Y98.517 E4.68789
G1 X94.031 Y97.701 E4.71538
G1 X94.391 Y96.926 E4.74288
G1 X94.851 Y96.206 E4.77038
G1 X95.402 Y95.553 E4.79787
G1 X96.036 Y94.980 E4.82537
G1 X96.740 Y94.496 E4.85287
G1 X97.503 Y94.111 E4.88037
G1 X98.310 Y93.831 E4.90786
G1 X99.148 Y93.660 E4.93536
G1 X100.000 Y93.603 E4.96286
G1 X100.815 Y93.658 E4.98914
G1 X101.694 Y93.832 E5.01797 F1800.000
G1 X102.497 Y94.111 E5.04533
G1 X103.260 Y94.496 E5.07283
G1 X103.965 Y94.980 E5.10033
G1 X104.598 Y95.553 E5.12783
G1 X105.150 Y96.206 E5.15532
G1 X105.610 Y96.926 E5.18282
G1 X105.970 Y97.701 E5.21032
G1 X106.223 Y98.517 E5.23781
G1 X106.365 Y99.360 E5.26531
G1 X106.393 Y100.214 E5.29281
G1 X106.308 Y101.064 E5.32030
G1 X106.110 Y101.895 E5.34780
G1 X105.803 Y102.693 E5.37530
G1 X105.392 Y103.442 E5.40279
G1 X104.885 Y104.130 E5.43029
G1 X104.734 Y104.286 E5.43730
G1 X105.141 Y104.764 F7800.000
G1 X104.711 Y105.209 E5.45720 F1800.000
G1 X103.975 Y105.790 E5.48739
G1 X103.168 Y106.268 E5.51758
G1 X102.304 Y106.634 E5.54777
G1 X101.399 Y106.882 E5.57796
G1 X100.508 Y107.002 E5.60689
G1 X99.529 Y107.007 E5.63840
G1 X98.601 Y106.882 E5.66851
G1 X97.697 Y106.634 E5.69870
G1 X96.833 Y106.268 E5.72889
G1 X96.026 Y105.790 E5.75908
G1 X95.320 Y105.233 E5.78801
G1 X94.636 Y104.532 E5.81953
G1 X94.081 Y103.779 E5.84964
G1 X93.630 Y102.956 E5.87983
G1 X93.293 Y102.081 E5.91001
G1 X93.075 Y101.168 E5.94020
G1 X92.985 Y100.274 E5.96913
G1 X93.013 Y99.295 E6.00065
G1 X93.169 Y98.372 E6.03076
G1 X93.447 Y97.476 E6.06095
G1 X93.842 Y96.625 E6.09114
G1 X94.346 Y95.834 E6.12133
G1 X94.952 Y95.118 E6.15152
G1 X95.648 Y94.488 E6.18170
G1 X96.421 Y93.957 E6.21189
G1 X97.259 Y93.534 E6.24208
G1 X98.145 Y93.227 E6.27227
G1 X99.064 Y93.040 E6.30246
G1 X100.000 Y92.977 E6.33265
G1 X100.897 Y93.037 E6.36158
G1 X101.858 Y93.227 E6.39309 F1800.000
G1 X102.742 Y93.534 E6.42320
G1 X103.579 Y93.957 E6.45339
G1 X104.353 Y94.488 E6.48358
G1 X105.049 Y95.118 E6.51377
G1 X105.654 Y95.834 E6.54396
G1 X106.159 Y96.625 E6.57415
G1 X106.554 Y97.476 E6.60434
G1 X106.832 Y98.372 E6.63453
G1 X106.988 Y99.297 E6.66472
G1 X107.019 Y100.235 E6.69491
G1 X106.925 Y101.168 E6.72510
G1 X106.708 Y102.081 E6.75528
G1 X106.371 Y102.956 E6.78547
G1 X105.920 Y103.779 E6.81566
G1 X105.363 Y104.534 E6.84585
G1 X105.183 Y104.721 E6.85421
G1 X105.590 Y105.198 F7800.000
G1 X105.131 Y105.673 E6.87546 F1800.000
G1 X104.329 Y106.306 E6.90834
G1 X103.450 Y106.827 E6.94122
G1 X102.509 Y107.226 E6.97410
G1 X101.524 Y107.496 E7.00698
G1 X100.552 Y107.627 E7.03855
G1 X99.489 Y107.632 E7.07276
G1 X98.477 Y107.496 E7.10561
G1 X97.491 Y107.226 E7.13849
G1 X96.550 Y106.827 E7.17137
G1 X95.671 Y106.306 E7.20426
G1 X94.901 Y105.698 E7.23583
G1 X94.158 Y104.938 E7.27004
G1 X93.553 Y104.116 E7.30289
G1 X93.062 Y103.220 E7.33577
G1 X92.695 Y102.266 E7.36865
G1 X92.458 Y101.272 E7.40153
G1 X92.359 Y100.296 E7.43310
G1 X92.390 Y99.233 E7.46731
G1 X92.559 Y98.227 E7.50016
G1 X92.862 Y97.251 E7.53305
G1 X93.292 Y96.324 E7.56593
G1 X93.842 Y95.463 E7.59881
G1 X94.502 Y94.682 E7.63169
G1 X95.260 Y93.997 E7.66457
G1 X96.102 Y93.419 E7.69745
G1 X97.014 Y92.958 E7.73033
G1 X97.979 Y92.623 E7.76321
G1 X98.981 Y92.419 E7.79609
G1 X100.000 Y92.351 E7.82898
G1 X100.979 Y92.416 E7.86055
G1 X102.022 Y92.623 E7.89475 F1800.000
G1 X102.986 Y92.958 E7.92761
G1 X103.898 Y93.419 E7.96049
G1 X104.741 Y93.997 E7.99337
G1 X105.499 Y94.682 E8.02625
G1 X106.158 Y95.463 E8.05913
G1 X106.708 Y96.324 E8.09201
G1 X107.138 Y97.251 E8.12490
G1 X107.441 Y98.227 E8.15778
G1 X107.611 Y99.234 E8.19066
G1 X107.645 Y100.256 E8.22354
G1 X107.543 Y101.272 E8.25642
G1 X107.306 Y102.266 E8.28930
G1 X106.939 Y103.220 E8.32218
G1 X106.448 Y104.116 E8.35506
G1 X105.842 Y104.939 E8.38794
G1 X105.632 Y105.155 E8.39765
G1 X105.202 Y105.101 F7800.000
G1 X98.947 Y104.462 F7800.000
G1 X100.484 Y105.999 E8.47054 F1800.000
G1 X101.304 Y105.899 E8.49823
G1 X99.959 Y104.553 E8.56202
G1 X100.788 Y104.462 E8.58998
G1 X102.027 Y105.701 E8.64872
G1 X102.677 Y105.431 E8.67232
G1 X101.508 Y104.262 E8.72773
G1 X102.136 Y103.969 E8.75095
G1 X103.267 Y105.100 E8.80455
G1 X103.803 Y104.716 E8.82666
G1 X102.688 Y103.601 E8.87950
G1 X103.178 Y103.170 E8.90136
G1 X104.278 Y104.270 E8.95351
G1 X104.726 Y103.797 E8.97533
G1 X103.608 Y102.679 E9.02833
G1 X103.974 Y102.125 E9.05059
G1 X105.112 Y103.263 E9.10453
G1 X105.438 Y102.669 E9.12726
G1 X104.267 Y101.498 E9.18277
G1 X104.466 Y100.776 E9.20787
G1 X105.701 Y102.011 E9.26644
G1 X105.894 Y101.284 E9.29166
G1 X104.555 Y99.944 E9.35514
G1 X104.456 Y98.925 E9.38946
G1 X106.000 Y100.469 E9.46262
G1 X105.986 Y99.535 E9.49394
G1 X103.841 Y97.390 E9.59560
G1 X104.518 Y96.225 F7800.000
G1 X103.801 Y95.508 E9.62958 F1800.000
G1 X102.610 Y96.159 F7800.000
G1 X100.475 Y94.024 E9.73079 F1800.000
G1 X99.536 Y94.005 E9.76227
G1 X101.075 Y95.544 E9.83520
G1 X100.056 Y95.445 E9.86952
G1 X98.720 Y94.109 E9.93285
G1 X97.993 Y94.303 E9.95806
G1 X99.225 Y95.535 E10.01643
G1 X98.503 Y95.733 E10.04154
G1 X97.337 Y94.568 E10.09678
G1 X96.741 Y94.892 E10.11952
G1 X97.875 Y96.026 E10.17326
G1 X97.321 Y96.393 E10.19553
G1 X96.198 Y95.270 E10.24876
G1 X95.725 Y95.718 E10.27058
G1 X96.830 Y96.822 E10.32295
G1 X96.399 Y97.312 E10.34481
G1 X95.283 Y96.196 E10.39771
G1 X94.902 Y96.735 E10.41984
G1 X96.031 Y97.864 E10.47337
G1 X95.738 Y98.492 E10.49659
G1 X94.574 Y97.327 E10.55179
G1 X94.306 Y97.980 E10.57544
G1 X95.538 Y99.212 E10.63385
G1 X95.447 Y100.041 E10.66181
G1 X94.110 Y98.704 E10.72519
G1 X94.007 Y99.522 E10.75281
G1 X95.539 Y101.054 E10.82542
G1 X94.245 Y101.602 F7800.000
G1 X98.385 Y105.741 E11.02166 F1800.000
G1 X99.541 Y105.977 E11.06121
G1 X97.441 Y103.877 E11.16077
G1 X96.349 Y104.625 F7800.000
G1 X95.330 Y103.607 E11.20905 F1800.000
G1 X96.124 Y102.559 F7800.000
G1 X94.027 Y100.462 E11.30845 F1800.000
G1 X101.640 Y94.268 F7800.000
G1 X105.729 Y98.357 E11.50231 F1800.000
G1 Z0.600 F7800.000
G1 X102.593 Y102.206 F7800.000
G1 X102.192 Y102.608 E11.51281 F900.000
G1 X101.704 Y102.950 E11.52383
G1 X101.165 Y103.201 E11.53481
G1 X100.592 Y103.355 E11.54579
G1 X100.000 Y103.406 E11.55677
G1 X99.409 Y103.355 E11.56775
G1 X98.835 Y103.201 E11.57873
G1 X98.297 Y102.950 E11.58970
G1 X97.811 Y102.609 E11.60068
G1 X97.391 Y102.190 E11.61166
G1 X97.050 Y101.703 E11.62264
G1 X96.799 Y101.165 E11.63362
G1 X96.646 Y100.592 E11.64460
G1 X96.593 Y99.994 E11.65568
G1 X96.653 Y99.380 E11.66709
G1 X96.799 Y98.835 E11.67752
G1 X97.050 Y98.297 E11.68850
G1 X97.391 Y97.810 E11.69948
G1 X97.811 Y97.390 E11.71046
G1 X98.297 Y97.050 E11.72144
G1 X98.840 Y96.797 E11.73252
G1 X99.438 Y96.643 E11.74394
G1 X100.000 Y96.594 E11.75437 F900.000
G1 X100.592 Y96.645 E11.76535
G1 X101.165 Y96.799 E11.77632
G1 X101.704 Y97.050 E11.78730
G1 X102.190 Y97.390 E11.79828
G1 X102.610 Y97.810 E11.80926
G1 X102.950 Y98.297 E11.82024
G1 X103.201 Y98.835 E11.83122
G1 X103.355 Y99.408 E11.84220
G1 X103.407 Y100.000 E11.85317
G1 X103.355 Y100.592 E11.86415
G1 X103.201 Y101.165 E11.87513
G1 X102.950 Y101.703 E11.88611
G1 X102.631 Y102.160 E11.89642
G1 X102.223 Y101.865 F7800.000
G1 X101.867 Y102.222 E11.90573 F900.000
G1 X101.451 Y102.513 E11.91513
G1 X100.993 Y102.727 E11.92448
G1 X100.504 Y102.858 E11.93383
G1 X100.000 Y102.902 E11.94318
G1 X99.496 Y102.858 E11.95254
G1 X99.008 Y102.727 E11.96189
G1 X98.549 Y102.513 E11.97124
G1 X98.135 Y102.223 E11.98059
G1 X97.777 Y101.865 E11.98995
G1 X97.487 Y101.451 E11.99930
G1 X97.273 Y100.993 E12.00865
G1 X97.143 Y100.504 E12.01800
G1 X97.098 Y99.997 E12.02741
G1 X97.150 Y99.470 E12.03720
G1 X97.273 Y99.007 E12.04605
G1 X97.487 Y98.549 E12.05540
G1 X97.777 Y98.135 E12.06476
G1 X98.135 Y97.777 E12.07411
G1 X98.549 Y97.487 E12.08346
G1 X99.011 Y97.272 E12.09287
G1 X99.523 Y97.140 E12.10266
G1 X100.000 Y97.098 E12.11151 F900.000
G1 X100.504 Y97.142 E12.12086
G1 X100.993 Y97.273 E12.13022
G1 X101.451 Y97.487 E12.13957
G1 X101.866 Y97.777 E12.14892
G1 X102.223 Y98.135 E12.15827
G1 X102.513 Y98.549 E12.16763
G1 X102.727 Y99.007 E12.17698
G1 X102.858 Y99.496 E12.18633
G1 X102.902 Y100.000 E12.19568
G1 X102.858 Y100.504 E12.20503
G1 X102.727 Y100.993 E12.21439
G1 X102.513 Y101.451 E12.22374
G1 X102.258 Y101.816 E12.23198
G1 X101.897 Y101.591 F7800.000
G1 X101.593 Y101.895 E12.23745 F900.000
G1 X101.238 Y102.144 E12.24297
G1 X100.847 Y102.326 E12.24847
G1 X100.430 Y102.438 E12.25397
G1 X100.000 Y102.476 E12.25947
G1 X99.570 Y102.438 E12.26497
G1 X99.154 Y102.326 E12.27046
G1 X98.762 Y102.144 E12.27596
G1 X98.409 Y101.897 E12.28146
G1 X98.104 Y101.591 E12.28696
G1 X97.856 Y101.238 E12.29245
G1 X97.674 Y100.847 E12.29795
