; generated by Slic3r 1.2.9 on 2019-09-19 at 12:45:38

; external perimeters extrusion width = 0.40mm
; perimeters extrusion width = 0.56mm
; infill extrusion width = 0.56mm
; solid infill extrusion width = 0.56mm
; top infill extrusion width = 0.56mm

M107
M190 S65 ; set bed temperature
M104 S200 ; set temperature
G28 ; home all axes
G1 Z5 F5000 ; lift nozzle

M109 S200 ; wait for temperature to be reached
G21 ; set units to millimeters
G90 ; use absolute coordinates
M82 ; use absolute distances for extrusion
G92 E0
G1 Z0.350 F7800.000
G1 E-2.00000 F2400.00000
G92 E0
G1 X88.592 Y88.594 F7800.000
G1 E2.00000 F2400.00000
G1 X88.992 Y88.194 E2.01821 F1800.000
G1 X89.476 Y87.755 E2.03924
G1 X90.152 Y87.205 E2.06730
G1 X90.613 Y86.866 E2.08569
G1 X91.397 Y86.339 E2.11610
G1 X91.961 Y86.000 E2.13726
G1 X92.794 Y85.554 E2.16768
G1 X93.388 Y85.272 E2.18883
G1 X94.261 Y84.911 E2.21925
G1 X94.880 Y84.690 E2.24040
G1 X95.785 Y84.416 E2.27082
G1 X96.423 Y84.257 E2.29198
G1 X97.351 Y84.075 E2.32239
G1 X97.905 Y83.990 E2.34045
G1 X98.801 Y83.899 E2.36940
G1 X99.437 Y83.868 E2.38990
G1 X100.564 Y83.868 E2.42617
G1 X101.217 Y83.900 E2.44721 F1800.000
G1 X102.084 Y83.989 E2.47527
G1 X102.649 Y84.075 E2.49366
G1 X103.577 Y84.257 E2.52407
G1 X104.287 Y84.438 E2.54764
G1 X105.120 Y84.690 E2.57564
G1 X105.739 Y84.911 E2.59680
G1 X106.612 Y85.272 E2.62721
G1 X107.206 Y85.554 E2.64837
G1 X108.039 Y86.000 E2.67878
G1 X108.603 Y86.339 E2.69994
G1 X109.387 Y86.866 E2.73035
G1 X109.839 Y87.198 E2.74841
G1 X110.532 Y87.762 E2.77715
G1 X111.009 Y88.195 E2.79787
G1 X111.806 Y88.992 E2.83413
G1 X112.245 Y89.476 E2.85517
G1 X112.795 Y90.152 E2.88323
G1 X113.134 Y90.613 E2.90162
G1 X113.661 Y91.398 E2.93204
G1 X114.000 Y91.961 E2.95319
G1 X114.446 Y92.794 E2.98360
G1 X114.728 Y93.388 E3.00476
G1 X115.089 Y94.261 E3.03518
G1 X115.310 Y94.880 E3.05633
G1 X115.584 Y95.785 E3.08675
G1 X115.743 Y96.423 E3.10790
G1 X115.925 Y97.351 E3.13832
G1 X116.010 Y97.905 E3.15637
G1 X116.085 Y98.636 E3.18002
G1 X116.132 Y99.437 E3.20583
G1 X116.132 Y100.564 E3.24210
G1 X116.100 Y101.217 E3.26313
G1 X116.011 Y102.084 E3.29119
G1 X115.925 Y102.649 E3.30958
G1 X115.743 Y103.577 E3.34000
G1 X115.584 Y104.215 E3.36115
G1 X115.310 Y105.120 E3.39157
G1 X115.089 Y105.739 E3.41272
G1 X114.728 Y106.612 E3.44314
G1 X114.446 Y107.206 E3.46429
G1 X114.000 Y108.039 E3.49471
G1 X113.661 Y108.602 E3.51586
G1 X113.134 Y109.387 E3.54628
G1 X112.802 Y109.839 E3.56434
G1 X112.238 Y110.532 E3.59307
G1 X111.805 Y111.009 E3.61379
G1 X111.008 Y111.806 E3.65006
G1 X110.524 Y112.245 E3.67110
G1 X109.848 Y112.795 E3.69916
G1 X109.387 Y113.134 E3.71754
G1 X108.602 Y113.661 E3.74796
G1 X108.039 Y114.000 E3.76911
G1 X107.206 Y114.446 E3.79953
G1 X106.612 Y114.728 E3.82069
G1 X105.739 Y115.089 E3.85111
G1 X105.025 Y115.339 E3.87542
G1 X104.215 Y115.584 E3.90268
G1 X103.577 Y115.743 E3.92382
G1 X102.649 Y115.925 E3.95424
G1 X102.095 Y116.010 E3.97230
G1 X101.208 Y116.100 E4.00097
G1 X100.563 Y116.132 E4.02176
G1 X99.436 Y116.132 E4.05802
G1 X98.783 Y116.100 E4.07906
G1 X97.916 Y116.011 E4.10712
G1 X97.351 Y115.925 E4.12551
G1 X96.423 Y115.743 E4.15592
G1 X95.785 Y115.584 E4.17708
G1 X94.880 Y115.310 E4.20750
G1 X94.261 Y115.089 E4.22865
G1 X93.388 Y114.728 E4.25906
G1 X92.794 Y114.446 E4.28022
G1 X91.961 Y114.000 E4.31064
G1 X91.398 Y113.661 E4.33179
G1 X90.613 Y113.134 E4.36221
G1 X90.161 Y112.802 E4.38026
G1 X89.468 Y112.238 E4.40900
G1 X88.991 Y111.805 E4.42972
G1 X88.194 Y111.008 E4.46599
G1 X87.755 Y110.524 E4.48702
G1 X87.205 Y109.848 E4.51508
G1 X86.866 Y109.387 E4.53347
G1 X86.339 Y108.603 E4.56389
G1 X85.965 Y107.973 E4.58746
G1 X85.554 Y107.206 E4.61546
G1 X85.272 Y106.612 E4.63661
G1 X84.911 Y105.739 E4.66703
G1 X84.690 Y105.120 E4.68818
G1 X84.416 Y104.215 E4.71860
G1 X84.257 Y103.577 E4.73975
G1 X84.075 Y102.649 E4.77017
G1 X83.990 Y102.095 E4.78822
G1 X83.899 Y101.201 E4.81713
G1 X83.868 Y100.563 E4.83768
G1 X83.868 Y99.436 E4.87395
G1 X83.900 Y98.783 E4.89499
G1 X83.989 Y97.916 E4.92305
G1 X84.075 Y97.351 E4.94143
G1 X84.257 Y96.423 E4.97185
G1 X84.416 Y95.785 E4.99301
G1 X84.690 Y94.880 E5.02342
G1 X84.911 Y94.261 E5.04458
G1 X85.272 Y93.388 E5.07499
G1 X85.554 Y92.794 E5.09615
G1 X86.000 Y91.961 E5.12657
G1 X86.339 Y91.397 E5.14772
G1 X86.866 Y90.613 E5.17814
G1 X87.198 Y90.161 E5.19619
G1 X87.761 Y89.469 E5.22487
G1 X88.195 Y88.991 E5.24565
G1 X88.549 Y88.637 E5.26178
G1 E3.26178 F2400.00000
G92 E0
G1 X103.907 Y103.288 F7800.000
G1 E2.00000 F2400.00000
G1 X103.247 Y103.936 E2.02977 F1800.000
G1 X102.553 Y104.422 E2.05701
G1 X101.746 Y104.798 E2.08565
G1 X100.887 Y105.028 E2.11429
G1 X100.000 Y105.106 E2.14293
G1 X99.113 Y105.028 E2.17157
G1 X98.254 Y104.798 E2.20021
G1 X97.447 Y104.422 E2.22885
G1 X96.718 Y103.911 E2.25749
G1 X96.089 Y103.282 E2.28613
G1 X95.578 Y102.553 E2.31477
G1 X95.202 Y101.746 E2.34341
G1 X94.972 Y100.887 E2.37205
G1 X94.893 Y99.992 E2.40094
G1 X94.983 Y99.072 E2.43071
G1 X95.202 Y98.254 E2.45796
G1 X95.578 Y97.447 E2.48660
G1 X96.089 Y96.718 E2.51524
G1 X96.718 Y96.089 E2.54387
G1 X97.447 Y95.578 E2.57251
G1 X98.254 Y95.202 E2.60115
G1 X99.113 Y94.972 E2.62979 F1800.000
G1 X100.000 Y94.894 E2.65843
G1 X100.887 Y94.972 E2.68707
G1 X101.746 Y95.202 E2.71571
G1 X102.553 Y95.578 E2.74435
G1 X103.282 Y96.089 E2.77299
G1 X103.911 Y96.718 E2.80163
G1 X104.422 Y97.447 E2.83027
G1 X104.798 Y98.254 E2.85891
G1 X105.028 Y99.113 E2.88755
G1 X105.106 Y100.000 E2.91619
G1 X105.028 Y100.887 E2.94483
G1 X104.798 Y101.746 E2.97347
G1 X104.422 Y102.553 E3.00211
G1 X103.941 Y103.239 E3.02907
G1 X103.428 Y102.883 F7800.000
G1 X102.846 Y103.454 E3.05532 F1800.000
G1 X102.239 Y103.879 E3.07914
G1 X101.532 Y104.209 E3.10426
G1 X100.778 Y104.411 E3.12939
G1 X100.000 Y104.479 E3.15451
G1 X99.222 Y104.411 E3.17963
G1 X98.468 Y104.209 E3.20475
G1 X97.761 Y103.879 E3.22987
G1 X97.121 Y103.431 E3.25499
G1 X96.569 Y102.879 E3.28011
G1 X96.121 Y102.239 E3.30524
G1 X95.791 Y101.532 E3.33036
G1 X95.589 Y100.778 E3.35548
G1 X95.521 Y99.995 E3.38075
G1 X95.600 Y99.183 E3.40700
G1 X95.791 Y98.468 E3.43083
G1 X96.121 Y97.761 E3.45595
G1 X96.569 Y97.121 E3.48107
G1 X97.121 Y96.569 E3.50619
G1 X97.761 Y96.121 E3.53131
G1 X98.468 Y95.791 E3.55643
G1 X99.222 Y95.589 E3.58155
G1 X99.397 Y95.574 E3.58720
G1 X100.000 Y95.521 E3.60667 F1800.000
G1 X100.778 Y95.589 E3.63180
G1 X101.532 Y95.791 E3.65692
G1 X102.239 Y96.121 E3.68204
G1 X102.879 Y96.569 E3.70716
G1 X103.431 Y97.121 E3.73228
G1 X103.879 Y97.761 E3.75740
G1 X104.209 Y98.468 E3.78252
G1 X104.411 Y99.222 E3.80764
G1 X104.479 Y100.000 E3.83277
G1 X104.411 Y100.778 E3.85789
G1 X104.209 Y101.532 E3.88301
G1 X103.879 Y102.239 E3.90813
G1 X103.463 Y102.834 E3.93147
G1 X102.949 Y102.477 F7800.000
G1 X102.445 Y102.972 E3.95420 F1800.000
G1 X101.926 Y103.335 E3.97461
G1 X101.317 Y103.619 E3.99621
G1 X100.669 Y103.793 E4.01781
G1 X100.000 Y103.851 E4.03941
G1 X99.331 Y103.793 E4.06102
G1 X98.683 Y103.619 E4.08262
G1 X98.074 Y103.335 E4.10422
G1 X97.524 Y102.950 E4.12583
G1 X97.050 Y102.476 E4.14743
G1 X96.665 Y101.926 E4.16903
G1 X96.381 Y101.317 E4.19063
G1 X96.207 Y100.669 E4.21224
G1 X96.149 Y99.998 E4.23389
G1 X96.217 Y99.295 E4.25663
G1 X96.381 Y98.683 E4.27703
G1 X96.665 Y98.074 E4.29863
G1 X97.050 Y97.524 E4.32023
G1 X97.524 Y97.050 E4.34184
G1 X98.074 Y96.665 E4.36344
G1 X98.683 Y96.381 E4.38504
G1 X99.331 Y96.207 E4.40665
G1 X99.451 Y96.197 E4.41053
G1 X100.000 Y96.149 E4.42825 F1800.000
G1 X100.669 Y96.207 E4.44985
G1 X101.317 Y96.381 E4.47145
G1 X101.926 Y96.665 E4.49306
G1 X102.476 Y97.050 E4.51466
G1 X102.950 Y97.524 E4.53626
G1 X103.335 Y98.074 E4.55786
G1 X103.619 Y98.683 E4.57947
G1 X103.793 Y99.331 E4.60107
G1 X103.851 Y100.000 E4.62267
G1 X103.793 Y100.669 E4.64428
G1 X103.619 Y101.317 E4.66588
G1 X103.335 Y101.926 E4.68748
G1 X102.984 Y102.428 E4.70721
G1 X103.073 Y102.857 F7800.000
G1 X105.450 Y105.353 F7800.000
G1 X105.103 Y105.765 E4.72454 F1800.000
G1 X104.879 Y106.235 E4.74131
G1 X104.741 Y106.347 E4.74700
G1 X104.084 Y106.788 E4.77248
G1 X103.391 Y107.159 E4.79778
G1 X102.665 Y107.460 E4.82308
G1 X101.912 Y107.688 E4.84838
G1 X101.135 Y107.840 E4.87386
G1 X100.959 Y107.858 E4.87956
G1 X100.468 Y107.684 E4.89632
G1 X100.000 Y107.644 E4.91143
G1 X99.532 Y107.684 E4.92655
G1 X99.041 Y107.858 E4.94332
G1 X98.865 Y107.840 E4.94901
G1 X98.088 Y107.688 E4.97449
G1 X97.335 Y107.460 E4.99979
G1 X96.609 Y107.159 E5.02509
G1 X95.916 Y106.788 E5.05039
G1 X95.259 Y106.347 E5.07587
G1 X95.122 Y106.236 E5.08153
G1 X95.031 Y105.993 E5.08986
G1 X94.647 Y105.450 E5.11127
G1 X94.235 Y105.103 E5.12860
G1 X93.765 Y104.879 E5.14537
G1 X93.653 Y104.741 E5.15106
G1 X93.212 Y104.084 E5.17654
G1 X92.841 Y103.391 E5.20184
G1 X92.540 Y102.665 E5.22714
G1 X92.312 Y101.912 E5.25244
G1 X92.160 Y101.135 E5.27792
G1 X92.142 Y100.960 E5.28358
G1 X92.249 Y100.724 E5.29191
G1 X92.361 Y100.069 E5.31332
G1 X92.316 Y99.532 E5.33065
G1 X92.142 Y99.041 E5.34742
G1 X92.160 Y98.865 E5.35311
G1 X92.312 Y98.088 E5.37859
G1 X92.540 Y97.335 E5.40389
G1 X92.841 Y96.609 E5.42919
G1 X93.212 Y95.916 E5.45449
G1 X93.653 Y95.259 E5.47997
G1 X93.764 Y95.122 E5.48563
G1 X94.007 Y95.031 E5.49396
G1 X94.550 Y94.647 E5.51537
G1 X94.897 Y94.235 E5.53271
G1 X95.121 Y93.765 E5.54947
G1 X95.259 Y93.653 E5.55517
G1 X95.916 Y93.212 E5.58065
G1 X96.609 Y92.841 E5.60594
G1 X97.335 Y92.540 E5.63124
G1 X98.088 Y92.312 E5.65654
G1 X98.865 Y92.160 E5.68202
G1 X99.040 Y92.142 E5.68768
G1 X99.276 Y92.249 E5.69601
G1 X99.931 Y92.361 E5.71742
G1 X100.468 Y92.316 E5.73476
G1 X100.959 Y92.142 E5.75152
G1 X101.135 Y92.160 E5.75722
G1 X101.912 Y92.312 E5.78270 F1800.000
G1 X102.665 Y92.540 E5.80800
G1 X103.391 Y92.841 E5.83330
G1 X104.084 Y93.212 E5.85860
G1 X104.741 Y93.653 E5.88407
G1 X104.878 Y93.764 E5.88973
G1 X104.969 Y94.007 E5.89807
G1 X105.353 Y94.550 E5.91948
G1 X105.765 Y94.897 E5.93681
G1 X106.235 Y95.121 E5.95357
G1 X106.347 Y95.259 E5.95927
G1 X106.788 Y95.916 E5.98475
G1 X107.159 Y96.609 E6.01005
G1 X107.460 Y97.335 E6.03535
G1 X107.688 Y98.088 E6.06065
G1 X107.840 Y98.865 E6.08613
G1 X107.858 Y99.041 E6.09182
G1 X107.684 Y99.532 E6.10859
G1 X107.644 Y100.000 E6.12370
G1 X107.684 Y100.468 E6.13882
G1 X107.858 Y100.959 E6.15558
G1 X107.840 Y101.135 E6.16128
G1 X107.688 Y101.912 E6.18676
G1 X107.460 Y102.665 E6.21206
G1 X107.159 Y103.391 E6.23736
G1 X106.788 Y104.084 E6.26266
G1 X106.347 Y104.741 E6.28813
G1 X106.236 Y104.878 E6.29379
G1 X105.993 Y104.969 E6.30213
G1 X105.499 Y105.318 E6.32161
G1 X105.876 Y105.817 F7800.000
G1 X105.632 Y106.106 E6.33377 F1800.000
G1 X105.382 Y106.631 E6.35248
G1 X105.114 Y106.849 E6.36362
G1 X104.407 Y107.324 E6.39103
G1 X103.659 Y107.725 E6.41833
G1 X102.875 Y108.050 E6.44563
G1 X102.063 Y108.295 E6.47292
G1 X101.227 Y108.459 E6.50033
G1 X100.883 Y108.494 E6.51148
G1 X100.335 Y108.300 E6.53018
G1 X100.000 Y108.272 E6.54100
G1 X99.665 Y108.300 E6.55182
G1 X99.117 Y108.494 E6.57052
G1 X98.773 Y108.459 E6.58167
G1 X97.937 Y108.295 E6.60907
G1 X97.125 Y108.050 E6.63637
G1 X96.341 Y107.725 E6.66367
G1 X95.593 Y107.324 E6.69097
G1 X94.886 Y106.849 E6.71837
G1 X94.597 Y106.614 E6.73039
G1 X94.475 Y106.288 E6.74157
G1 X94.183 Y105.876 E6.75782
G1 X93.894 Y105.632 E6.76999
G1 X93.369 Y105.382 E6.78869
G1 X93.151 Y105.114 E6.79984
G1 X92.676 Y104.407 E6.82725
G1 X92.275 Y103.659 E6.85454
G1 X91.950 Y102.875 E6.88184
G1 X91.705 Y102.063 E6.90914
G1 X91.541 Y101.227 E6.93654
G1 X91.503 Y100.856 E6.94856
G1 X91.646 Y100.539 E6.95975
G1 X91.732 Y100.042 E6.97599
G1 X91.700 Y99.665 E6.98816
G1 X91.506 Y99.117 E7.00686
G1 X91.541 Y98.773 E7.01801
G1 X91.705 Y97.937 E7.04542
G1 X91.950 Y97.125 E7.07271
G1 X92.275 Y96.341 E7.10001
G1 X92.676 Y95.593 E7.12731
G1 X93.151 Y94.886 E7.15472
G1 X93.386 Y94.597 E7.16674
G1 X93.712 Y94.475 E7.17792
G1 X94.124 Y94.183 E7.19416
G1 X94.368 Y93.894 E7.20633
G1 X94.618 Y93.369 E7.22503
G1 X94.886 Y93.151 E7.23618
G1 X95.593 Y92.676 E7.26359
G1 X96.341 Y92.275 E7.29089
G1 X97.125 Y91.950 E7.31818
G1 X97.937 Y91.705 E7.34548
G1 X98.773 Y91.541 E7.37289
G1 X99.144 Y91.503 E7.38491
G1 X99.461 Y91.646 E7.39609
G1 X99.958 Y91.732 E7.41233 F1800.000
G1 X100.335 Y91.700 E7.42450
G1 X100.883 Y91.506 E7.44320
G1 X101.227 Y91.541 E7.45435
G1 X102.063 Y91.705 E7.48176
G1 X102.875 Y91.950 E7.50906
G1 X103.659 Y92.275 E7.53635
G1 X104.407 Y92.676 E7.56365
G1 X105.114 Y93.151 E7.59106
G1 X105.403 Y93.386 E7.60308
G1 X105.525 Y93.712 E7.61426
G1 X105.817 Y94.124 E7.63050
G1 X106.106 Y94.368 E7.64267
G1 X106.631 Y94.618 E7.66138
G1 X106.849 Y94.886 E7.67252
G1 X107.324 Y95.593 E7.69993
G1 X107.725 Y96.341 E7.72723
G1 X108.050 Y97.125 E7.75452
G1 X108.295 Y97.937 E7.78182
G1 X108.459 Y98.773 E7.80923
G1 X108.494 Y99.117 E7.82038
G1 X108.300 Y99.665 E7.83908
G1 X108.272 Y100.000 E7.84990
G1 X108.300 Y100.335 E7.86071
G1 X108.494 Y100.883 E7.87942
G1 X108.459 Y101.227 E7.89056
G1 X108.295 Y102.063 E7.91797
G1 X108.050 Y102.875 E7.94527
G1 X107.725 Y103.659 E7.97257
G1 X107.324 Y104.407 E7.99986
G1 X106.849 Y105.114 E8.02727
G1 X106.614 Y105.403 E8.03929
G1 X106.288 Y105.525 E8.05047
G1 X105.925 Y105.782 E8.06479
G1 X106.302 Y106.281 F7800.000
G1 X106.162 Y106.447 E8.07179 F1800.000
G1 X106.007 Y106.772 E8.08338
G1 X105.990 Y106.942 E8.08885
G1 X105.486 Y107.352 E8.10977
G1 X104.729 Y107.860 E8.13910
G1 X103.927 Y108.290 E8.16840
G1 X103.086 Y108.639 E8.19770
G1 X102.214 Y108.902 E8.22699
G1 X101.320 Y109.078 E8.25633
G1 X100.673 Y109.144 E8.27725
G1 X100.542 Y109.036 E8.28271
G1 X100.202 Y108.916 E8.29431
G1 X100.000 Y108.899 E8.30083
G1 X99.798 Y108.916 E8.30734
G1 X99.459 Y109.036 E8.31893
G1 X99.327 Y109.144 E8.32441
G1 X98.680 Y109.078 E8.34532
G1 X97.786 Y108.902 E8.37466
G1 X96.914 Y108.639 E8.40395
G1 X96.073 Y108.290 E8.43325
G1 X95.271 Y107.860 E8.46255
G1 X94.514 Y107.352 E8.49188
G1 X94.010 Y106.941 E8.51281
G1 X93.995 Y106.788 E8.51777
G1 X93.918 Y106.583 E8.52481
G1 X93.719 Y106.302 E8.53588
G1 X93.553 Y106.162 E8.54288
G1 X93.228 Y106.007 E8.55448
G1 X93.058 Y105.990 E8.55995
G1 X92.648 Y105.486 E8.58087
G1 X92.140 Y104.729 E8.61020
G1 X91.710 Y103.927 E8.63950
G1 X91.361 Y103.086 E8.66879
G1 X91.098 Y102.214 E8.69809
G1 X90.922 Y101.320 E8.72742
G1 X90.856 Y100.673 E8.74835
G1 X90.954 Y100.553 E8.75332
G1 X91.044 Y100.354 E8.76035
G1 X91.103 Y100.015 E8.77143
G1 X91.084 Y99.798 E8.77843
G1 X90.964 Y99.459 E8.79002
G1 X90.856 Y99.327 E8.79549
G1 X90.922 Y98.680 E8.81641
G1 X91.098 Y97.786 E8.84575
G1 X91.361 Y96.914 E8.87504
G1 X91.710 Y96.073 E8.90434
G1 X92.140 Y95.271 E8.93363
G1 X92.648 Y94.514 E8.96297
G1 X93.059 Y94.010 E8.98390
G1 X93.212 Y93.995 E8.98886
G1 X93.417 Y93.918 E8.99589
G1 X93.698 Y93.719 E9.00697
G1 X93.838 Y93.553 E9.01397
G1 X93.993 Y93.228 E9.02556
G1 X94.010 Y93.058 E9.03104
G1 X94.514 Y92.648 E9.05195
G1 X95.271 Y92.140 E9.08129
G1 X96.073 Y91.710 E9.11058
G1 X96.914 Y91.361 E9.13988
G1 X97.786 Y91.098 E9.16918
G1 X98.680 Y90.922 E9.19851
G1 X99.316 Y90.857 E9.21907
G1 X99.457 Y90.959 E9.22466
G1 X99.646 Y91.044 E9.23133
G1 X99.985 Y91.103 E9.24240
G1 X100.202 Y91.084 E9.24940
G1 X100.541 Y90.964 E9.26100
G1 X100.673 Y90.856 E9.26647
G1 X101.320 Y90.922 E9.28739
G1 X102.214 Y91.098 E9.31672 F1800.000
G1 X103.086 Y91.361 E9.34602
G1 X103.927 Y91.710 E9.37531
G1 X104.729 Y92.140 E9.40461
G1 X105.486 Y92.648 E9.43394
G1 X105.990 Y93.059 E9.45487
G1 X106.005 Y93.212 E9.45984
G1 X106.082 Y93.417 E9.46687
G1 X106.281 Y93.698 E9.47795
G1 X106.447 Y93.838 E9.48495
G1 X106.772 Y93.993 E9.49654
G1 X106.942 Y94.010 E9.50201
G1 X107.352 Y94.514 E9.52293
G1 X107.860 Y95.271 E9.55226
G1 X108.290 Y96.073 E9.58156
G1 X108.639 Y96.914 E9.61086
G1 X108.902 Y97.786 E9.64015
G1 X109.078 Y98.680 E9.66949
G1 X109.144 Y99.327 E9.69041
G1 X109.036 Y99.458 E9.69587
G1 X108.916 Y99.798 E9.70747
G1 X108.899 Y100.000 E9.71399
G1 X108.916 Y100.202 E9.72050
G1 X109.036 Y100.541 E9.73209
G1 X109.144 Y100.673 E9.73757
G1 X109.078 Y101.320 E9.75848
G1 X108.902 Y102.214 E9.78782
G1 X108.639 Y103.086 E9.81712
G1 X108.290 Y103.927 E9.84641
G1 X107.860 Y104.729 E9.87571
G1 X107.352 Y105.486 E9.90504
