; generated by Slic3r 1.2.9 on 2019-09-19 at 13:17:03

; external perimeters extrusion width = 0.40mm
; perimeters extrusion width = 0.56mm
; infill extrusion width = 0.56mm
; solid infill extrusion width = 0.56mm
; top infill extrusion width = 0.56mm

M107
M190 S65 ; set bed temperature
M104 S200 ; set temperature
G28 ; home all axes
G1 Z5 F5000 ; lift nozzle

M109 S200 ; wait for temperature to be reached
G21 ; set units to millimeters
G90 ; use absolute coordinates
M82 ; use absolute distances for extrusion
G92 E0
G1 Z0.350 F7800.000
G1 E-2.00000 F2400.00000
G92 E0
G1 X88.592 Y88.594 F7800.000
G1 E2.00000 F2400.00000
G1 X88.992 Y88.194 E2.01820 F1800.000
G1 X89.476 Y87.755 E2.03924
G1 X90.152 Y87.205 E2.06730
G1 X90.613 Y86.866 E2.08569
G1 X91.397 Y86.339 E2.11610
G1 X91.961 Y86.000 E2.13726
G1 X92.794 Y85.554 E2.16767
G1 X93.388 Y85.272 E2.18883
G1 X94.261 Y84.911 E2.21925
G1 X94.880 Y84.690 E2.24040
G1 X95.785 Y84.416 E2.27082
G1 X96.423 Y84.257 E2.29197
G1 X97.351 Y84.075 E2.32239
G1 X97.905 Y83.990 E2.34044
G1 X98.800 Y83.899 E2.36937
G1 X99.437 Y83.868 E2.38990
G1 X100.564 Y83.868 E2.42617
G1 X101.217 Y83.900 E2.44721 F1800.000
G1 X102.084 Y83.989 E2.47526
G1 X102.649 Y84.075 E2.49365
G1 X103.577 Y84.257 E2.52407
G1 X104.287 Y84.438 E2.54764
G1 X105.120 Y84.690 E2.57564
G1 X105.739 Y84.911 E2.59679
G1 X106.612 Y85.272 E2.62721
G1 X107.206 Y85.554 E2.64837
G1 X108.039 Y86.000 E2.67878
G1 X108.603 Y86.339 E2.69994
G1 X109.387 Y86.866 E2.73035
G1 X109.839 Y87.198 E2.74841
G1 X110.532 Y87.762 E2.77715
G1 X111.009 Y88.195 E2.79786
G1 X111.806 Y88.992 E2.83413
G1 X112.245 Y89.476 E2.85517
G1 X112.795 Y90.152 E2.88323
G1 X113.134 Y90.613 E2.90162
G1 X113.661 Y91.398 E2.93203
G1 X114.000 Y91.961 E2.95319
G1 X114.446 Y92.794 E2.98360
G1 X114.728 Y93.388 E3.00476
G1 X115.089 Y94.261 E3.03518
G1 X115.310 Y94.880 E3.05633
G1 X115.584 Y95.785 E3.08675
G1 X115.743 Y96.423 E3.10790
G1 X115.925 Y97.351 E3.13832
G1 X116.010 Y97.905 E3.15637
G1 X116.085 Y98.636 E3.18001
G1 X116.132 Y99.437 E3.20583
G1 X116.132 Y100.564 E3.24209
G1 X116.100 Y101.217 E3.26313
G1 X116.011 Y102.084 E3.29119
G1 X115.925 Y102.649 E3.30958
G1 X115.743 Y103.577 E3.34000
G1 X115.584 Y104.215 E3.36114
G1 X115.310 Y105.120 E3.39157
G1 X115.089 Y105.739 E3.41271
G1 X114.728 Y106.612 E3.44314
G1 X114.446 Y107.206 E3.46429
G1 X114.000 Y108.039 E3.49471
G1 X113.661 Y108.602 E3.51586
G1 X113.134 Y109.387 E3.54628
G1 X112.802 Y109.839 E3.56433
G1 X112.237 Y110.533 E3.59311
G1 X111.805 Y111.009 E3.61379
G1 X111.008 Y111.806 E3.65006
G1 X110.524 Y112.245 E3.67110
G1 X109.848 Y112.795 E3.69915
G1 X109.387 Y113.134 E3.71754
G1 X108.602 Y113.661 E3.74796
G1 X108.039 Y114.000 E3.76911
G1 X107.206 Y114.446 E3.79953
G1 X106.612 Y114.728 E3.82068
G1 X105.739 Y115.089 E3.85110
G1 X105.025 Y115.339 E3.87542
G1 X104.215 Y115.584 E3.90267
G1 X103.577 Y115.743 E3.92382
G1 X102.649 Y115.925 E3.95424
G1 X102.095 Y116.010 E3.97229
G1 X101.200 Y116.101 E4.00123
G1 X100.563 Y116.132 E4.02175
G1 X99.436 Y116.132 E4.05802
G1 X98.783 Y116.100 E4.07906
G1 X97.916 Y116.011 E4.10712
G1 X97.351 Y115.925 E4.12550
G1 X96.423 Y115.743 E4.15592
G1 X95.785 Y115.584 E4.17708
G1 X94.880 Y115.310 E4.20750
G1 X94.261 Y115.089 E4.22864
G1 X93.388 Y114.728 E4.25906
G1 X92.794 Y114.446 E4.28022
G1 X91.961 Y114.000 E4.31064
G1 X91.398 Y113.661 E4.33179
G1 X90.613 Y113.134 E4.36221
G1 X90.161 Y112.802 E4.38026
G1 X89.468 Y112.238 E4.40900
G1 X88.991 Y111.805 E4.42972
G1 X88.194 Y111.008 E4.46599
G1 X87.755 Y110.524 E4.48702
G1 X87.205 Y109.848 E4.51508
G1 X86.866 Y109.387 E4.53347
G1 X86.339 Y108.603 E4.56388
G1 X85.965 Y107.973 E4.58746
G1 X85.554 Y107.206 E4.61545
G1 X85.272 Y106.612 E4.63661
G1 X84.911 Y105.739 E4.66703
G1 X84.690 Y105.120 E4.68818
G1 X84.416 Y104.215 E4.71860
G1 X84.257 Y103.577 E4.73975
G1 X84.075 Y102.649 E4.77017
G1 X83.990 Y102.095 E4.78822
G1 X83.899 Y101.201 E4.81713
G1 X83.868 Y100.563 E4.83768
G1 X83.868 Y99.436 E4.87395
G1 X83.900 Y98.783 E4.89499
G1 X83.989 Y97.916 E4.92304
G1 X84.075 Y97.351 E4.94143
G1 X84.257 Y96.423 E4.97185
G1 X84.416 Y95.785 E4.99300
G1 X84.690 Y94.880 E5.02342
G1 X84.911 Y94.261 E5.04458
G1 X85.272 Y93.388 E5.07499
G1 X85.554 Y92.794 E5.09615
G1 X86.000 Y91.961 E5.12656
G1 X86.339 Y91.397 E5.14772
G1 X86.866 Y90.613 E5.17814
G1 X87.198 Y90.161 E5.19619
G1 X87.763 Y89.467 E5.22496
G1 X88.195 Y88.991 E5.24565
G1 X88.549 Y88.637 E5.26178
G1 E3.26178 F2400.00000
G92 E0
G1 X103.120 Y103.123 F7800.000
G1 E2.00000 F2400.00000
G1 X102.848 Y103.394 E2.01237 F1800.000
G1 X102.215 Y103.837 E2.03722
G1 X101.515 Y104.164 E2.06207
G1 X100.769 Y104.364 E2.08693
G1 X100.000 Y104.431 E2.11178
G1 X99.231 Y104.364 E2.13663
G1 X98.485 Y104.164 E2.16149
G1 X97.785 Y103.837 E2.18634
G1 X97.152 Y103.394 E2.21119
G1 X96.606 Y102.848 E2.23605
G1 X96.163 Y102.215 E2.26090
G1 X95.836 Y101.515 E2.28576
G1 X95.636 Y100.769 E2.31061
G1 X95.569 Y100.000 E2.33546
G1 X95.636 Y99.231 E2.36032
G1 X95.836 Y98.485 E2.38517
G1 X96.163 Y97.785 E2.41002
G1 X96.606 Y97.152 E2.43488
G1 X97.152 Y96.606 E2.45973
G1 X97.785 Y96.163 E2.48458
G1 X98.485 Y95.836 E2.50944
G1 X99.231 Y95.636 E2.53429
G1 X99.709 Y95.595 E2.54973
G1 X100.000 Y95.569 E2.55914 F1800.000
G1 X100.769 Y95.636 E2.58400
G1 X101.515 Y95.836 E2.60885
G1 X102.215 Y96.163 E2.63371
G1 X102.848 Y96.606 E2.65856
G1 X103.394 Y97.152 E2.68341
G1 X103.837 Y97.785 E2.70827
G1 X104.164 Y98.485 E2.73312
G1 X104.364 Y99.231 E2.75797
G1 X104.431 Y100.000 E2.78283
G1 X104.364 Y100.769 E2.80768
G1 X104.164 Y101.515 E2.83253
G1 X103.837 Y102.215 E2.85739
G1 X103.394 Y102.848 E2.88224
G1 X103.162 Y103.080 E2.89280
G1 X102.678 Y102.681 F7800.000
G1 X102.445 Y102.914 E2.90341 F1800.000
G1 X101.902 Y103.294 E2.92474
G1 X101.301 Y103.574 E2.94608
G1 X100.660 Y103.746 E2.96741
G1 X100.000 Y103.804 E2.98875
G1 X99.340 Y103.746 E3.01008
G1 X98.699 Y103.574 E3.03142
G1 X98.098 Y103.294 E3.05275
G1 X97.555 Y102.914 E3.07409
G1 X97.086 Y102.445 E3.09542
G1 X96.706 Y101.902 E3.11676
G1 X96.426 Y101.301 E3.13809
G1 X96.254 Y100.660 E3.15943
G1 X96.196 Y100.000 E3.18076
G1 X96.254 Y99.340 E3.20210
G1 X96.426 Y98.699 E3.22343
G1 X96.706 Y98.098 E3.24477
G1 X97.086 Y97.555 E3.26610
G1 X97.555 Y97.086 E3.28744
G1 X98.098 Y96.706 E3.30877
G1 X98.699 Y96.426 E3.33011
G1 X99.340 Y96.254 E3.35144 F1800.000
G1 X100.000 Y96.196 E3.37278
G1 X100.660 Y96.254 E3.39411
G1 X101.301 Y96.426 E3.41545
G1 X101.902 Y96.706 E3.43678
G1 X102.445 Y97.086 E3.45812
G1 X102.914 Y97.555 E3.47945
G1 X103.294 Y98.098 E3.50079
G1 X103.574 Y98.699 E3.52212
G1 X103.746 Y99.340 E3.54346
G1 X103.804 Y100.000 E3.56479
G1 X103.746 Y100.660 E3.58613
G1 X103.574 Y101.301 E3.60746
G1 X103.294 Y101.902 E3.62880
G1 X102.914 Y102.445 E3.65013
G1 X102.720 Y102.638 E3.65893
G1 X102.236 Y102.239 F7800.000
G1 X102.042 Y102.433 E3.66778 F1800.000
G1 X101.588 Y102.751 E3.68559
G1 X101.086 Y102.985 E3.70341
G1 X100.552 Y103.128 E3.72123
G1 X100.000 Y103.176 E3.73904
G1 X99.448 Y103.128 E3.75686
G1 X98.914 Y102.985 E3.77468
G1 X98.412 Y102.751 E3.79249
G1 X97.958 Y102.433 E3.81031
G1 X97.567 Y102.042 E3.82813
G1 X97.249 Y101.588 E3.84594
G1 X97.015 Y101.086 E3.86376
G1 X96.872 Y100.552 E3.88158
G1 X96.824 Y100.000 E3.89939
G1 X96.872 Y99.448 E3.91721
G1 X97.015 Y98.914 E3.93503
G1 X97.249 Y98.412 E3.95284
G1 X97.567 Y97.958 E3.97066
G1 X97.958 Y97.567 E3.98848
G1 X98.412 Y97.249 E4.00629
G1 X98.914 Y97.015 E4.02411
G1 X99.448 Y96.872 E4.04193
G1 X99.818 Y96.840 E4.05385
G1 X100.000 Y96.824 E4.05974 F1800.000
G1 X100.552 Y96.872 E4.07756
G1 X101.086 Y97.015 E4.09538
G1 X101.588 Y97.249 E4.11319
G1 X102.042 Y97.567 E4.13101
G1 X102.433 Y97.958 E4.14883
G1 X102.751 Y98.412 E4.16664
G1 X102.985 Y98.914 E4.18446
G1 X103.128 Y99.448 E4.20228
G1 X103.176 Y100.000 E4.22009
G1 X103.128 Y100.552 E4.23791
G1 X102.985 Y101.086 E4.25573
G1 X102.751 Y101.588 E4.27354
G1 X102.433 Y102.042 E4.29136
G1 X102.279 Y102.196 E4.29840
G1 X102.307 Y102.504 F7800.000
G1 X105.450 Y105.353 F7800.000
G1 X105.103 Y105.765 E4.31573 F1800.000
G1 X104.879 Y106.235 E4.33250
G1 X104.741 Y106.347 E4.33819
G1 X104.084 Y106.788 E4.36367
G1 X103.391 Y107.159 E4.38897
G1 X102.665 Y107.460 E4.41427
G1 X101.912 Y107.688 E4.43957
G1 X101.135 Y107.840 E4.46505
G1 X100.959 Y107.858 E4.47074
G1 X100.468 Y107.684 E4.48751
G1 X100.000 Y107.644 E4.50262
G1 X99.532 Y107.684 E4.51774
G1 X99.041 Y107.858 E4.53450
G1 X98.865 Y107.840 E4.54020
G1 X98.088 Y107.688 E4.56568
G1 X97.335 Y107.460 E4.59098
G1 X96.609 Y107.159 E4.61628
G1 X95.916 Y106.788 E4.64158
G1 X95.259 Y106.347 E4.66705
G1 X95.122 Y106.236 E4.67271
G1 X95.031 Y105.993 E4.68105
G1 X94.647 Y105.450 E4.70246
G1 X94.235 Y105.103 E4.71979
G1 X93.765 Y104.879 E4.73656
G1 X93.653 Y104.741 E4.74225
G1 X93.212 Y104.084 E4.76773
G1 X92.841 Y103.391 E4.79303
G1 X92.540 Y102.665 E4.81833
G1 X92.312 Y101.912 E4.84363
G1 X92.160 Y101.135 E4.86911
G1 X92.142 Y100.960 E4.87477
G1 X92.249 Y100.724 E4.88310
G1 X92.361 Y100.069 E4.90451
G1 X92.316 Y99.532 E4.92184
G1 X92.142 Y99.041 E4.93861
G1 X92.160 Y98.865 E4.94430
G1 X92.312 Y98.088 E4.96978
G1 X92.540 Y97.335 E4.99508
G1 X92.841 Y96.609 E5.02038
G1 X93.212 Y95.916 E5.04568
G1 X93.653 Y95.259 E5.07116
G1 X93.764 Y95.122 E5.07682
G1 X94.007 Y95.031 E5.08515
G1 X94.550 Y94.647 E5.10656
G1 X94.897 Y94.235 E5.12390
G1 X95.121 Y93.765 E5.14066
G1 X95.259 Y93.653 E5.14635
G1 X95.916 Y93.212 E5.17183
G1 X96.609 Y92.841 E5.19713
G1 X97.335 Y92.540 E5.22243
G1 X98.088 Y92.312 E5.24773
G1 X98.865 Y92.160 E5.27321
G1 X99.040 Y92.142 E5.27887
G1 X99.276 Y92.249 E5.28720
G1 X99.931 Y92.361 E5.30861
G1 X100.468 Y92.316 E5.32595
G1 X100.959 Y92.142 E5.34271
G1 X101.135 Y92.160 E5.34841
G1 X101.912 Y92.312 E5.37389 F1800.000
G1 X102.665 Y92.540 E5.39919
G1 X103.391 Y92.841 E5.42449
G1 X104.084 Y93.212 E5.44978
G1 X104.741 Y93.653 E5.47526
G1 X104.878 Y93.764 E5.48092
G1 X104.969 Y94.007 E5.48925
G1 X105.353 Y94.550 E5.51067
G1 X105.765 Y94.897 E5.52800
G1 X106.235 Y95.121 E5.54476
G1 X106.347 Y95.259 E5.55046
G1 X106.788 Y95.916 E5.57594
G1 X107.159 Y96.609 E5.60124
G1 X107.460 Y97.335 E5.62654
G1 X107.688 Y98.088 E5.65184
G1 X107.840 Y98.865 E5.67731
G1 X107.858 Y99.041 E5.68301
G1 X107.684 Y99.532 E5.69978
G1 X107.644 Y100.000 E5.71489
G1 X107.684 Y100.468 E5.73001
G1 X107.858 Y100.959 E5.74677
G1 X107.840 Y101.135 E5.75247
G1 X107.688 Y101.912 E5.77795
G1 X107.460 Y102.665 E5.80325
G1 X107.159 Y103.391 E5.82855
G1 X106.788 Y104.084 E5.85384
G1 X106.347 Y104.741 E5.87932
G1 X106.236 Y104.878 E5.88498
G1 X105.993 Y104.969 E5.89331
G1 X105.499 Y105.318 E5.91279
G1 X105.876 Y105.817 F7800.000
G1 X105.632 Y106.106 E5.92496 F1800.000
G1 X105.382 Y106.631 E5.94367
G1 X105.114 Y106.849 E5.95481
G1 X104.407 Y107.324 E5.98222
G1 X103.659 Y107.725 E6.00952
G1 X102.875 Y108.050 E6.03682
G1 X102.063 Y108.295 E6.06411
G1 X101.227 Y108.459 E6.09152
G1 X100.883 Y108.494 E6.10267
G1 X100.335 Y108.300 E6.12137
G1 X100.000 Y108.272 E6.13219
G1 X99.665 Y108.300 E6.14300
G1 X99.117 Y108.494 E6.16171
G1 X98.773 Y108.459 E6.17286
G1 X97.937 Y108.295 E6.20026
G1 X97.125 Y108.050 E6.22756
G1 X96.341 Y107.725 E6.25486
G1 X95.593 Y107.324 E6.28216
G1 X94.886 Y106.849 E6.30956
G1 X94.597 Y106.614 E6.32158
G1 X94.475 Y106.288 E6.33276
G1 X94.183 Y105.876 E6.34901
G1 X93.894 Y105.632 E6.36118
G1 X93.369 Y105.382 E6.37988
G1 X93.151 Y105.114 E6.39103
G1 X92.676 Y104.407 E6.41843
G1 X92.275 Y103.659 E6.44573
G1 X91.950 Y102.875 E6.47303
G1 X91.705 Y102.063 E6.50033
G1 X91.541 Y101.227 E6.52773
G1 X91.503 Y100.856 E6.53975
G1 X91.646 Y100.539 E6.55093
G1 X91.732 Y100.042 E6.56718
G1 X91.700 Y99.665 E6.57935
G1 X91.506 Y99.117 E6.59805
G1 X91.541 Y98.773 E6.60920
G1 X91.705 Y97.937 E6.63661
G1 X91.950 Y97.125 E6.66390
G1 X92.275 Y96.341 E6.69120
G1 X92.676 Y95.593 E6.71850
G1 X93.151 Y94.886 E6.74590
G1 X93.386 Y94.597 E6.75793
G1 X93.712 Y94.475 E6.76911
G1 X94.124 Y94.183 E6.78535
G1 X94.368 Y93.894 E6.79752
G1 X94.618 Y93.369 E6.81622
G1 X94.886 Y93.151 E6.82737
G1 X95.593 Y92.676 E6.85478
G1 X96.341 Y92.275 E6.88207
G1 X97.125 Y91.950 E6.90937
G1 X97.937 Y91.705 E6.93667
G1 X98.773 Y91.541 E6.96408
G1 X99.144 Y91.503 E6.97610
G1 X99.461 Y91.646 E6.98728
G1 X99.958 Y91.732 E7.00352 F1800.000
G1 X100.335 Y91.700 E7.01569
G1 X100.883 Y91.506 E7.03439
G1 X101.227 Y91.541 E7.04554
G1 X102.063 Y91.705 E7.07295
G1 X102.875 Y91.950 E7.10025
G1 X103.659 Y92.275 E7.12754
G1 X104.407 Y92.676 E7.15484
G1 X105.114 Y93.151 E7.18225
G1 X105.403 Y93.386 E7.19427
G1 X105.525 Y93.712 E7.20545
G1 X105.817 Y94.124 E7.22169
G1 X106.106 Y94.368 E7.23386
G1 X106.631 Y94.618 E7.25256
G1 X106.849 Y94.886 E7.26371
G1 X107.324 Y95.593 E7.29112
G1 X107.725 Y96.341 E7.31842
G1 X108.050 Y97.125 E7.34571
G1 X108.295 Y97.937 E7.37301
G1 X108.459 Y98.773 E7.40042
G1 X108.494 Y99.117 E7.41157
G1 X108.300 Y99.665 E7.43027
G1 X108.272 Y100.000 E7.44109
G1 X108.300 Y100.335 E7.45190
G1 X108.494 Y100.883 E7.47061
G1 X108.459 Y101.227 E7.48175
G1 X108.295 Y102.063 E7.50916
G1 X108.050 Y102.875 E7.53646
G1 X107.725 Y103.659 E7.56376
G1 X107.324 Y104.407 E7.59105
G1 X106.849 Y105.114 E7.61846
G1 X106.614 Y105.403 E7.63048
G1 X106.288 Y105.525 E7.64166
G1 X105.925 Y105.782 E7.65597
G1 X106.302 Y106.281 F7800.000
G1 X106.162 Y106.447 E7.66298 F1800.000
G1 X106.007 Y106.772 E7.67457
G1 X105.990 Y106.942 E7.68004
G1 X105.486 Y107.352 E7.70096
G1 X104.729 Y107.860 E7.73029
G1 X103.927 Y108.290 E7.75959
G1 X103.086 Y108.639 E7.78888
G1 X102.214 Y108.902 E7.81818
G1 X101.320 Y109.078 E7.84751
G1 X100.673 Y109.144 E7.86844
G1 X100.542 Y109.036 E7.87390
G1 X100.202 Y108.916 E7.88550
G1 X100.000 Y108.899 E7.89202
G1 X99.798 Y108.916 E7.89853
G1 X99.459 Y109.036 E7.91012
G1 X99.327 Y109.144 E7.91559
G1 X98.680 Y109.078 E7.93651
G1 X97.786 Y108.902 E7.96585
G1 X96.914 Y108.639 E7.99514
G1 X96.073 Y108.290 E8.02444
G1 X95.271 Y107.860 E8.05373
G1 X94.514 Y107.352 E8.08307
G1 X94.010 Y106.941 E8.10400
G1 X93.995 Y106.788 E8.10896
G1 X93.918 Y106.583 E8.11600
G1 X93.719 Y106.302 E8.12707
G1 X93.553 Y106.162 E8.13407
G1 X93.228 Y106.007 E8.14566
G1 X93.058 Y105.990 E8.15114
G1 X92.648 Y105.486 E8.17206
G1 X92.140 Y104.729 E8.20139
G1 X91.710 Y103.927 E8.23069
G1 X91.361 Y103.086 E8.25998
G1 X91.098 Y102.214 E8.28928
G1 X90.922 Y101.320 E8.31861
G1 X90.856 Y100.673 E8.33954
G1 X90.954 Y100.553 E8.34451
G1 X91.044 Y100.354 E8.35154
G1 X91.103 Y100.015 E8.36262
G1 X91.084 Y99.798 E8.36962
G1 X90.964 Y99.459 E8.38121
G1 X90.856 Y99.327 E8.38668
G1 X90.922 Y98.680 E8.40760
G1 X91.098 Y97.786 E8.43693
G1 X91.361 Y96.914 E8.46623
G1 X91.710 Y96.073 E8.49553
G1 X92.140 Y95.271 E8.52482
G1 X92.648 Y94.514 E8.55416
G1 X93.059 Y94.010 E8.57508
G1 X93.212 Y93.995 E8.58005
G1 X93.417 Y93.918 E8.58708
G1 X93.698 Y93.719 E8.59816
G1 X93.838 Y93.553 E8.60516
G1 X93.993 Y93.228 E8.61675
G1 X94.010 Y93.058 E8.62222
G1 X94.514 Y92.648 E8.64314
G1 X95.271 Y92.140 E8.67248
G1 X96.073 Y91.710 E8.70177
G1 X96.914 Y91.361 E8.73107
G1 X97.786 Y91.098 E8.76036
G1 X98.680 Y90.922 E8.78970
G1 X99.316 Y90.857 E8.81026
G1 X99.457 Y90.959 E8.81585
G1 X99.646 Y91.044 E8.82252
G1 X99.985 Y91.103 E8.83359
G1 X100.202 Y91.084 E8.84059
G1 X100.541 Y90.964 E8.85218
G1 X100.673 Y90.856 E8.85766
G1 X101.320 Y90.922 E8.87858
G1 X102.214 Y91.098 E8.90791 F1800.000
G1 X103.086 Y91.361 E8.93721
G1 X103.927 Y91.710 E8.96650
G1 X104.729 Y92.140 E8.99580
G1 X105.486 Y92.648 E9.02513
G1 X105.990 Y93.059 E9.04606
G1 X106.005 Y93.212 E9.05103
G1 X106.082 Y93.417 E9.05806
G1 X106.281 Y93.698 E9.06914
G1 X106.447 Y93.838 E9.07614
G1 X106.772 Y93.993 E9.08773
G1 X106.942 Y94.010 E9.09320
G1 X107.352 Y94.514 E9.11412
G1 X107.860 Y95.271 E9.14345
G1 X108.290 Y96.073 E9.17275
G1 X108.639 Y96.914 E9.20205
G1 X108.902 Y97.786 E9.23134
G1 X109.078 Y98.680 E9.26068
G1 X109.144 Y99.327 E9.28160
G1 X109.036 Y99.458 E9.28706
G1 X108.916 Y99.798 E9.29866
G1 X108.899 Y100.000 E9.30518
G1 X108.916 Y100.202 E9.31169
G1 X109.036 Y100.541 E9.32328
G1 X109.144 Y100.673 E9.32876
G1 X109.078 Y101.320 E9.34967
G1 X108.902 Y102.214 E9.37901
G1 X108.639 Y103.086 E9.40830
