; generated by Slic3r 1.2.9 on 2019-09-19 at 16:39:39

; external perimeters extrusion width = 0.40mm
; perimeters extrusion width = 0.56mm
; infill extrusion width = 0.56mm
; solid infill extrusion width = 0.56mm
; top infill extrusion width = 0.56mm

M107
M190 S65 ; set bed temperature
M104 S200 ; set temperature
G28 ; home all axes
G1 Z5 F5000 ; lift nozzle

M109 S200 ; wait for temperature to be reached
G21 ; set units to millimeters
G90 ; use absolute coordinates
M82 ; use absolute distances for extrusion
G92 E0
G1 Z0.350 F7800.000
G1 E-2.00000 F2400.00000
G92 E0
G1 X90.527 Y90.576 F7800.000
G1 E2.00000 F2400.00000
G1 X91.509 Y89.682 E2.04273 F1800.000
G1 X92.643 Y88.844 E2.08811
G1 X93.860 Y88.130 E2.13350
G1 X94.777 Y87.703 E2.16605
G1 X95.222 Y87.520 E2.18154
G1 X96.484 Y87.107 E2.22427
G1 X97.491 Y86.877 E2.25750
G1 X97.911 Y86.800 E2.27125
G1 X99.096 Y86.667 E2.30963
G1 X99.642 Y86.644 E2.32719
G1 X100.358 Y86.644 E2.35027
G1 X100.904 Y86.667 E2.36783
G1 X102.089 Y86.800 E2.40621 F1800.000
G1 X103.128 Y87.011 E2.44034
G1 X103.888 Y87.218 E2.46568
G1 X104.778 Y87.520 E2.49592
G1 X105.223 Y87.703 E2.51141
G1 X106.140 Y88.131 E2.54397
G1 X107.357 Y88.844 E2.58935
G1 X108.427 Y89.630 E2.63208
G1 X109.282 Y90.393 E2.66895
G1 X109.832 Y90.956 E2.69429
G1 X110.413 Y91.627 E2.72284
G1 X110.737 Y92.052 E2.74002
G1 X111.282 Y92.841 E2.77088
G1 X111.936 Y93.996 E2.81362
G1 X112.419 Y95.082 E2.85184
G1 X112.687 Y95.822 E2.87718
G1 X112.949 Y96.712 E2.90703
G1 X113.059 Y97.193 E2.92291
G1 X113.218 Y98.063 E2.95136
G1 X113.338 Y99.292 E2.99110
G1 X113.356 Y99.992 E3.01365
G1 X113.309 Y101.166 E3.05144
G1 X113.156 Y102.316 E3.08876
G1 X113.051 Y102.832 E3.10573
G1 X112.845 Y103.664 E3.13330
G1 X112.676 Y104.202 E3.15146
G1 X112.461 Y104.798 E3.17184
G1 X112.157 Y105.525 E3.19718
G1 X111.790 Y106.275 E3.22406
G1 X111.501 Y106.785 E3.24291
G1 X111.062 Y107.483 E3.26945
G1 X110.715 Y107.968 E3.28864
G1 X110.211 Y108.607 E3.31484
G1 X109.808 Y109.061 E3.33436
G1 X109.246 Y109.636 E3.36025
G1 X108.790 Y110.051 E3.38009
G1 X108.302 Y110.455 E3.40047
G1 X107.672 Y110.928 E3.42581
G1 X107.019 Y111.359 E3.45100
G1 X106.468 Y111.681 E3.47154
G1 X105.782 Y112.036 E3.49639
G1 X105.190 Y112.301 E3.51726
G1 X104.480 Y112.578 E3.54178
G1 X103.854 Y112.783 E3.56298
G1 X103.243 Y112.950 E3.58336
G1 X102.474 Y113.120 E3.60870
G1 X101.438 Y113.278 E3.64242
G1 X100.353 Y113.346 E3.67743
G1 X99.647 Y113.346 E3.70012
G1 X98.931 Y113.308 E3.72319
G1 X98.226 Y113.233 E3.74601
G1 X97.524 Y113.120 E3.76889
G1 X96.871 Y112.980 E3.79037
G1 X96.146 Y112.783 E3.81456
G1 X95.520 Y112.578 E3.83574
G1 X94.810 Y112.301 E3.86029
G1 X94.218 Y112.036 E3.88116
G1 X93.532 Y111.681 E3.90601
G1 X92.856 Y111.278 E3.93135
G1 X92.328 Y110.928 E3.95173
G1 X91.822 Y110.557 E3.97190
G1 X91.210 Y110.051 E3.99746
G1 X90.754 Y109.635 E4.01731
G1 X90.192 Y109.061 E4.04318
G1 X89.676 Y108.466 E4.06853
G1 X89.285 Y107.968 E4.08891
G1 X88.893 Y107.414 E4.11074
G1 X88.499 Y106.785 E4.13463
G1 X88.210 Y106.275 E4.15347
G1 X87.843 Y105.525 E4.18036
G1 X87.614 Y104.997 E4.19886
G1 X87.324 Y104.202 E4.22608
G1 X87.099 Y103.448 E4.25143
G1 X86.844 Y102.316 E4.28876
G1 X86.691 Y101.166 E4.32609
G1 X86.644 Y99.992 E4.36389
G1 X86.658 Y99.359 E4.38428
G1 X86.718 Y98.589 E4.40911
G1 X86.782 Y98.063 E4.42618
G1 X86.941 Y97.193 E4.45463
G1 X87.130 Y96.428 E4.47997
G1 X87.469 Y95.365 E4.51589
G1 X87.828 Y94.498 E4.54608
G1 X88.027 Y94.070 E4.56128
G1 X88.480 Y93.237 E4.59180
G1 X88.718 Y92.841 E4.60667
G1 X89.263 Y92.052 E4.63753
G1 X89.751 Y91.433 E4.66288
G1 X90.485 Y90.618 E4.69816
G1 E2.69816 F2400.00000
G92 E0
G1 X102.688 Y102.740 F7800.000
G1 E2.00000 F2400.00000
G1 X102.479 Y102.949 E2.00953 F1800.000
G1 X101.928 Y103.335 E2.03115
G1 X101.317 Y103.619 E2.05283
G1 X100.669 Y103.793 E2.07442
G1 X100.000 Y103.851 E2.09604
G1 X99.331 Y103.793 E2.11765
G1 X98.683 Y103.619 E2.13924
G1 X98.072 Y103.335 E2.16092
G1 X97.521 Y102.949 E2.18255
G1 X97.046 Y102.474 E2.20418
G1 X96.661 Y101.923 E2.22581
G1 X96.376 Y101.313 E2.24749
G1 X96.203 Y100.664 E2.26908
G1 X96.144 Y99.995 E2.29070
G1 X96.203 Y99.326 E2.31231
G1 X96.376 Y98.678 E2.33390
G1 X96.661 Y98.067 E2.35558
G1 X97.046 Y97.517 E2.37721
G1 X97.521 Y97.041 E2.39884
G1 X98.072 Y96.656 E2.42047
G1 X98.696 Y96.365 E2.44262
G1 X99.391 Y96.193 E2.46566
G1 X100.000 Y96.139 E2.48533 F1800.000
G1 X100.669 Y96.198 E2.50695
G1 X101.317 Y96.371 E2.52854
G1 X101.928 Y96.656 E2.55022
G1 X102.479 Y97.041 E2.57185
G1 X102.954 Y97.517 E2.59347
G1 X103.339 Y98.067 E2.61510
G1 X103.624 Y98.678 E2.63678
G1 X103.797 Y99.326 E2.65837
G1 X103.856 Y99.995 E2.67999
G1 X103.797 Y100.664 E2.70160
G1 X103.623 Y101.315 E2.72328
G1 X103.333 Y101.932 E2.74520
G1 X102.954 Y102.474 E2.76650
G1 X102.730 Y102.697 E2.77667
G1 X102.246 Y102.298 F7800.000
G1 X102.075 Y102.468 E2.78444 F1800.000
G1 X101.614 Y102.791 E2.80255
G1 X101.103 Y103.030 E2.82070
G1 X100.560 Y103.175 E2.83878
G1 X100.000 Y103.224 E2.85688
G1 X99.440 Y103.175 E2.87498
G1 X98.897 Y103.030 E2.89305
G1 X98.386 Y102.791 E2.91121
G1 X97.925 Y102.468 E2.92932
G1 X97.527 Y102.071 E2.94743
G1 X97.204 Y101.610 E2.96554
G1 X96.966 Y101.098 E2.98369
G1 X96.820 Y100.556 E3.00176
G1 X96.771 Y99.995 E3.01987
G1 X96.820 Y99.435 E3.03797
G1 X96.965 Y98.892 E3.05604
G1 X97.204 Y98.381 E3.07420
G1 X97.527 Y97.920 E3.09231
G1 X97.925 Y97.522 E3.11042
G1 X98.386 Y97.199 E3.12853
G1 X98.905 Y96.957 E3.14697
G1 X99.494 Y96.811 E3.16649
G1 X100.000 Y96.767 E3.18284 F1800.000
G1 X100.560 Y96.816 E3.20094
G1 X101.103 Y96.961 E3.21901
G1 X101.614 Y97.199 E3.23717
G1 X102.075 Y97.522 E3.25528
G1 X102.473 Y97.920 E3.27339
G1 X102.796 Y98.381 E3.29150
G1 X103.034 Y98.892 E3.30965
G1 X103.180 Y99.435 E3.32772
G1 X103.229 Y99.995 E3.34583
G1 X103.180 Y100.556 E3.36393
G1 X103.034 Y101.100 E3.38205
G1 X102.791 Y101.617 E3.40045
G1 X102.473 Y102.071 E3.41826
G1 X102.288 Y102.255 E3.42668
G1 X101.804 Y101.856 F7800.000
G1 X101.672 Y101.988 E3.43268 F1800.000
G1 X101.301 Y102.248 E3.44727
G1 X100.889 Y102.440 E3.46191
G1 X100.452 Y102.557 E3.47646
G1 X100.000 Y102.597 E3.49105
G1 X99.548 Y102.557 E3.50564
G1 X99.111 Y102.440 E3.52019
G1 X98.699 Y102.248 E3.53482
G1 X98.328 Y101.988 E3.54941
G1 X98.007 Y101.667 E3.56401
G1 X97.747 Y101.296 E3.57860
G1 X97.555 Y100.884 E3.59323
G1 X97.438 Y100.447 E3.60778
G1 X97.399 Y99.995 E3.62237
G1 X97.438 Y99.544 E3.63696
G1 X97.555 Y99.107 E3.65151
G1 X97.747 Y98.695 E3.66615
G1 X98.007 Y98.323 E3.68074
G1 X98.328 Y98.002 E3.69533
G1 X98.699 Y97.742 E3.70992
G1 X99.114 Y97.549 E3.72465
G1 X99.597 Y97.429 E3.74066
G1 X100.000 Y97.394 E3.75368 F1800.000
G1 X100.452 Y97.433 E3.76826
G1 X100.889 Y97.550 E3.78282
G1 X101.301 Y97.742 E3.79745
G1 X101.672 Y98.002 E3.81204
G1 X101.993 Y98.323 E3.82663
G1 X102.253 Y98.695 E3.84122
G1 X102.445 Y99.107 E3.85585
G1 X102.562 Y99.544 E3.87041
G1 X102.601 Y99.995 E3.88500
G1 X102.562 Y100.447 E3.89959
G1 X102.445 Y100.884 E3.91416
G1 X102.248 Y101.303 E3.92903
G1 X101.993 Y101.667 E3.94336
G1 X101.847 Y101.814 E3.95001
G1 X101.852 Y102.036 F7800.000
G1 X103.618 Y103.628 F7800.000
G1 X103.477 Y103.772 E3.95652 F1800.000
G1 X103.056 Y104.120 E3.97408
G1 X102.601 Y104.421 E3.99163
G1 X102.117 Y104.672 E4.00918
G1 X101.609 Y104.870 E4.02673
G1 X101.082 Y105.013 E4.04429
G1 X100.546 Y105.100 E4.06178
G1 X100.000 Y105.129 E4.07937
G1 X99.454 Y105.100 E4.09696
G1 X98.918 Y105.013 E4.11444
G1 X98.391 Y104.870 E4.13200
G1 X97.883 Y104.672 E4.14955
G1 X97.399 Y104.421 E4.16710
G1 X96.944 Y104.120 E4.18466
G1 X96.529 Y103.777 E4.20196
G1 X96.096 Y103.325 E4.22211
G1 X95.805 Y102.955 E4.23726
G1 X95.515 Y102.492 E4.25486
G1 X95.275 Y102.002 E4.27241
G1 X95.089 Y101.489 E4.28996
G1 X94.958 Y100.960 E4.30748
G1 X94.883 Y100.404 E4.32556
G1 X94.868 Y99.858 E4.34313
G1 X94.910 Y99.328 E4.36024
G1 X95.009 Y98.796 E4.37765
G1 X95.163 Y98.278 E4.39502
G1 X95.408 Y97.704 E4.41511
G1 X95.635 Y97.294 E4.43021
G1 X95.949 Y96.843 E4.44787
G1 X96.306 Y96.431 E4.46542
G1 X96.705 Y96.059 E4.48297
G1 X97.141 Y95.732 E4.50052
G1 X97.610 Y95.453 E4.51807
G1 X98.105 Y95.225 E4.53562
G1 X98.622 Y95.051 E4.55317
G1 X99.155 Y94.933 E4.57072
G1 X99.686 Y94.873 E4.58792
G1 X100.314 Y94.873 E4.60815
G1 X100.845 Y94.933 E4.62534
G1 X101.378 Y95.051 E4.64289 F1800.000
G1 X101.895 Y95.225 E4.66044
G1 X102.390 Y95.453 E4.67799
G1 X102.859 Y95.732 E4.69554
G1 X103.295 Y96.059 E4.71309
G1 X103.696 Y96.434 E4.73076
G1 X104.005 Y96.787 E4.74585
G1 X104.366 Y97.296 E4.76593
G1 X104.625 Y97.769 E4.78329
G1 X104.835 Y98.272 E4.80084
G1 X104.991 Y98.796 E4.81841
G1 X105.090 Y99.328 E4.83582
G1 X105.132 Y99.858 E4.85293
G1 X105.117 Y100.404 E4.87050
G1 X105.042 Y100.960 E4.88858
G1 X104.911 Y101.489 E4.90610
G1 X104.724 Y102.003 E4.92371
G1 X104.519 Y102.426 E4.93885
G1 X104.191 Y102.959 E4.95899
G1 X103.858 Y103.382 E4.97630
G1 X103.660 Y103.585 E4.98542
G1 X104.065 Y104.064 F7800.000
G1 X103.900 Y104.233 E4.99300 F1800.000
G1 X103.429 Y104.623 E5.01269
G1 X102.918 Y104.960 E5.03238
G1 X102.375 Y105.242 E5.05207
G1 X101.805 Y105.464 E5.07177
G1 X101.214 Y105.625 E5.09146
G1 X100.612 Y105.722 E5.11108
G1 X100.000 Y105.754 E5.13081
G1 X99.388 Y105.722 E5.15054
G1 X98.786 Y105.625 E5.17017
G1 X98.195 Y105.464 E5.18986
G1 X97.625 Y105.242 E5.20955
G1 X97.082 Y104.960 E5.22925
G1 X96.571 Y104.623 E5.24894
G1 X96.103 Y104.236 E5.26848
G1 X95.624 Y103.735 E5.29079
G1 X95.294 Y103.315 E5.30798
G1 X94.968 Y102.796 E5.32770
G1 X94.699 Y102.246 E5.34739
G1 X94.490 Y101.671 E5.36708
G1 X94.344 Y101.077 E5.38676
G1 X94.259 Y100.454 E5.40700
G1 X94.243 Y99.841 E5.42672
G1 X94.290 Y99.246 E5.44595
G1 X94.401 Y98.649 E5.46547
G1 X94.574 Y98.066 E5.48505
G1 X94.846 Y97.429 E5.50732
G1 X95.104 Y96.963 E5.52449
G1 X95.455 Y96.459 E5.54424
G1 X95.856 Y95.997 E5.56393
G1 X96.303 Y95.580 E5.58362
G1 X96.793 Y95.212 E5.60331
G1 X97.319 Y94.899 E5.62300
G1 X97.874 Y94.643 E5.64269
G1 X98.454 Y94.448 E5.66238
G1 X99.052 Y94.315 E5.68208
G1 X99.651 Y94.248 E5.70147
G1 X100.349 Y94.248 E5.72395
G1 X100.948 Y94.315 E5.74335
G1 X101.546 Y94.448 E5.76304 F1800.000
G1 X102.126 Y94.643 E5.78273
G1 X102.681 Y94.899 E5.80242
G1 X103.207 Y95.212 E5.82211
G1 X103.696 Y95.580 E5.84180
G1 X104.146 Y95.998 E5.86156
G1 X104.497 Y96.399 E5.87872
G1 X104.896 Y96.964 E5.90098
G1 X105.189 Y97.498 E5.92056
G1 X105.425 Y98.062 E5.94025
G1 X105.599 Y98.649 E5.95995
G1 X105.710 Y99.246 E5.97948
G1 X105.757 Y99.841 E5.99870
G1 X105.741 Y100.454 E6.01842
G1 X105.656 Y101.077 E6.03867
G1 X105.510 Y101.671 E6.05834
G1 X105.301 Y102.247 E6.07807
G1 X105.067 Y102.728 E6.09525
G1 X104.704 Y103.318 E6.11756
G1 X104.328 Y103.795 E6.13710
G1 X104.107 Y104.021 E6.14728
G1 X104.512 Y104.501 F7800.000
G1 X104.324 Y104.693 E6.15593 F1800.000
G1 X103.801 Y105.125 E6.17776
G1 X103.235 Y105.500 E6.19960
G1 X102.633 Y105.812 E6.22143
G1 X102.001 Y106.059 E6.24326
G1 X101.346 Y106.237 E6.26510
G1 X100.679 Y106.344 E6.28685
G1 X100.000 Y106.380 E6.30872
G1 X99.321 Y106.344 E6.33060
G1 X98.654 Y106.237 E6.35235
G1 X97.999 Y106.059 E6.37419
G1 X97.367 Y105.812 E6.39602
G1 X96.765 Y105.500 E6.41785
G1 X96.199 Y105.125 E6.43969
G1 X95.677 Y104.694 E6.46146
G1 X95.151 Y104.145 E6.48593
G1 X94.782 Y103.675 E6.50516
G1 X94.421 Y103.100 E6.52700
G1 X94.123 Y102.491 E6.54884
G1 X93.891 Y101.853 E6.57067
G1 X93.729 Y101.195 E6.59249
G1 X93.635 Y100.504 E6.61491
G1 X93.617 Y99.825 E6.63677
G1 X93.669 Y99.164 E6.65812
G1 X93.792 Y98.503 E6.67976
G1 X93.985 Y97.854 E6.70155
G1 X94.284 Y97.155 E6.72600
G1 X94.573 Y96.632 E6.74523
G1 X94.961 Y96.075 E6.76708
G1 X95.405 Y95.562 E6.78891
G1 X95.902 Y95.100 E6.81074
G1 X96.444 Y94.693 E6.83257
G1 X97.027 Y94.345 E6.85440
G1 X97.644 Y94.062 E6.87623
G1 X98.286 Y93.845 E6.89806
G1 X98.949 Y93.698 E6.91989
G1 X99.616 Y93.623 E6.94148
G1 X100.384 Y93.623 E6.96623
G1 X101.051 Y93.698 E6.98782
G1 X101.714 Y93.845 E7.00965 F1800.000
G1 X102.356 Y94.062 E7.03148
G1 X102.973 Y94.345 E7.05331
G1 X103.556 Y94.693 E7.07514
G1 X104.098 Y95.100 E7.09697
G1 X104.595 Y95.563 E7.11883
G1 X104.988 Y96.012 E7.13805
G1 X105.427 Y96.633 E7.16250
G1 X105.753 Y97.226 E7.18429
G1 X106.014 Y97.852 E7.20612
G1 X106.208 Y98.503 E7.22795
G1 X106.331 Y99.164 E7.24959
G1 X106.383 Y99.825 E7.27094
G1 X106.365 Y100.504 E7.29280
G1 X106.271 Y101.195 E7.31522
G1 X106.109 Y101.853 E7.33704
G1 X105.877 Y102.491 E7.35889
G1 X105.615 Y103.029 E7.37812
G1 X105.217 Y103.676 E7.40258
G1 X104.798 Y104.208 E7.42436
G1 X104.554 Y104.458 E7.43561
G1 X104.252 Y104.434 F7800.000
G1 X103.166 Y103.170 F7800.000
G1 X102.865 Y103.454 E7.46379 F1800.000
G1 X102.222 Y103.900 E7.51722
G1 X101.561 Y104.207 E7.56692
G1 X100.946 Y104.384 E7.61056
G1 X100.477 Y104.457 E7.64296
G1 X100.028 Y104.489 E7.67366
G1 X99.523 Y104.457 E7.70822
G1 X99.054 Y104.384 E7.74062
G1 X98.439 Y104.207 E7.78426
G1 X97.728 Y103.873 E7.83782
G1 X97.135 Y103.454 E7.88740
G1 X96.578 Y102.907 E7.94064
G1 X96.334 Y102.583 E7.96832
G1 X96.074 Y102.180 E8.00100
G1 X95.770 Y101.503 E8.05166
G1 X95.580 Y100.803 E8.10117
G1 X95.527 Y100.352 E8.13216
G1 X95.508 Y99.967 E8.15842
G1 X95.549 Y99.412 E8.19640 F1800.000
G1 X95.637 Y98.947 E8.22868
G1 X95.767 Y98.487 E8.26132
G1 X96.096 Y97.774 E8.31488
G1 X96.457 Y97.238 E8.35892
G1 X96.771 Y96.880 E8.39146
G1 X97.115 Y96.549 E8.42402
G1 X97.501 Y96.268 E8.45658
G1 X97.910 Y96.022 E8.48911
G1 X98.455 Y95.777 E8.52993
G1 X98.796 Y95.674 E8.55421
G1 X99.311 Y95.558 E8.59024
G1 X100.028 Y95.506 E8.63928
G1 X100.740 Y95.563 E8.68802
G1 X101.204 Y95.673 E8.72057
G1 X101.658 Y95.822 E8.75312
G1 X102.270 Y96.120 E8.79957
G1 X102.867 Y96.535 E8.84916
G1 X103.233 Y96.883 E8.88363
G1 X103.459 Y97.129 E8.90646
G1 X103.821 Y97.637 E8.94897
G1 X104.043 Y98.049 E8.98094
G1 X104.233 Y98.487 E9.01350
G1 X104.418 Y99.188 E9.06298
G1 X104.489 Y99.875 E9.11005
G1 X104.473 Y100.352 E9.14261
G1 X104.420 Y100.803 E9.17360
G1 X104.294 Y101.301 E9.20869
G1 X104.130 Y101.752 E9.24139
G1 X103.896 Y102.226 E9.27747
G1 X103.459 Y102.861 E9.33007
G1 X103.208 Y103.128 E9.35506
G1 Z0.600 F7800.000
G1 X102.377 Y102.382 F7800.000
G1 X102.174 Y102.586 E9.36039 F900.000
G1 X101.691 Y102.924 E9.37129
G1 X101.157 Y103.173 E9.38218
G1 X100.587 Y103.325 E9.39308
G1 X100.000 Y103.377 E9.40398
G1 X99.414 Y103.325 E9.41486
G1 X98.851 Y103.176 E9.42562
G1 X98.310 Y102.924 E9.43666
G1 X97.826 Y102.586 E9.44757
G1 X97.412 Y102.171 E9.45842
G1 X97.077 Y101.699 E9.46911
G1 X96.822 Y101.152 E9.48027
G1 X96.670 Y100.582 E9.49117
G1 X96.619 Y99.995 E9.50206
G1 X96.670 Y99.409 E9.51295
G1 X96.820 Y98.846 E9.52371
G1 X97.071 Y98.305 E9.53474
G1 X97.410 Y97.822 E9.54566
G1 X97.826 Y97.405 E9.55655
G1 X98.310 Y97.066 E9.56747
G1 X98.851 Y96.815 E9.57850
G1 X99.414 Y96.665 E9.58926 F900.000
G1 X100.000 Y96.614 E9.60014
G1 X100.586 Y96.665 E9.61103
G1 X101.149 Y96.815 E9.62179
G1 X101.690 Y97.066 E9.63282
G1 X102.174 Y97.405 E9.64374
G1 X102.590 Y97.822 E9.65463
G1 X102.928 Y98.304 E9.66553
G1 X103.178 Y98.839 E9.67643
G1 X103.330 Y99.408 E9.68733
G1 X103.381 Y99.995 E9.69823
G1 X103.330 Y100.582 E9.70912
G1 X103.178 Y101.152 E9.72002
G1 X102.928 Y101.686 E9.73092
G1 X102.590 Y102.169 E9.74182
G1 X102.420 Y102.339 E9.74628
G1 X102.022 Y102.026 F7800.000
G1 X101.849 Y102.199 E9.75079 F900.000
G1 X101.438 Y102.487 E9.76006
G1 X100.984 Y102.699 E9.76934
G1 X100.500 Y102.828 E9.77861
G1 X100.000 Y102.872 E9.78788
G1 X99.501 Y102.828 E9.79714
G1 X99.023 Y102.701 E9.80628
G1 X98.562 Y102.487 E9.81569
G1 X98.151 Y102.199 E9.82497
G1 X97.797 Y101.846 E9.83421
G1 X97.514 Y101.445 E9.84328
G1 X97.297 Y100.979 E9.85278
G1 X97.167 Y100.495 E9.86206
G1 X97.123 Y99.995 E9.87133
G1 X97.167 Y99.496 E9.88059
G1 X97.294 Y99.018 E9.88973
G1 X97.508 Y98.557 E9.89913
G1 X97.796 Y98.146 E9.90841
G1 X98.151 Y97.791 E9.91769
G1 X98.562 Y97.503 E9.92697
G1 X99.023 Y97.289 E9.93637
G1 X99.501 Y97.162 E9.94551
G1 X99.679 Y97.146 E9.94881
G1 X100.000 Y97.118 E9.95477 F900.000
G1 X100.499 Y97.162 E9.96404
G1 X100.977 Y97.289 E9.97318
G1 X101.438 Y97.503 E9.98258
G1 X101.849 Y97.791 E9.99186
G1 X102.204 Y98.146 E10.00113
