; generated by Slic3r 1.2.9 on 2019-09-19 at 15:55:28

; external perimeters extrusion width = 0.40mm
; perimeters extrusion width = 0.56mm
; infill extrusion width = 0.56mm
; solid infill extrusion width = 0.56mm
; top infill extrusion width = 0.56mm

M107
M190 S65 ; set bed temperature
M104 S200 ; set temperature
G28 ; home all axes
G1 Z5 F5000 ; lift nozzle

M109 S200 ; wait for temperature to be reached
G21 ; set units to millimeters
G90 ; use absolute coordinates
M82 ; use absolute distances for extrusion
G92 E0
G1 Z0.350 F7800.000
G1 E-2.00000 F2400.00000
G92 E0
G1 X90.527 Y90.576 F7800.000
G1 E2.00000 F2400.00000
G1 X91.509 Y89.682 E2.04273 F1800.000
G1 X92.643 Y88.844 E2.08811
G1 X93.860 Y88.130 E2.13350
G1 X94.777 Y87.703 E2.16605
G1 X95.222 Y87.520 E2.18154
G1 X96.484 Y87.107 E2.22427
G1 X97.491 Y86.877 E2.25750
G1 X97.911 Y86.800 E2.27125
G1 X99.096 Y86.667 E2.30963
G1 X99.642 Y86.644 E2.32719
G1 X100.358 Y86.644 E2.35027
G1 X100.904 Y86.667 E2.36783
G1 X102.089 Y86.800 E2.40621 F1800.000
G1 X103.128 Y87.011 E2.44034
G1 X103.888 Y87.218 E2.46568
G1 X104.778 Y87.520 E2.49592
G1 X105.223 Y87.703 E2.51141
G1 X106.140 Y88.131 E2.54397
G1 X107.357 Y88.844 E2.58935
G1 X108.427 Y89.630 E2.63208
G1 X109.282 Y90.393 E2.66895
G1 X109.832 Y90.956 E2.69429
G1 X110.413 Y91.627 E2.72284
G1 X110.737 Y92.052 E2.74002
G1 X111.282 Y92.841 E2.77088
G1 X111.936 Y93.996 E2.81362
G1 X112.419 Y95.082 E2.85184
G1 X112.687 Y95.822 E2.87718
G1 X112.949 Y96.712 E2.90703
G1 X113.059 Y97.193 E2.92291
G1 X113.218 Y98.063 E2.95136
G1 X113.338 Y99.292 E2.99110
G1 X113.356 Y99.992 E3.01365
G1 X113.309 Y101.166 E3.05144
G1 X113.156 Y102.316 E3.08876
G1 X113.051 Y102.832 E3.10573
G1 X112.845 Y103.664 E3.13330
G1 X112.676 Y104.202 E3.15146
G1 X112.461 Y104.798 E3.17184
G1 X112.157 Y105.525 E3.19718
G1 X111.790 Y106.275 E3.22406
G1 X111.501 Y106.785 E3.24291
G1 X111.062 Y107.483 E3.26945
G1 X110.715 Y107.968 E3.28864
G1 X110.211 Y108.607 E3.31484
G1 X109.808 Y109.061 E3.33436
G1 X109.246 Y109.636 E3.36025
G1 X108.790 Y110.051 E3.38009
G1 X108.302 Y110.455 E3.40047
G1 X107.672 Y110.928 E3.42581
G1 X107.019 Y111.359 E3.45100
G1 X106.468 Y111.681 E3.47154
G1 X105.782 Y112.036 E3.49639
G1 X105.190 Y112.301 E3.51726
G1 X104.480 Y112.578 E3.54178
G1 X103.854 Y112.783 E3.56298
G1 X103.243 Y112.950 E3.58336
G1 X102.474 Y113.120 E3.60870
G1 X101.438 Y113.278 E3.64242
G1 X100.353 Y113.346 E3.67743
G1 X99.647 Y113.346 E3.70012
G1 X98.931 Y113.308 E3.72319
G1 X98.226 Y113.233 E3.74601
G1 X97.524 Y113.120 E3.76889
G1 X96.871 Y112.980 E3.79037
G1 X96.146 Y112.783 E3.81456
G1 X95.520 Y112.578 E3.83574
G1 X94.810 Y112.301 E3.86029
G1 X94.218 Y112.036 E3.88116
G1 X93.532 Y111.681 E3.90601
G1 X92.856 Y111.278 E3.93135
G1 X92.328 Y110.928 E3.95173
G1 X91.822 Y110.557 E3.97190
G1 X91.210 Y110.051 E3.99746
G1 X90.754 Y109.635 E4.01731
G1 X90.192 Y109.061 E4.04318
G1 X89.676 Y108.466 E4.06853
G1 X89.285 Y107.968 E4.08891
G1 X88.893 Y107.414 E4.11074
G1 X88.499 Y106.785 E4.13463
G1 X88.210 Y106.275 E4.15347
G1 X87.843 Y105.525 E4.18036
G1 X87.614 Y104.997 E4.19886
G1 X87.324 Y104.202 E4.22608
G1 X87.099 Y103.448 E4.25143
G1 X86.844 Y102.316 E4.28876
G1 X86.691 Y101.166 E4.32609
G1 X86.644 Y99.992 E4.36389
G1 X86.658 Y99.359 E4.38428
G1 X86.718 Y98.589 E4.40911
G1 X86.782 Y98.063 E4.42618
G1 X86.941 Y97.193 E4.45463
G1 X87.130 Y96.428 E4.47997
G1 X87.469 Y95.365 E4.51589
G1 X87.828 Y94.498 E4.54608
G1 X88.027 Y94.070 E4.56128
G1 X88.480 Y93.237 E4.59180
G1 X88.718 Y92.841 E4.60667
G1 X89.263 Y92.052 E4.63753
G1 X89.751 Y91.433 E4.66288
G1 X90.485 Y90.618 E4.69816
G1 E2.69816 F2400.00000
G92 E0
G1 X102.932 Y103.041 F7800.000
G1 E2.00000 F2400.00000
G1 X102.432 Y103.453 E2.02083 F1800.000
G1 X101.876 Y103.784 E2.04166
G1 X101.276 Y104.026 E2.06248
G1 X100.645 Y104.173 E2.08331
G1 X100.000 Y104.223 E2.10414
G1 X99.356 Y104.174 E2.12493
G1 X98.755 Y104.034 E2.14477
G1 X98.127 Y103.785 E2.16653
G1 X97.568 Y103.453 E2.18745
G1 X97.068 Y103.041 E2.20828
G1 X96.638 Y102.558 E2.22911
G1 X96.286 Y102.015 E2.24993
G1 X96.018 Y101.417 E2.27101
G1 X95.842 Y100.735 E2.29369
G1 X95.775 Y100.157 E2.31240
G1 X95.800 Y99.510 E2.33323
G1 X95.924 Y98.874 E2.35410
G1 X96.147 Y98.256 E2.37524
G1 X96.451 Y97.697 E2.39571
G1 X96.844 Y97.182 E2.41654
G1 X97.310 Y96.734 E2.43737
G1 X97.840 Y96.361 E2.45819
G1 X98.420 Y96.074 E2.47902
G1 X99.036 Y95.879 E2.49983
G1 X99.676 Y95.780 E2.52068
G1 X100.324 Y95.780 E2.54151 F1800.000
G1 X100.963 Y95.879 E2.56233
G1 X101.519 Y96.054 E2.58108
G1 X102.154 Y96.357 E2.60373
G1 X102.690 Y96.734 E2.62480
G1 X103.157 Y97.183 E2.64568
G1 X103.554 Y97.707 E2.66681
G1 X103.858 Y98.266 E2.68728
G1 X104.077 Y98.875 E2.70811
G1 X104.200 Y99.510 E2.72894
G1 X104.225 Y100.157 E2.74977
G1 X104.151 Y100.799 E2.77056
G1 X103.993 Y101.378 E2.78986
G1 X103.717 Y102.011 E2.81208
G1 X103.362 Y102.558 E2.83307
G1 X102.972 Y102.997 E2.85197
G1 X102.497 Y102.590 F7800.000
G1 X102.072 Y102.941 E2.86971 F1800.000
G1 X101.598 Y103.222 E2.88745
G1 X101.086 Y103.428 E2.90519
G1 X100.550 Y103.554 E2.92293
G1 X100.000 Y103.596 E2.94067
G1 X99.451 Y103.554 E2.95840
G1 X98.942 Y103.436 E2.97521
G1 X98.403 Y103.223 E2.99385
G1 X97.928 Y102.941 E3.01163
G1 X97.503 Y102.590 E3.02937
G1 X97.136 Y102.178 E3.04711
G1 X96.836 Y101.716 E3.06485
G1 X96.610 Y101.210 E3.08268
G1 X96.458 Y100.620 E3.10227
G1 X96.402 Y100.133 E3.11805
G1 X96.423 Y99.582 E3.13579
G1 X96.528 Y99.041 E3.15355
G1 X96.719 Y98.513 E3.17160
G1 X96.977 Y98.038 E3.18901
G1 X97.312 Y97.599 E3.20675
G1 X97.709 Y97.217 E3.22449
G1 X98.160 Y96.900 E3.24223
G1 X98.654 Y96.655 E3.25997
G1 X99.179 Y96.489 E3.27770
G1 X99.724 Y96.405 E3.29545
G1 X100.276 Y96.405 E3.31320 F1800.000
G1 X100.820 Y96.489 E3.33093
G1 X101.289 Y96.637 E3.34676
G1 X101.838 Y96.898 E3.36631
G1 X102.291 Y97.217 E3.38414
G1 X102.689 Y97.600 E3.40190
G1 X103.027 Y98.047 E3.41994
G1 X103.286 Y98.522 E3.43736
G1 X103.472 Y99.041 E3.45510
G1 X103.577 Y99.582 E3.47284
G1 X103.598 Y100.133 E3.49058
G1 X103.535 Y100.680 E3.50831
G1 X103.402 Y101.170 E3.52463
G1 X103.165 Y101.714 E3.54373
G1 X102.864 Y102.178 E3.56153
G1 X102.537 Y102.545 E3.57734
G1 X102.583 Y102.980 F7800.000
G1 X104.036 Y104.093 F7800.000
G1 X103.900 Y104.233 E3.58361 F1800.000
G1 X103.429 Y104.623 E3.60330
G1 X102.918 Y104.960 E3.62299
G1 X102.375 Y105.242 E3.64269
G1 X101.805 Y105.464 E3.66238
G1 X101.214 Y105.625 E3.68207
G1 X100.612 Y105.722 E3.70169
G1 X100.000 Y105.754 E3.72142
G1 X99.388 Y105.722 E3.74116
G1 X98.786 Y105.625 E3.76078
G1 X98.195 Y105.464 E3.78047
G1 X97.625 Y105.242 E3.80016
G1 X97.082 Y104.960 E3.81986
G1 X96.571 Y104.623 E3.83955
G1 X96.103 Y104.236 E3.85909
G1 X95.624 Y103.735 E3.88140
G1 X95.294 Y103.315 E3.89859
G1 X94.968 Y102.796 E3.91831
G1 X94.699 Y102.246 E3.93800
G1 X94.490 Y101.671 E3.95769
G1 X94.344 Y101.077 E3.97737
G1 X94.259 Y100.454 E3.99761
G1 X94.243 Y99.841 E4.01733
G1 X94.290 Y99.246 E4.03656
G1 X94.401 Y98.649 E4.05608
G1 X94.574 Y98.066 E4.07566
G1 X94.846 Y97.429 E4.09794
G1 X95.104 Y96.963 E4.11510
G1 X95.455 Y96.459 E4.13485
G1 X95.856 Y95.997 E4.15454
G1 X96.303 Y95.580 E4.17424
G1 X96.793 Y95.212 E4.19393
G1 X97.319 Y94.899 E4.21362
G1 X97.874 Y94.643 E4.23331
G1 X98.454 Y94.448 E4.25300
G1 X99.052 Y94.315 E4.27269
G1 X99.651 Y94.248 E4.29208
G1 X100.349 Y94.248 E4.31457
G1 X100.948 Y94.315 E4.33396
G1 X101.546 Y94.448 E4.35365 F1800.000
G1 X102.126 Y94.643 E4.37334
G1 X102.681 Y94.899 E4.39303
G1 X103.207 Y95.212 E4.41272
G1 X103.697 Y95.580 E4.43241
G1 X104.146 Y95.998 E4.45217
G1 X104.497 Y96.399 E4.46933
G1 X104.896 Y96.964 E4.49160
G1 X105.189 Y97.498 E4.51117
G1 X105.425 Y98.062 E4.53086
G1 X105.599 Y98.649 E4.55056
G1 X105.710 Y99.246 E4.57009
G1 X105.757 Y99.841 E4.58932
G1 X105.741 Y100.454 E4.60904
G1 X105.656 Y101.077 E4.62928
G1 X105.510 Y101.671 E4.64895
G1 X105.301 Y102.247 E4.66868
G1 X105.067 Y102.728 E4.68587
G1 X104.704 Y103.318 E4.70817
G1 X104.328 Y103.795 E4.72771
G1 X104.078 Y104.050 E4.73921
G1 X104.483 Y104.530 F7800.000
G1 X104.324 Y104.693 E4.74655 F1800.000
G1 X103.801 Y105.125 E4.76838
G1 X103.235 Y105.500 E4.79021
G1 X102.633 Y105.812 E4.81204
G1 X102.001 Y106.059 E4.83388
G1 X101.346 Y106.237 E4.85571
G1 X100.679 Y106.344 E4.87747
G1 X100.000 Y106.380 E4.89934
G1 X99.321 Y106.344 E4.92121
G1 X98.654 Y106.237 E4.94297
G1 X97.999 Y106.059 E4.96480
G1 X97.367 Y105.812 E4.98663
G1 X96.765 Y105.500 E5.00847
G1 X96.199 Y105.125 E5.03030
G1 X95.677 Y104.694 E5.05208
G1 X95.151 Y104.145 E5.07654
G1 X94.782 Y103.675 E5.09578
G1 X94.421 Y103.100 E5.11762
G1 X94.123 Y102.491 E5.13945
G1 X93.891 Y101.853 E5.16128
G1 X93.729 Y101.195 E5.18311
G1 X93.635 Y100.504 E5.20552
G1 X93.617 Y99.825 E5.22739
G1 X93.669 Y99.164 E5.24873
G1 X93.792 Y98.503 E5.27037
G1 X93.985 Y97.854 E5.29216
G1 X94.284 Y97.155 E5.31661
G1 X94.573 Y96.632 E5.33584
G1 X94.961 Y96.075 E5.35769
G1 X95.405 Y95.562 E5.37952
G1 X95.902 Y95.100 E5.40135
G1 X96.444 Y94.693 E5.42318
G1 X97.027 Y94.345 E5.44501
G1 X97.644 Y94.062 E5.46684
G1 X98.286 Y93.845 E5.48867
G1 X98.949 Y93.698 E5.51050
G1 X99.616 Y93.623 E5.53210
G1 X100.384 Y93.623 E5.55684
G1 X101.051 Y93.698 E5.57843
G1 X101.714 Y93.845 E5.60026 F1800.000
G1 X102.356 Y94.062 E5.62209
G1 X102.973 Y94.345 E5.64392
G1 X103.556 Y94.693 E5.66575
G1 X104.098 Y95.100 E5.68758
G1 X104.595 Y95.563 E5.70944
G1 X104.988 Y96.012 E5.72866
G1 X105.427 Y96.633 E5.75311
G1 X105.753 Y97.226 E5.77490
G1 X106.014 Y97.852 E5.79673
G1 X106.208 Y98.503 E5.81857
G1 X106.331 Y99.164 E5.84021
G1 X106.383 Y99.825 E5.86155
G1 X106.365 Y100.504 E5.88342
G1 X106.271 Y101.195 E5.90583
G1 X106.109 Y101.853 E5.92766
G1 X105.877 Y102.491 E5.94950
G1 X105.615 Y103.029 E5.96874
G1 X105.217 Y103.676 E5.99320
G1 X104.798 Y104.208 E6.01498
G1 X104.525 Y104.487 E6.02754
G1 X104.263 Y104.474 F7800.000
G1 X103.485 Y103.567 F7800.000
G1 X102.899 Y104.057 E6.07966 F1800.000
G1 X102.527 Y104.294 E6.10979
G1 X102.183 Y104.482 E6.13651
G1 X101.539 Y104.744 E6.18395
G1 X100.796 Y104.921 E6.23609
G1 X100.000 Y104.989 E6.29057
G1 X99.274 Y104.932 E6.34026
G1 X98.949 Y104.870 E6.36284
G1 X98.496 Y104.754 E6.39476
G1 X97.943 Y104.540 E6.43520
G1 X97.473 Y104.294 E6.47136
G1 X97.157 Y104.096 E6.49678
G1 X96.627 Y103.672 E6.54312
G1 X96.206 Y103.230 E6.58479
G1 X95.924 Y102.871 E6.61591
G1 X95.599 Y102.349 E6.65787
G1 X95.287 Y101.633 E6.71118
G1 X95.094 Y100.905 E6.76253
G1 X95.013 Y100.152 E6.81422
G1 X95.045 Y99.388 E6.86636 F1800.000
G1 X95.149 Y98.829 E6.90515
G1 X95.301 Y98.328 E6.94088
G1 X95.538 Y97.768 E6.98240
G1 X95.830 Y97.254 E7.02273
G1 X96.298 Y96.650 E7.07485
G1 X96.795 Y96.167 E7.12214
G1 X97.223 Y95.853 E7.15831
G1 X97.678 Y95.582 E7.19447
G1 X98.157 Y95.355 E7.23065
G1 X98.829 Y95.145 E7.27867
G1 X99.584 Y95.023 E7.33083
G1 X100.306 Y95.014 E7.38014
G1 X100.821 Y95.077 E7.41553
G1 X101.339 Y95.190 E7.45169
G1 X101.829 Y95.353 E7.48691
G1 X102.322 Y95.583 E7.52402
G1 X102.777 Y95.853 E7.56017
G1 X103.205 Y96.167 E7.59634
G1 X103.750 Y96.704 E7.64853
G1 X104.214 Y97.321 E7.70123
G1 X104.496 Y97.831 E7.74100
G1 X104.697 Y98.322 E7.77716
G1 X104.851 Y98.829 E7.81336
G1 X104.955 Y99.388 E7.85214
G1 X104.987 Y100.152 E7.90428
G1 X104.904 Y100.934 E7.95794
G1 X104.772 Y101.447 E7.99406
G1 X104.588 Y101.946 E8.03033
G1 X104.371 Y102.404 E8.06492
G1 X103.989 Y102.993 E8.11282
G1 X103.526 Y103.523 E8.16084
G1 Z0.600 F7800.000
G1 X103.035 Y103.155 F7800.000
G1 X102.494 Y103.594 E8.17372 F900.000
G1 X101.944 Y103.921 E8.18556
G1 X101.322 Y104.172 E8.19796
G1 X100.669 Y104.324 E8.21036
G1 X100.000 Y104.376 E8.22276
G1 X99.335 Y104.325 E8.23508
G1 X98.763 Y104.195 E8.24592
G1 X98.064 Y103.925 E8.25979
G1 X97.480 Y103.578 E8.27235
G1 X96.962 Y103.151 E8.28475
G1 X96.516 Y102.651 E8.29715
G1 X96.152 Y102.088 E8.30955
G1 X95.879 Y101.479 E8.32189
G1 X95.712 Y100.885 E8.33329
G1 X95.673 Y100.598 E8.33864
G1 X95.623 Y100.163 E8.34674
G1 X95.648 Y99.493 E8.35914
G1 X95.776 Y98.834 E8.37154
G1 X96.003 Y98.203 E8.38394
G1 X96.323 Y97.614 E8.39634
G1 X96.730 Y97.081 E8.40874
G1 X97.216 Y96.613 E8.42122
G1 X97.789 Y96.216 E8.43410
G1 X98.362 Y95.932 E8.44593
G1 X99.000 Y95.730 E8.45830
G1 X99.665 Y95.628 E8.47073
G1 X100.335 Y95.628 E8.48313 F900.000
G1 X100.998 Y95.730 E8.49552
G1 X101.638 Y95.933 E8.50794
G1 X102.238 Y96.230 E8.52033
G1 X102.787 Y96.616 E8.53273
G1 X103.273 Y97.084 E8.54521
G1 X103.691 Y97.641 E8.55809
G1 X103.997 Y98.203 E8.56992
G1 X104.224 Y98.834 E8.58232
G1 X104.352 Y99.493 E8.59472
G1 X104.377 Y100.163 E8.60712
G1 X104.301 Y100.826 E8.61945
G1 X104.161 Y101.349 E8.62946
G1 X103.856 Y102.076 E8.64404
G1 X103.484 Y102.651 E8.65670
G1 X103.075 Y103.110 E8.66807
G1 X102.686 Y102.790 F7800.000
G1 X102.205 Y103.180 E8.67952 F900.000
G1 X101.720 Y103.469 E8.68997
G1 X101.170 Y103.691 E8.70094
G1 X100.592 Y103.826 E8.71191
G1 X100.000 Y103.872 E8.72288
G1 X99.411 Y103.826 E8.73382
G1 X98.910 Y103.713 E8.74330
G1 X98.284 Y103.471 E8.75571
G1 X97.770 Y103.166 E8.76677
G1 X97.312 Y102.788 E8.77774
G1 X96.917 Y102.345 E8.78871
G1 X96.595 Y101.847 E8.79968
G1 X96.352 Y101.307 E8.81063
G1 X96.205 Y100.783 E8.82070
G1 X96.172 Y100.535 E8.82531
G1 X96.127 Y100.144 E8.83260
G1 X96.149 Y99.551 E8.84357
G1 X96.262 Y98.968 E8.85454
G1 X96.463 Y98.410 E8.86552
G1 X96.746 Y97.888 E8.87649
G1 X97.106 Y97.416 E8.88746
G1 X97.535 Y97.003 E8.89848
G1 X98.045 Y96.651 E8.90993
G1 X98.551 Y96.400 E8.92037
G1 X99.115 Y96.221 E8.93132
G1 X99.703 Y96.130 E8.94232
G1 X100.297 Y96.130 E8.95329 F900.000
G1 X100.883 Y96.221 E8.96426
G1 X101.449 Y96.400 E8.97524
G1 X101.981 Y96.663 E8.98621
G1 X102.466 Y97.005 E8.99718
G1 X102.896 Y97.418 E9.00820
G1 X103.267 Y97.913 E9.01965
G1 X103.537 Y98.410 E9.03009
G1 X103.738 Y98.968 E9.04106
G1 X103.851 Y99.551 E9.05204
G1 X103.873 Y100.144 E9.06301
G1 X103.806 Y100.731 E9.07395
G1 X103.684 Y101.186 E9.08265
G1 X103.410 Y101.840 E9.09577
G1 X103.083 Y102.345 E9.10689
G1 X102.726 Y102.745 E9.11679
G1 X102.392 Y102.482 F7800.000
G1 X101.962 Y102.831 E9.12385 F900.000
G1 X101.531 Y103.088 E9.13024
G1 X101.041 Y103.285 E9.13697
G1 X100.527 Y103.405 E9.14370
G1 X100.000 Y103.446 E9.15043
G1 X99.474 Y103.405 E9.15715
G1 X99.034 Y103.306 E9.16290
G1 X98.470 Y103.088 E9.17060
G1 X98.015 Y102.818 E9.17735
G1 X97.607 Y102.481 E9.18408
G1 X97.256 Y102.087 E9.19081
G1 X96.969 Y101.644 E9.19754
G1 X96.753 Y101.162 E9.20426
G1 X96.622 Y100.696 E9.21042
G1 X96.593 Y100.482 E9.21317
G1 X96.552 Y100.127 E9.21772
G1 X96.572 Y99.599 E9.22445
G1 X96.673 Y99.081 E9.23118
G1 X96.851 Y98.584 E9.23791
G1 X97.104 Y98.120 E9.24464
G1 X97.424 Y97.699 E9.25137
G1 X97.805 Y97.333 E9.25811
G1 X98.261 Y97.017 E9.26518
G1 X98.710 Y96.795 E9.27156
G1 X99.212 Y96.636 E9.27827
G1 X99.736 Y96.555 E9.28502
G1 X100.264 Y96.555 E9.29175 F900.000
G1 X100.786 Y96.635 E9.29848
G1 X101.290 Y96.795 E9.30521
G1 X101.763 Y97.029 E9.31194
G1 X102.195 Y97.333 E9.31867
G1 X102.577 Y97.700 E9.32541
G1 X102.909 Y98.143 E9.33247
G1 X103.149 Y98.584 E9.33886
G1 X103.327 Y99.081 E9.34559
G1 X103.428 Y99.600 E9.35232
G1 X103.448 Y100.127 E9.35905
G1 X103.388 Y100.652 E9.36577
G1 X103.281 Y101.048 E9.37100
G1 X103.033 Y101.642 E9.37920
G1 X102.744 Y102.087 E9.38596
G1 X102.432 Y102.437 E9.39193
G1 X102.476 Y102.873 F7800.000
G1 X103.926 Y103.988 F7800.000
G1 X103.787 Y104.130 E9.39561 F900.000
G1 X103.328 Y104.507 E9.40659
G1 X102.832 Y104.834 E9.41758
G1 X102.304 Y105.107 E9.42856
G1 X101.751 Y105.322 E9.43954
G1 X101.177 Y105.477 E9.45053
G1 X100.596 Y105.570 E9.46140
G1 X100.000 Y105.602 E9.47244
G1 X99.404 Y105.570 E9.48348
G1 X98.823 Y105.477 E9.49435
G1 X98.249 Y105.322 E9.50534
G1 X97.696 Y105.107 E9.51632
G1 X97.168 Y104.834 E9.52730
G1 X96.672 Y104.507 E9.53829
G1 X96.213 Y104.130 E9.54927
G1 X95.793 Y103.702 E9.56036
G1 X95.430 Y103.243 E9.57118
G1 X95.111 Y102.739 E9.58222
G1 X94.848 Y102.206 E9.59320
G1 X94.643 Y101.649 E9.60418
G1 X94.498 Y101.074 E9.61513
G1 X94.411 Y100.440 E9.62696
G1 X94.395 Y99.844 E9.63798
G1 X94.438 Y99.291 E9.64825
G1 X94.541 Y98.720 E9.65898
G1 X94.707 Y98.148 E9.66998
G1 X95.009 Y97.446 E9.68412
