; generated by Slic3r 1.2.9 on 2019-07-11 at 12:42:27

; external perimeters extrusion width = 0.40mm
; perimeters extrusion width = 0.48mm
; infill extrusion width = 0.48mm
; solid infill extrusion width = 0.48mm
; top infill extrusion width = 0.48mm
; support material extrusion width = 0.40mm

M107
M190 S65 ; set bed temperature
M104 S200 ; set temperature
G28 ; home all axes
G1 Z5 F5000 ; lift nozzle

M109 S200 ; wait for temperature to be reached
G21 ; set units to millimeters
G90 ; use absolute coordinates
M82 ; use absolute distances for extrusion
G92 E0
G1 Z0.350 F7800.000
G1 E-2.00000 F2400.00000
G92 E0
G1 X62.915 Y53.753 F7800.000
G1 E2.00000 F2400.00000
G1 X64.668 Y52.274 E2.07380 F1800.000
G1 X67.799 Y51.378 E2.17859
G1 X123.386 Y49.691 E3.96813
G1 X126.383 Y49.688 E4.06457
G1 X128.289 Y49.968 E4.12657 F1800.000
G1 X133.906 Y51.655 E4.31531
G1 X135.955 Y52.685 E4.38911
G1 X137.530 Y54.352 E4.46291
G1 X138.443 Y56.457 E4.53671
G1 X138.625 Y58.000 E4.58673
G1 X138.625 Y110.000 E6.26003
G1 X138.463 Y113.462 E6.37155
G1 X138.399 Y114.109 E6.39248
G1 X137.938 Y117.216 E6.49354
G1 X137.811 Y117.853 E6.51444
G1 X137.048 Y120.899 E6.61549
G1 X136.860 Y121.521 E6.63641
G1 X135.802 Y124.478 E6.73747
G1 X135.553 Y125.079 E6.75841
G1 X134.210 Y127.918 E6.85947
G1 X133.903 Y128.491 E6.88037
G1 X132.304 Y131.160 E6.98051
G1 X131.928 Y131.724 E7.00231
G1 X130.057 Y134.247 E7.10339
G1 X129.644 Y134.751 E7.12435
G1 X127.535 Y137.077 E7.22540
G1 X127.077 Y137.535 E7.24622
G1 X124.751 Y139.644 E7.34727
G1 X124.247 Y140.057 E7.36824
G1 X121.724 Y141.928 E7.46932
G1 X121.184 Y142.289 E7.49023
G1 X118.490 Y143.904 E7.59128
G1 X117.918 Y144.210 E7.61216
G1 X115.079 Y145.553 E7.71322
G1 X114.478 Y145.802 E7.73416
G1 X111.521 Y146.860 E7.83522
G1 X110.873 Y147.055 E7.85700
G1 X107.853 Y147.811 E7.95719
G1 X107.216 Y147.938 E7.97809
G1 X104.110 Y148.399 E8.07913
G1 X103.462 Y148.463 E8.10008
G1 X100.324 Y148.617 E8.20117
G1 X99.675 Y148.617 E8.22205
G1 X96.538 Y148.463 E8.32312
G1 X95.891 Y148.399 E8.34406
G1 X92.784 Y147.938 E8.44511
G1 X92.147 Y147.811 E8.46601
G1 X89.101 Y147.048 E8.56706
G1 X88.479 Y146.860 E8.58797
G1 X85.522 Y145.802 E8.68903
G1 X84.921 Y145.553 E8.70997
G1 X82.082 Y144.210 E8.81103
G1 X81.510 Y143.904 E8.83192
G1 X78.816 Y142.289 E8.93296
G1 X78.276 Y141.929 E8.95386
G1 X75.753 Y140.057 E9.05496
G1 X75.249 Y139.644 E9.07593
G1 X72.923 Y137.535 E9.17696
G1 X72.465 Y137.077 E9.19780
G1 X70.356 Y134.751 E9.29884
G1 X69.943 Y134.247 E9.31981
G1 X68.072 Y131.724 E9.42088
G1 X67.711 Y131.184 E9.44180
G1 X66.097 Y128.491 E9.54283
G1 X65.790 Y127.918 E9.56373
G1 X64.447 Y125.079 E9.66479
G1 X64.198 Y124.478 E9.68573
G1 X63.140 Y121.521 E9.78679
G1 X62.952 Y120.899 E9.80771
G1 X62.189 Y117.853 E9.90875
G1 X62.062 Y117.216 E9.92966
G1 X61.601 Y114.110 E10.03070
G1 X61.537 Y113.462 E10.05163
G1 X61.375 Y110.000 E10.16317
G1 X61.375 Y58.000 E11.83647
G1 X61.772 Y55.741 E11.91027
G1 X62.886 Y53.805 E11.98214
G1 E9.98214 F2400.00000
G92 E0
G1 X91.284 Y122.958 F7800.000
G1 E2.00000 F2400.00000
G1 X91.526 Y123.966 E2.03336 F1800.000
G1 X91.611 Y125.040 E2.06804
G1 X91.525 Y126.040 E2.10033
G1 X91.284 Y127.042 E2.13351
G1 X90.886 Y128.000 E2.16688
G1 X90.345 Y128.883 E2.20021
G1 X89.672 Y129.672 E2.23357
G1 X88.883 Y130.345 E2.26694
G1 X88.000 Y130.886 E2.30027
G1 X87.042 Y131.284 E2.33364
G1 X86.033 Y131.526 E2.36704
G1 X85.000 Y131.607 E2.40039
G1 X83.967 Y131.526 E2.43374
G1 X82.958 Y131.284 E2.46713
G1 X82.000 Y130.886 E2.50050
G1 X81.117 Y130.345 E2.53383
G1 X80.328 Y129.672 E2.56720
G1 X79.655 Y128.883 E2.60056
G1 X79.114 Y128.000 E2.63390
G1 X78.716 Y127.042 E2.66727
G1 X78.474 Y126.033 E2.70066
G1 X78.393 Y125.000 E2.73401
G1 X78.474 Y123.967 E2.76736
G1 X78.716 Y122.958 E2.80075
G1 X79.114 Y122.000 E2.83412
G1 X79.655 Y121.117 E2.86746
G1 X80.328 Y120.328 E2.90082
G1 X81.117 Y119.655 E2.93419
G1 X82.000 Y119.114 E2.96752
G1 X82.958 Y118.716 E3.00089
G1 X83.966 Y118.474 E3.03425
G1 X84.977 Y118.394 E3.06691 F1800.000
G1 X86.031 Y118.473 E3.10092
G1 X87.042 Y118.716 E3.13438
G1 X88.000 Y119.114 E3.16775
G1 X88.883 Y119.655 E3.20108
G1 X89.672 Y120.328 E3.23444
G1 X90.345 Y121.117 E3.26781
G1 X90.886 Y122.000 E3.30114
G1 X91.261 Y122.902 E3.33258
G1 X90.688 Y123.152 F7800.000
G1 X90.907 Y124.064 E3.36278 F1800.000
G1 X90.984 Y125.038 E3.39421
G1 X90.906 Y125.940 E3.42334
G1 X90.688 Y126.848 E3.45342
G1 X90.328 Y127.715 E3.48362
G1 X89.838 Y128.515 E3.51379
G1 X89.228 Y129.228 E3.54400
G1 X88.515 Y129.838 E3.57420
G1 X87.715 Y130.328 E3.60437
G1 X86.848 Y130.688 E3.63458
G1 X85.935 Y130.907 E3.66479
G1 X85.000 Y130.980 E3.69498
G1 X84.065 Y130.907 E3.72518
G1 X83.152 Y130.688 E3.75539
G1 X82.285 Y130.328 E3.78559
G1 X81.485 Y129.838 E3.81577
G1 X80.772 Y129.228 E3.84597
G1 X80.162 Y128.515 E3.87617
G1 X79.672 Y127.715 E3.90635
G1 X79.312 Y126.848 E3.93655
G1 X79.093 Y125.935 E3.96676
G1 X79.020 Y125.000 E3.99696
G1 X79.093 Y124.064 E4.02715
G1 X79.312 Y123.152 E4.05736
G1 X79.672 Y122.285 E4.08756
G1 X80.162 Y121.485 E4.11774
G1 X80.772 Y120.772 E4.14794
G1 X81.485 Y120.162 E4.17814
G1 X82.285 Y119.672 E4.20832
G1 X83.152 Y119.312 E4.23852
G1 X84.064 Y119.093 E4.26871
G1 X84.979 Y119.021 E4.29824 F1800.000
G1 X85.934 Y119.093 E4.32908
G1 X86.848 Y119.312 E4.35933
G1 X87.715 Y119.672 E4.38953
G1 X88.515 Y120.162 E4.41971
G1 X89.228 Y120.772 E4.44991
G1 X89.838 Y121.485 E4.48011
G1 X90.328 Y122.285 E4.51029
G1 X90.665 Y123.096 E4.53856
G1 X90.092 Y123.345 F7800.000
G1 X90.288 Y124.162 E4.56559 F1800.000
G1 X90.357 Y125.036 E4.59378
G1 X90.287 Y125.839 E4.61974
G1 X90.092 Y126.655 E4.64672
G1 X89.770 Y127.431 E4.67376
G1 X89.331 Y128.146 E4.70077
G1 X88.785 Y128.785 E4.72781
G1 X88.146 Y129.331 E4.75485
G1 X87.431 Y129.770 E4.78187
G1 X86.655 Y130.092 E4.80890
G1 X85.838 Y130.288 E4.83593
G1 X85.000 Y130.353 E4.86297
G1 X84.162 Y130.288 E4.89001
G1 X83.345 Y130.092 E4.91704
G1 X82.569 Y129.770 E4.94408
G1 X81.854 Y129.331 E4.97110
G1 X81.215 Y128.785 E4.99813
G1 X80.669 Y128.146 E5.02517
G1 X80.230 Y127.431 E5.05219
G1 X79.908 Y126.655 E5.07922
G1 X79.712 Y125.838 E5.10626
G1 X79.647 Y125.000 E5.13330
G1 X79.712 Y124.162 E5.16033
G1 X79.908 Y123.345 E5.18737
G1 X80.230 Y122.569 E5.21440
G1 X80.669 Y121.854 E5.24142
G1 X81.215 Y121.215 E5.26846
G1 X81.854 Y120.669 E5.29549
G1 X82.569 Y120.230 E5.32251
G1 X83.345 Y119.908 E5.34955
G1 X84.162 Y119.712 E5.37657
G1 X84.980 Y119.648 E5.40297 F1800.000
G1 X85.837 Y119.712 E5.43064
G1 X86.655 Y119.908 E5.45768
G1 X87.431 Y120.230 E5.48472
G1 X88.146 Y120.669 E5.51174
G1 X88.785 Y121.215 E5.53878
G1 X89.331 Y121.854 E5.56581
G1 X89.770 Y122.569 E5.59283
G1 X90.069 Y123.290 E5.61794
G1 X90.481 Y123.439 F7800.000
G1 E3.61794 F2400.00000
G92 E0
G1 X75.554 Y108.808 F7800.000
G1 E2.00000 F2400.00000
G1 X75.335 Y109.027 E2.00998 F1800.000
G1 X74.463 Y109.470 E2.04144
G1 X73.500 Y109.621 E2.07281
G1 X72.537 Y109.470 E2.10418
G1 X71.665 Y109.027 E2.13564
G1 X70.973 Y108.335 E2.16715
G1 X70.530 Y107.463 E2.19861
G1 X70.379 Y106.500 E2.22998
G1 X70.530 Y105.537 E2.26135
G1 X70.973 Y104.665 E2.29281
G1 X71.665 Y103.973 E2.32432
G1 X72.535 Y103.531 E2.35573
G1 X73.459 Y103.384 E2.38582 F1800.000
G1 X74.452 Y103.524 E2.41809
G1 X75.335 Y103.973 E2.44995
G1 X76.027 Y104.665 E2.48146
G1 X76.469 Y105.535 E2.51287
G1 X76.623 Y106.500 E2.54430
G1 X76.469 Y107.465 E2.57573
G1 X76.027 Y108.335 E2.60713
G1 X75.596 Y108.765 E2.62673
G1 X75.112 Y108.366 F7800.000
G1 X74.963 Y108.515 E2.63352 F1800.000
G1 X74.268 Y108.868 E2.65859
G1 X73.500 Y108.989 E2.68362
G1 X72.732 Y108.868 E2.70864
G1 X72.037 Y108.515 E2.73371
G1 X71.485 Y107.963 E2.75884
G1 X71.132 Y107.268 E2.78392
G1 X71.011 Y106.500 E2.80894
G1 X71.132 Y105.732 E2.83396
G1 X71.485 Y105.037 E2.85904
G1 X72.037 Y104.485 E2.88416
G1 X72.731 Y104.132 E2.90920
G1 X73.464 Y104.015 E2.93310 F1800.000
G1 X74.261 Y104.129 E2.95900
G1 X74.963 Y104.485 E2.98433
G1 X75.515 Y105.037 E3.00945
G1 X75.868 Y105.731 E3.03449
G1 X75.990 Y106.500 E3.05955
G1 X75.868 Y107.269 E3.08461
G1 X75.515 Y107.963 E3.10966
G1 X75.154 Y108.323 E3.12606
G1 X74.670 Y107.924 F7800.000
G1 X74.591 Y108.003 E3.12965 F1800.000
G1 X74.073 Y108.266 E3.14835
G1 X73.500 Y108.356 E3.16702
G1 X72.927 Y108.266 E3.18569
G1 X72.409 Y108.003 E3.20439
G1 X71.997 Y107.591 E3.22312
G1 X71.734 Y107.073 E3.24182
G1 X71.644 Y106.500 E3.26049
G1 X71.734 Y105.927 E3.27917
G1 X71.997 Y105.409 E3.29786
G1 X72.409 Y104.997 E3.31660
G1 X72.926 Y104.734 E3.33528
G1 X73.470 Y104.647 E3.35299 F1800.000
G1 X74.071 Y104.733 E3.37252
G1 X74.591 Y104.997 E3.39131
G1 X75.003 Y105.409 E3.41004
G1 X75.266 Y105.926 E3.42872
G1 X75.357 Y106.500 E3.44741
G1 X75.266 Y107.074 E3.46610
G1 X75.003 Y107.591 E3.48479
G1 X74.713 Y107.881 E3.49799
G1 X74.699 Y108.032 F7800.000
G1 X91.398 Y118.602 F7800.000
G1 X91.398 Y90.397 E4.40559 F1800.000
G1 X92.398 Y90.397 E4.43777
G1 X92.398 Y83.397 E4.66302
G1 X107.603 Y83.397 E5.15229
G1 X107.603 Y90.397 E5.37754
G1 X108.603 Y90.397 E5.40972
G1 X108.603 Y118.602 E6.31731
G1 X91.458 Y118.602 E6.86900
G1 X92.023 Y117.977 F7800.000
G1 X92.023 Y91.022 E7.73638 F1800.000
G1 X107.978 Y91.022 E8.24979
G1 X107.978 Y117.977 E9.11717
G1 X92.083 Y117.977 E9.62864
G1 X92.648 Y117.352 F7800.000
G1 X92.648 Y91.647 E10.45580 F1800.000
G1 X107.353 Y91.647 E10.92900
G1 X107.353 Y117.352 E11.75616
G1 X92.708 Y117.352 E12.22742
G1 X92.248 Y117.352 F7800.000
G1 E10.22742 F2400.00000
G92 E0
G1 X93.023 Y89.977 F7800.000
G1 E2.00000 F2400.00000
G1 X93.023 Y84.022 E2.19162 F1800.000
G1 X106.978 Y84.022 E2.64067
G1 X106.978 Y89.977 E2.83229
G1 X93.083 Y89.977 E3.27941
G1 X93.648 Y89.352 F7800.000
G1 X93.648 Y84.647 E3.43081 F1800.000
G1 X106.353 Y84.647 E3.83964
G1 X106.353 Y89.352 E3.99104
G1 X93.708 Y89.352 E4.39795
G1 X93.248 Y89.352 F7800.000
G1 X75.335 Y66.027 F7800.000
G1 X74.463 Y66.470 E4.42941 F1800.000
G1 X73.500 Y66.621 E4.46078
G1 X72.537 Y66.470 E4.49215
G1 X71.665 Y66.027 E4.52361
G1 X70.973 Y65.335 E4.55512
G1 X70.530 Y64.463 E4.58658
G1 X70.379 Y63.500 E4.61795
G1 X70.530 Y62.537 E4.64931
G1 X70.973 Y61.665 E4.68077
G1 X71.665 Y60.973 E4.71228
G1 X72.535 Y60.531 E4.74369
G1 X73.500 Y60.377 E4.77512 F1800.000
G1 X74.465 Y60.531 E4.80655
G1 X75.335 Y60.973 E4.83795
G1 X76.027 Y61.665 E4.86946
G1 X76.469 Y62.535 E4.90087
G1 X76.623 Y63.500 E4.93230
G1 X76.469 Y64.465 E4.96373
G1 X76.027 Y65.335 E4.99513
G1 X75.377 Y65.984 E5.02471
G1 X74.963 Y65.515 F7800.000
G1 X74.268 Y65.868 E5.04979 F1800.000
G1 X73.500 Y65.989 E5.07481
G1 X72.732 Y65.868 E5.09983
G1 X72.037 Y65.515 E5.12491
G1 X71.485 Y64.963 E5.15003
G1 X71.132 Y64.268 E5.17511
G1 X71.011 Y63.500 E5.20013
G1 X71.132 Y62.732 E5.22515
G1 X71.485 Y62.037 E5.25023
G1 X72.037 Y61.485 E5.27535
G1 X72.731 Y61.132 E5.30040
G1 X73.500 Y61.010 E5.32546 F1800.000
G1 X74.269 Y61.132 E5.35052
G1 X74.963 Y61.485 E5.37556
G1 X75.515 Y62.037 E5.40068
G1 X75.868 Y62.731 E5.42573
G1 X75.990 Y63.500 E5.45079
G1 X75.868 Y64.269 E5.47585
G1 X75.515 Y64.963 E5.50089
G1 X75.005 Y65.472 E5.52408
G1 X74.591 Y65.003 F7800.000
G1 X74.073 Y65.266 E5.54278 F1800.000
G1 X73.500 Y65.356 E5.56145
G1 X72.927 Y65.266 E5.58012
G1 X72.409 Y65.003 E5.59882
G1 X71.997 Y64.591 E5.61756
G1 X71.734 Y64.073 E5.63625
G1 X71.644 Y63.500 E5.65493
G1 X71.734 Y62.927 E5.67360
G1 X71.997 Y62.409 E5.69230
G1 X72.409 Y61.997 E5.71103
G1 X72.926 Y61.734 E5.72971
G1 X73.500 Y61.643 E5.74840 F1800.000
G1 X74.074 Y61.734 E5.76709
G1 X74.591 Y61.997 E5.78578
G1 X75.003 Y62.409 E5.80451
G1 X75.266 Y62.926 E5.82320
G1 X75.357 Y63.500 E5.84188
G1 X75.266 Y64.074 E5.86057
G1 X75.003 Y64.591 E5.87926
G1 X74.634 Y64.960 E5.89606
G1 X74.612 Y65.402 F7800.000
G1 E3.89606 F2400.00000
G92 E0
G1 X123.973 Y104.665 F7800.000
G1 E2.00000 F2400.00000
G1 X124.665 Y103.973 E2.03151 F1800.000
G1 X125.535 Y103.531 E2.06291
G1 X126.500 Y103.377 E2.09434 F1800.000
G1 X127.465 Y103.531 E2.12578
G1 X128.335 Y103.973 E2.15718
G1 X129.027 Y104.665 E2.18869
G1 X129.469 Y105.535 E2.22009
G1 X129.623 Y106.500 E2.25152
G1 X129.469 Y107.465 E2.28295
G1 X129.027 Y108.335 E2.31436
G1 X128.335 Y109.027 E2.34587
G1 X127.463 Y109.470 E2.37733
G1 X126.500 Y109.621 E2.40870
G1 X125.537 Y109.470 E2.44007
G1 X124.665 Y109.027 E2.47153
G1 X123.973 Y108.335 E2.50304
G1 X123.531 Y107.465 E2.53444
G1 X123.377 Y106.500 E2.56587
G1 X123.531 Y105.535 E2.59730
G1 X123.946 Y104.719 E2.62678
G1 X124.485 Y105.037 F7800.000
G1 X125.037 Y104.485 E2.65190 F1800.000
G1 X125.731 Y104.132 E2.67694
G1 X126.500 Y104.010 E2.70200 F1800.000
G1 X127.269 Y104.132 E2.72706
G1 X127.963 Y104.485 E2.75211
G1 X128.515 Y105.037 E2.77723
G1 X128.868 Y105.731 E2.80227
G1 X128.990 Y106.500 E2.82733
G1 X128.868 Y107.269 E2.85239
G1 X128.515 Y107.963 E2.87744
G1 X127.963 Y108.515 E2.90256
G1 X127.268 Y108.868 E2.92764
G1 X126.500 Y108.989 E2.95266
G1 X125.732 Y108.868 E2.97768
G1 X125.037 Y108.515 E3.00276
G1 X124.485 Y107.963 E3.02788
G1 X124.132 Y107.269 E3.05292
G1 X124.010 Y106.500 E3.07798
G1 X124.132 Y105.731 E3.10304
G1 X124.458 Y105.091 E3.12616
G1 X124.997 Y105.409 F7800.000
G1 X125.409 Y104.997 E3.14489 F1800.000
G1 X125.926 Y104.734 E3.16358
G1 X126.500 Y104.643 E3.18226 F1800.000
G1 X127.074 Y104.734 E3.20095
G1 X127.591 Y104.997 E3.21964
G1 X128.003 Y105.409 E3.23837
G1 X128.266 Y105.926 E3.25706
G1 X128.357 Y106.500 E3.27575
G1 X128.266 Y107.074 E3.29443
G1 X128.003 Y107.591 E3.31312
G1 X127.591 Y108.003 E3.33185
G1 X127.073 Y108.266 E3.35055
G1 X126.500 Y108.356 E3.36922
G1 X125.927 Y108.266 E3.38789
G1 X125.409 Y108.003 E3.40659
G1 X124.997 Y107.591 E3.42533
G1 X124.734 Y107.074 E3.44401
G1 X124.643 Y106.500 E3.46270
G1 X124.734 Y105.926 E3.48139
G1 X124.970 Y105.462 E3.49814
G1 X124.854 Y105.035 F7800.000
G1 X130.400 Y59.600 F7800.000
G1 X130.400 Y109.961 E5.11871 F1800.000
G1 X130.252 Y112.980 E5.21598
G1 X129.814 Y115.930 E5.31196
G1 X129.089 Y118.824 E5.40795
G1 X128.084 Y121.633 E5.50396
G1 X126.808 Y124.330 E5.59996
G1 X125.275 Y126.888 E5.69594
G1 X123.498 Y129.285 E5.79195
G1 X121.494 Y131.494 E5.88793
G1 X119.285 Y133.498 E5.98391
G1 X116.888 Y135.275 E6.07992
G1 X114.330 Y136.808 E6.17589
G1 X111.634 Y138.084 E6.27188
G1 X108.798 Y139.096 E6.36876
G1 X105.930 Y139.814 E6.46389
G1 X102.980 Y140.252 E6.55987
G1 X100.000 Y140.398 E6.65588
G1 X97.020 Y140.252 E6.75188
G1 X94.070 Y139.814 E6.84787
G1 X91.176 Y139.089 E6.94386
G1 X88.367 Y138.084 E7.03986
G1 X85.670 Y136.808 E7.13586
G1 X83.112 Y135.275 E7.23184
G1 X80.715 Y133.498 E7.32785
G1 X78.506 Y131.494 E7.42383
G1 X76.502 Y129.285 E7.51981
G1 X74.725 Y126.888 E7.61582
G1 X73.192 Y124.330 E7.71180
G1 X71.916 Y121.633 E7.80780
G1 X70.911 Y118.824 E7.90380
G1 X70.186 Y115.930 E7.99979
G1 X69.748 Y112.980 E8.09578
G1 X69.600 Y109.961 E8.19305
G1 X69.600 Y59.600 E9.81361
G1 X130.340 Y59.600 E11.76818
G1 X131.025 Y58.975 F7800.000
G1 X131.025 Y109.976 E13.40934 F1800.000
G1 X130.875 Y113.041 E13.50810
G1 X130.428 Y116.053 E13.60606
G1 X129.688 Y119.006 E13.70402
G1 X128.662 Y121.872 E13.80200
G1 X127.360 Y124.625 E13.89998
G1 X125.795 Y127.236 E13.99793
G1 X123.982 Y129.682 E14.09592
G1 X121.937 Y131.937 E14.19387
G1 X119.682 Y133.982 E14.29183
G1 X117.236 Y135.795 E14.38982
G1 X114.625 Y137.360 E14.48777
G1 X111.873 Y138.662 E14.58573
G1 X108.979 Y139.695 E14.68459
G1 X106.053 Y140.428 E14.78169
G1 X103.041 Y140.875 E14.87965
G1 X100.000 Y141.024 E14.97763
G1 X96.959 Y140.875 E15.07561
G1 X93.947 Y140.428 E15.17357
G1 X90.994 Y139.688 E15.27154
G1 X88.128 Y138.662 E15.36952
G1 X85.375 Y137.360 E15.46750
G1 X82.764 Y135.795 E15.56544
G1 X80.318 Y133.982 E15.66343
G1 X78.063 Y131.937 E15.76139
G1 X76.018 Y129.682 E15.85934
G1 X74.205 Y127.236 E15.95733
G1 X72.640 Y124.625 E16.05528
G1 X71.338 Y121.872 E16.15326
G1 X70.312 Y119.006 E16.25124
G1 X69.572 Y116.053 E16.34921
G1 X69.125 Y113.041 E16.44716
G1 X68.975 Y109.976 E16.54592
G1 X68.975 Y58.975 E18.18709
G1 X130.965 Y58.975 E20.18187
G1 X131.650 Y58.350 F7800.000
G1 X131.650 Y109.991 E21.84363 F1800.000
G1 X131.497 Y113.103 E21.94387
G1 X131.041 Y116.175 E22.04381
G1 X130.287 Y119.187 E22.14375
