; generated by Slic3r 1.2.9 on 2019-07-11 at 20:07:08

; external perimeters extrusion width = 0.40mm
; perimeters extrusion width = 0.56mm
; infill extrusion width = 0.56mm
; solid infill extrusion width = 0.56mm
; top infill extrusion width = 0.56mm
; support material extrusion width = 0.40mm

M107
M190 S65 ; set bed temperature
M104 S200 ; set temperature
G28 ; home all axes
G1 Z5 F5000 ; lift nozzle

M109 S200 ; wait for temperature to be reached
G21 ; set units to millimeters
G90 ; use absolute coordinates
M82 ; use absolute distances for extrusion
G92 E0
G1 Z0.350 F7800.000
G1 E-2.00000 F2400.00000
G92 E0
G1 X74.465 Y83.339 F7800.000
G1 E2.00000 F2400.00000
G1 X85.919 Y73.105 E2.49427 F1800.000
G1 X87.368 Y71.840 E2.55616
G1 X87.968 Y71.376 E2.58056
G1 X89.432 Y70.369 E2.63774
G1 X90.125 Y69.952 E2.66377
G1 X91.649 Y69.158 E2.71908
G1 X92.443 Y68.808 E2.74701
G1 X94.014 Y68.236 E2.80081
G1 X94.886 Y67.985 E2.83001
G1 X96.489 Y67.640 E2.88275
G1 X97.408 Y67.508 E2.91264
G1 X99.026 Y67.392 E2.96483
G1 X99.974 Y67.392 E2.99534
G1 X101.578 Y67.507 E3.04709
G1 X102.511 Y67.639 E3.07741 F1800.000
G1 X104.114 Y67.985 E3.13017
G1 X104.986 Y68.236 E3.15936
G1 X106.557 Y68.808 E3.21316
G1 X107.351 Y69.158 E3.24110
G1 X108.875 Y69.952 E3.29639
G1 X109.568 Y70.369 E3.32243
G1 X111.032 Y71.376 E3.37961
G1 X111.587 Y71.802 E3.40210
G1 X136.309 Y92.968 E4.44936
G1 X137.766 Y94.738 E4.52317
G1 X138.625 Y98.000 E4.63170
G1 X138.625 Y112.000 E5.08221
G1 X138.228 Y114.259 E5.15601
G1 X137.085 Y116.247 E5.22981
G1 X134.960 Y117.927 E5.31696
G1 X110.238 Y130.274 E6.20619
G1 X109.743 Y130.496 E6.22364
G1 X108.279 Y131.083 E6.27440
G1 X107.740 Y131.273 E6.29280
G1 X106.216 Y131.736 E6.34406
G1 X105.668 Y131.877 E6.36227
G1 X104.097 Y132.211 E6.41395
G1 X103.548 Y132.304 E6.43187
G1 X101.946 Y132.506 E6.48383
G1 X101.391 Y132.552 E6.50173
G1 X99.774 Y132.619 E6.55381
G1 X99.226 Y132.619 E6.57146
G1 X97.609 Y132.552 E6.62354
G1 X97.054 Y132.506 E6.64144
G1 X95.452 Y132.304 E6.69340
G1 X94.903 Y132.211 E6.71132
G1 X93.332 Y131.877 E6.76300
G1 X92.784 Y131.736 E6.78121
G1 X91.260 Y131.273 E6.83249
G1 X90.721 Y131.083 E6.85086
G1 X89.257 Y130.496 E6.90163
G1 X88.720 Y130.253 E6.92058
G1 X87.271 Y129.516 E6.97291
G1 X64.938 Y117.875 E7.78333
G1 X63.118 Y116.479 E7.85713
G1 X61.884 Y114.546 E7.93093
G1 X61.375 Y112.000 E8.01447
G1 X61.375 Y98.000 E8.46498
G1 X61.772 Y95.741 E8.53878
G1 X63.586 Y93.060 E8.64294
G1 X74.420 Y83.379 E9.11049
G1 E7.11049 F2400.00000
G92 E0
G1 X111.338 Y121.260 F7800.000
G1 E2.00000 F2400.00000
G1 X111.082 Y120.988 E2.01202 F1800.000
G1 X111.738 Y120.366 E2.04111
G1 X112.667 Y119.287 E2.08693
G1 X113.470 Y118.134 E2.13214
G1 X114.138 Y116.917 E2.17681
G1 X114.707 Y115.549 E2.22450
G1 X115.042 Y115.667 E2.23594
G1 X114.960 Y115.946 E2.24529
G1 X114.429 Y117.204 E2.28924
G1 X113.755 Y118.413 E2.33377
G1 X112.944 Y119.561 E2.37902
G1 X112.003 Y120.638 E2.42503
G1 X111.382 Y121.219 E2.45239
G1 X111.253 Y120.896 F7800.000
G1 X114.968 Y115.269 F7800.000
G1 X115.208 Y114.408 E2.48115 F1800.000
G1 X115.400 Y113.312 E2.51699
G1 X115.492 Y112.000 E2.55930
G1 E0.55930 F2400.00000
G92 E0
G1 X110.968 Y121.377 F7800.000
G1 E2.00000 F2400.00000
G1 X109.664 Y122.388 E2.05308 F1800.000
G1 X108.409 Y123.186 E2.10095
G1 X107.064 Y123.876 E2.14957
G1 X105.645 Y124.452 E2.19888
G1 X104.164 Y124.907 E2.24873
G1 X102.635 Y125.235 E2.29904
G1 X101.075 Y125.435 E2.34964
G1 X99.500 Y125.501 E2.40038
G1 X97.925 Y125.435 E2.45112
G1 X96.370 Y125.237 E2.50154
G1 X94.836 Y124.907 E2.55203
G1 X93.355 Y124.452 E2.60188
G1 X91.936 Y123.876 E2.65118
G1 X90.591 Y123.186 E2.69981
G1 X89.336 Y122.388 E2.74768
G1 X88.032 Y121.377 E2.80076
G1 X87.918 Y120.988 F7800.000
G1 X87.662 Y121.260 E2.81278 F1800.000
G1 X86.997 Y120.638 E2.84206
G1 X86.056 Y119.561 E2.88808
G1 X85.245 Y118.413 E2.93333
G1 X84.571 Y117.204 E2.97786
G1 X84.040 Y115.946 E3.02180
G1 X83.958 Y115.667 E3.03116
G1 X84.293 Y115.549 E3.04259
G1 X84.862 Y116.917 E3.09029
G1 X85.530 Y118.134 E3.13496
G1 X86.333 Y119.287 E3.18017
G1 X87.262 Y120.366 E3.22599
G1 X87.874 Y120.947 E3.25315
G1 X87.560 Y121.095 F7800.000
G1 E1.25315 F2400.00000
G92 E0
G1 X84.032 Y115.269 F7800.000
G1 E2.00000 F2400.00000
G1 X83.792 Y114.408 E2.02876 F1800.000
G1 X83.600 Y113.312 E2.06460
G1 X83.509 Y112.000 E2.10690
G1 X75.646 Y108.716 F7800.000
G1 X75.335 Y109.027 E2.12106 F1800.000
G1 X74.465 Y109.469 E2.15247
G1 X73.500 Y109.623 E2.18390
G1 X72.535 Y109.469 E2.21533
G1 X71.665 Y109.027 E2.24673
G1 X70.973 Y108.335 E2.27824
G1 X70.530 Y107.463 E2.30970
G1 X70.379 Y106.500 E2.34107
G1 X70.530 Y105.537 E2.37244
G1 X70.973 Y104.665 E2.40390
G1 X71.665 Y103.973 E2.43541
G1 X72.537 Y103.530 E2.46687
G1 X73.459 Y103.385 E2.49691 F1800.000
G1 X74.451 Y103.524 E2.52913
G1 X75.335 Y103.973 E2.56103
G1 X76.027 Y104.665 E2.59254
G1 X76.469 Y105.535 E2.62395
G1 X76.623 Y106.500 E2.65538
G1 X76.469 Y107.465 E2.68681
G1 X76.027 Y108.335 E2.71821
G1 X75.688 Y108.673 E2.73363
G1 X75.204 Y108.274 F7800.000
G1 X74.963 Y108.515 E2.74460 F1800.000
G1 X74.269 Y108.868 E2.76964
G1 X73.500 Y108.990 E2.79470
G1 X72.731 Y108.868 E2.81976
G1 X72.037 Y108.515 E2.84481
G1 X71.485 Y107.963 E2.86993
G1 X71.132 Y107.268 E2.89501
G1 X71.011 Y106.500 E2.92003
G1 X71.132 Y105.732 E2.94505
G1 X71.485 Y105.037 E2.97013
G1 X72.037 Y104.485 E2.99525
G1 X72.732 Y104.132 E3.02033
G1 X73.465 Y104.017 E3.04419 F1800.000
G1 X74.261 Y104.128 E3.07006
G1 X74.963 Y104.485 E3.09541
G1 X75.515 Y105.037 E3.12053
G1 X75.868 Y105.731 E3.14558
G1 X75.990 Y106.500 E3.17064
G1 X75.868 Y107.269 E3.19569
G1 X75.515 Y107.963 E3.22074
G1 X75.246 Y108.231 E3.23296
G1 X74.762 Y107.832 F7800.000
G1 X74.591 Y108.003 E3.24074 F1800.000
G1 X74.074 Y108.266 E3.25942
G1 X73.500 Y108.357 E3.27811
G1 X72.926 Y108.266 E3.29680
G1 X72.409 Y108.003 E3.31549
G1 X71.997 Y107.591 E3.33422
G1 X71.734 Y107.073 E3.35292
G1 X71.644 Y106.500 E3.37159
G1 X71.734 Y105.927 E3.39026
G1 X71.997 Y105.409 E3.40896
G1 X72.409 Y104.997 E3.42769
G1 X72.927 Y104.734 E3.44639
G1 X73.470 Y104.648 E3.46408 F1800.000
G1 X74.070 Y104.732 E3.48359
G1 X74.591 Y104.997 E3.50239
G1 X75.003 Y105.409 E3.52112
G1 X75.266 Y105.926 E3.53981
G1 X75.357 Y106.500 E3.55850
G1 X75.266 Y107.074 E3.57719
G1 X75.003 Y107.591 E3.59587
G1 X74.804 Y107.790 E3.60490
G1 X74.824 Y108.065 F7800.000
G1 X69.600 Y110.400 F7800.000
G1 X69.600 Y99.600 E3.95245 F1800.000
G1 X82.398 Y99.600 E4.36429
G1 X82.398 Y110.400 E4.71184
G1 X69.660 Y110.400 E5.12175
G1 X68.975 Y111.025 F7800.000
G1 X68.975 Y98.975 E5.50951 F1800.000
G1 X83.042 Y98.975 E5.96219
G1 X83.023 Y99.313 E5.97310
G1 X83.023 Y111.025 E6.34997
G1 X69.035 Y111.025 E6.80009
G1 X68.350 Y111.650 F7800.000
G1 X68.350 Y98.350 E7.22807 F1800.000
G1 X83.704 Y98.350 E7.72213
G1 X83.648 Y99.331 E7.75375
G1 X83.648 Y111.650 E8.15016
G1 X68.410 Y111.650 E8.64051
G1 X68.550 Y111.304 F7800.000
G1 E6.64051 F2400.00000
G92 E0
G1 X85.545 Y90.272 F7800.000
G1 E2.00000 F2400.00000
G1 X85.795 Y89.255 E2.03371 F1800.000
G1 X86.450 Y87.239 E2.10193
G1 X87.235 Y85.335 E2.16819
G1 X88.139 Y83.563 E2.23221
G1 X89.152 Y81.938 E2.29383
G1 X90.259 Y80.478 E2.35278
G1 X91.459 Y79.186 E2.40953
G1 X92.704 Y78.100 E2.46269
G1 X94.012 Y77.201 E2.51377
G1 X95.356 Y76.500 E2.56253
G1 X96.725 Y76.002 E2.60942
G1 X98.110 Y75.704 E2.65500
G1 X99.500 Y75.604 E2.69985
G1 X100.878 Y75.703 E2.74431
G1 X102.276 Y76.002 E2.79030
G1 X103.644 Y76.500 E2.83716
G1 X104.988 Y77.201 E2.88593
G1 X106.296 Y78.100 E2.93700
G1 X107.551 Y79.195 E2.99061
G1 X108.740 Y80.478 E3.04689
G1 X109.848 Y81.938 E3.10586
G1 X110.861 Y83.563 E3.16748
G1 X111.765 Y85.335 E3.23151
G1 X112.550 Y87.239 E3.29777
G1 X113.205 Y89.255 E3.36598
G1 X113.455 Y90.272 E3.39969
G1 X113.192 Y90.408 E3.40921
G1 X112.644 Y89.771 E3.43626
G1 X111.507 Y88.693 E3.48667
G1 X110.260 Y87.718 E3.53761
G1 X108.912 Y86.858 E3.58907
G1 X107.478 Y86.118 E3.64099
G1 X105.971 Y85.505 E3.69334
G1 X104.404 Y85.023 E3.74608
G1 X102.794 Y84.676 E3.79909
G1 X101.155 Y84.466 E3.85226
G1 X99.486 Y84.396 E3.90601
G1 X97.844 Y84.467 E3.95890
G1 X96.206 Y84.676 E4.01205
G1 X94.596 Y85.023 E4.06506
G1 X93.029 Y85.505 E4.11780
G1 X91.522 Y86.118 E4.17015
G1 X90.088 Y86.858 E4.22207
G1 X88.740 Y87.718 E4.27353
G1 X87.493 Y88.693 E4.32447
G1 X86.356 Y89.771 E4.37488
G1 X85.808 Y90.408 E4.40193
G1 X85.598 Y90.300 E4.40951
G1 X84.649 Y93.173 F7800.000
G1 X84.349 Y93.069 E4.41973 F1800.000
G1 X84.665 Y91.232 E4.47968
G1 X85.194 Y89.084 E4.55090
G1 X85.864 Y87.023 E4.62062
G1 X86.667 Y85.074 E4.68846
G1 X87.595 Y83.255 E4.75415
G1 X88.637 Y81.583 E4.81756
G1 X89.780 Y80.076 E4.87844
G1 X91.024 Y78.736 E4.93724
G1 X92.321 Y77.606 E4.99261
G1 X93.689 Y76.664 E5.04607
G1 X95.104 Y75.927 E5.09739
G1 X96.552 Y75.400 E5.14698
G1 X98.021 Y75.083 E5.19535
G1 X99.500 Y74.977 E5.24306
G1 X100.966 Y75.083 E5.29037
G1 X102.449 Y75.400 E5.33915
G1 X103.896 Y75.927 E5.38872
G1 X105.311 Y76.664 E5.44004
G1 X106.679 Y77.606 E5.49350
G1 X107.987 Y78.746 E5.54933
G1 X109.219 Y80.076 E5.60767
G1 X110.363 Y81.583 E5.66856
G1 X111.405 Y83.255 E5.73197
G1 X112.333 Y85.074 E5.79766
G1 X113.136 Y87.023 E5.86550
G1 X113.806 Y89.084 E5.93522
G1 X114.335 Y91.232 E6.00644
G1 X114.651 Y93.069 E6.06639
G1 X114.351 Y93.173 E6.07661
G1 X114.002 Y92.536 E6.09999
G1 X113.161 Y91.330 E6.14730
G1 X112.191 Y90.203 E6.19517
G1 X111.099 Y89.167 E6.24360
G1 X109.899 Y88.229 E6.29261
G1 X108.600 Y87.400 E6.34219
G1 X107.216 Y86.687 E6.39229
G1 X105.761 Y86.094 E6.44285
G1 X104.246 Y85.628 E6.49384
G1 X102.689 Y85.292 E6.54512
G1 X101.102 Y85.090 E6.59658
G1 X99.487 Y85.022 E6.64862
G1 X97.897 Y85.090 E6.69981
G1 X96.311 Y85.292 E6.75126
G1 X94.754 Y85.628 E6.80253
G1 X93.239 Y86.094 E6.85352
G1 X91.784 Y86.687 E6.90408
G1 X90.400 Y87.400 E6.95418
G1 X89.101 Y88.229 E7.00376
G1 X87.901 Y89.167 E7.05277
G1 X86.809 Y90.203 E7.10121
G1 X85.839 Y91.330 E7.14907
G1 X84.998 Y92.536 E7.19639
G1 X84.678 Y93.121 E7.21784
G1 X83.694 Y98.165 F7800.000
G1 X83.346 Y98.129 E7.22910 F1800.000
G1 X83.428 Y95.672 E7.30823
G1 X83.664 Y93.365 E7.38283
G1 X84.053 Y91.105 E7.45665
G1 X84.593 Y88.912 E7.52931
G1 X85.277 Y86.807 E7.60054
G1 X86.099 Y84.812 E7.66996
G1 X87.050 Y82.947 E7.73733
G1 X88.122 Y81.228 E7.80252
G1 X89.301 Y79.673 E7.86532
G1 X90.588 Y78.287 E7.92618
G1 X91.937 Y77.111 E7.98377
G1 X93.367 Y76.128 E8.03961
G1 X94.851 Y75.354 E8.09348
G1 X96.378 Y74.798 E8.14577
G1 X97.933 Y74.463 E8.19694
G1 X99.500 Y74.351 E8.24750
G1 X101.055 Y74.462 E8.29766
G1 X102.622 Y74.798 E8.34924
G1 X104.149 Y75.354 E8.40152
G1 X105.633 Y76.128 E8.45539
G1 X107.063 Y77.111 E8.51123
G1 X108.423 Y78.297 E8.56929
G1 X109.699 Y79.673 E8.62968
G1 X110.878 Y81.228 E8.69248
G1 X111.950 Y82.947 E8.75768
G1 X112.901 Y84.812 E8.82504
G1 X113.723 Y86.807 E8.89447
G1 X114.407 Y88.912 E8.96569
G1 X114.947 Y91.105 E9.03836
G1 X115.336 Y93.366 E9.11218
G1 X115.572 Y95.672 E9.18677
G1 X115.654 Y98.129 E9.26590
G1 X115.306 Y98.165 E9.27717
G1 X115.047 Y96.659 E9.32634
G1 X114.666 Y95.351 E9.37016
G1 X114.138 Y94.083 E9.41437
G1 X113.470 Y92.866 E9.45904
G1 X112.667 Y91.713 E9.50425
G1 X111.738 Y90.634 E9.55007
G1 X110.691 Y89.641 E9.59652
G1 X109.537 Y88.740 E9.64361
G1 X108.288 Y87.942 E9.69132
G1 X106.955 Y87.255 E9.73959
G1 X105.551 Y86.683 E9.78836
G1 X104.088 Y86.233 E9.83759
G1 X102.583 Y85.909 E9.88715
G1 X101.050 Y85.713 E9.93690
G1 X99.487 Y85.647 E9.98722
G1 X97.950 Y85.713 E10.03672
G1 X96.417 Y85.909 E10.08646
G1 X94.912 Y86.233 E10.13601
G1 X93.449 Y86.683 E10.18524
G1 X92.045 Y87.255 E10.23402
G1 X90.712 Y87.942 E10.28229
G1 X89.463 Y88.740 E10.32999
G1 X88.309 Y89.641 E10.37708
G1 X87.262 Y90.634 E10.42353
G1 X86.333 Y91.713 E10.46935
G1 X85.530 Y92.866 E10.51457
G1 X84.862 Y94.083 E10.55924
G1 X84.334 Y95.351 E10.60344
G1 X83.953 Y96.659 E10.64727
G1 X83.704 Y98.106 E10.69451
G1 X83.415 Y97.953 F7800.000
G1 E8.69451 F2400.00000
G92 E0
G1 X123.531 Y105.535 F7800.000
G1 E2.00000 F2400.00000
G1 X123.973 Y104.665 E2.03140 F1800.000
G1 X124.675 Y103.963 E2.06337
G1 X125.578 Y103.524 E2.09567
G1 X126.500 Y103.379 E2.12571 F1800.000
G1 X127.463 Y103.530 E2.15707
G1 X128.335 Y103.973 E2.18853
G1 X129.027 Y104.665 E2.22005
G1 X129.469 Y105.535 E2.25145
G1 X129.623 Y106.500 E2.28288
G1 X129.469 Y107.465 E2.31431
G1 X129.027 Y108.334 E2.34571
G1 X128.335 Y109.027 E2.37722
G1 X127.465 Y109.469 E2.40863
G1 X126.500 Y109.623 E2.44006
G1 X125.535 Y109.469 E2.47149
G1 X124.665 Y109.027 E2.50289
G1 X123.973 Y108.335 E2.53440
G1 X123.531 Y107.465 E2.56581
G1 X123.377 Y106.500 E2.59724
G1 X123.521 Y105.595 E2.62674
G1 X124.132 Y105.731 F7800.000
G1 X124.485 Y105.037 E2.65178 F1800.000
G1 X125.043 Y104.479 E2.67718
G1 X125.767 Y104.126 E2.70310
G1 X126.500 Y104.011 E2.72696 F1800.000
G1 X127.268 Y104.132 E2.75198
G1 X127.963 Y104.485 E2.77706
G1 X128.515 Y105.037 E2.80219
G1 X128.868 Y105.731 E2.82723
G1 X128.990 Y106.500 E2.85229
G1 X128.868 Y107.269 E2.87735
G1 X128.515 Y107.963 E2.90239
G1 X127.963 Y108.515 E2.92752
G1 X127.269 Y108.868 E2.95256
G1 X126.500 Y108.990 E2.97762
G1 X125.731 Y108.868 E3.00268
G1 X125.037 Y108.515 E3.02772
G1 X124.485 Y107.963 E3.05285
G1 X124.132 Y107.269 E3.07789
G1 X124.010 Y106.500 E3.10295
G1 X124.123 Y105.790 E3.12608
G1 X124.734 Y105.926 F7800.000
G1 X124.997 Y105.409 E3.14477 F1800.000
G1 X125.411 Y104.995 E3.16360
G1 X125.957 Y104.729 E3.18314
G1 X126.500 Y104.644 E3.20083 F1800.000
G1 X127.073 Y104.734 E3.21950
G1 X127.591 Y104.997 E3.23820
G1 X128.003 Y105.409 E3.25693
G1 X128.266 Y105.926 E3.27562
G1 X128.357 Y106.500 E3.29431
G1 X128.266 Y107.074 E3.31299
G1 X128.003 Y107.591 E3.33168
G1 X127.591 Y108.003 E3.35041
G1 X127.074 Y108.266 E3.36910
G1 X126.500 Y108.357 E3.38779
G1 X125.926 Y108.266 E3.40648
G1 X125.409 Y108.003 E3.42516
G1 X124.997 Y107.591 E3.44389
G1 X124.734 Y107.074 E3.46258
G1 X124.643 Y106.500 E3.48127
G1 X124.725 Y105.986 E3.49803
G1 X124.482 Y105.616 F7800.000
G1 E1.49803 F2400.00000
G92 E0
G1 X130.400 Y110.400 F7800.000
G1 E2.00000 F2400.00000
G1 X116.603 Y110.400 E2.44399 F1800.000
G1 X116.603 Y99.600 E2.79153
G1 X130.400 Y99.600 E3.23552
G1 X130.400 Y110.340 E3.58114
G1 X131.025 Y111.025 F7800.000
G1 X115.978 Y111.025 E4.06534 F1800.000
G1 X115.978 Y99.313 E4.44222
G1 X115.958 Y98.975 E4.45312
G1 X131.025 Y98.975 E4.93795
G1 X131.025 Y110.965 E5.32379
G1 X131.650 Y111.650 F7800.000
G1 X115.353 Y111.650 E5.84821 F1800.000
G1 X115.353 Y99.331 E6.24462
G1 X115.297 Y98.350 E6.27624
G1 X131.650 Y98.350 E6.80247
G1 X131.650 Y111.590 E7.22852
G1 X131.304 Y111.450 F7800.000
G1 X130.022 Y109.365 F7800.000
G1 X129.722 Y109.066 E7.24876 F1800.000
G1 X129.066 Y109.722 E7.29311
G1 X129.365 Y110.022 E7.31335
G1 X128.429 Y109.349 F7800.000
G1 X127.645 Y109.918 E7.34451 F1800.000
G1 X126.512 Y110.013 E7.38112
G1 X125.355 Y109.918 E7.41847
G1 X124.571 Y109.349 E7.44963
G1 X129.349 Y108.429 F7800.000
G1 X129.918 Y107.645 E7.48080 F1800.000
G1 X130.013 Y106.512 E7.51740
G1 X129.918 Y105.355 E7.55476
G1 X129.349 Y104.571 E7.58592
G1 X129.385 Y104.142 F7800.000
G1 X125.222 Y99.978 E7.77866 F1800.000
G1 X126.121 Y99.978 E7.80808
G1 X130.022 Y103.879 E7.98866
G1 X130.022 Y102.980 E8.01808
G1 X127.020 Y99.978 E8.15704
G1 X127.919 Y99.978 E8.18647
G1 X130.022 Y102.081 E8.28382
G1 X130.022 Y101.182 E8.31324
G1 X128.818 Y99.978 E8.36898
G1 X129.717 Y99.978 E8.39840
G1 X130.022 Y100.283 E8.41253
G1 X127.470 Y103.125 F7800.000
G1 X124.323 Y99.978 E8.55821 F1800.000
G1 X123.424 Y99.978 E8.58763
G1 X126.466 Y103.020 E8.72843
G1 X125.689 Y103.142 E8.75417
G1 X122.525 Y99.978 E8.90062
G1 X121.626 Y99.978 E8.93005
G1 X125.055 Y103.407 E9.08876
G1 X124.465 Y103.716 E9.11056
G1 X120.727 Y99.978 E9.28358
G1 X119.828 Y99.978 E9.31301
G1 X124.015 Y104.165 E9.50683
G1 X123.605 Y104.654 E9.52772
G1 X118.929 Y99.978 E9.74417
G1 X118.030 Y99.978 E9.77360
G1 X123.302 Y105.250 E10.01764
G1 X123.101 Y105.948 E10.04141
G1 X117.131 Y99.978 E10.31776
G1 X116.981 Y100.727 E10.34275
G1 X123.012 Y106.758 E10.62192
G1 X123.232 Y107.877 E10.65926
G1 X116.981 Y101.626 E10.94863
G1 X116.981 Y102.525 E10.97805
