; generated by Slic3r 1.2.9 on 2019-07-11 at 12:41:09

; external perimeters extrusion width = 0.40mm
; perimeters extrusion width = 0.48mm
; infill extrusion width = 0.48mm
; solid infill extrusion width = 0.48mm
; top infill extrusion width = 0.48mm
; support material extrusion width = 0.40mm

M107
M190 S65 ; set bed temperature
M104 S200 ; set temperature
G28 ; home all axes
G1 Z5 F5000 ; lift nozzle

M109 S200 ; wait for temperature to be reached
G21 ; set units to millimeters
G90 ; use absolute coordinates
M82 ; use absolute distances for extrusion
G92 E0
G1 Z0.350 F7800.000
G1 E-2.00000 F2400.00000
G92 E0
G1 X62.915 Y53.753 F7800.000
G1 E2.00000 F2400.00000
G1 X64.668 Y52.274 E2.07380 F1800.000
G1 X66.820 Y51.481 E2.14760
G1 X68.000 Y51.375 E2.18572
G1 X132.000 Y51.375 E4.24517
G1 X134.259 Y51.772 E4.31897
G1 X136.247 Y52.915 E4.39277 F1800.000
G1 X137.726 Y54.668 E4.46658
G1 X138.519 Y56.820 E4.54038
G1 X138.625 Y58.000 E4.57849
G1 X138.617 Y110.325 E6.26225
G1 X138.463 Y113.462 E6.36332
G1 X138.399 Y114.110 E6.38426
G1 X137.938 Y117.216 E6.48531
G1 X137.811 Y117.853 E6.50621
G1 X137.048 Y120.899 E6.60726
G1 X136.860 Y121.521 E6.62817
G1 X135.802 Y124.478 E6.72924
G1 X135.553 Y125.079 E6.75017
G1 X134.210 Y127.918 E6.85124
G1 X133.904 Y128.491 E6.87213
G1 X132.289 Y131.184 E6.97316
G1 X131.928 Y131.724 E6.99408
G1 X130.057 Y134.247 E7.09516
G1 X129.644 Y134.751 E7.11613
G1 X127.535 Y137.077 E7.21716
G1 X127.077 Y137.535 E7.23800
G1 X124.751 Y139.644 E7.33904
G1 X124.247 Y140.057 E7.36001
G1 X121.724 Y141.928 E7.46108
G1 X121.184 Y142.289 E7.48200
G1 X118.491 Y143.903 E7.58303
G1 X117.918 Y144.210 E7.60393
G1 X115.079 Y145.553 E7.70499
G1 X114.478 Y145.802 E7.72593
G1 X111.521 Y146.860 E7.82699
G1 X110.899 Y147.048 E7.84791
G1 X107.853 Y147.811 E7.94895
G1 X107.216 Y147.938 E7.96986
G1 X104.109 Y148.399 E8.07091
G1 X103.462 Y148.463 E8.09185
G1 X100.325 Y148.617 E8.19291
G1 X99.227 Y148.614 E8.22825
G1 X96.491 Y148.460 E8.31643
G1 X95.890 Y148.399 E8.33585
G1 X92.784 Y147.938 E8.43689
G1 X92.147 Y147.811 E8.45780
G1 X89.101 Y147.048 E8.55884
G1 X88.480 Y146.860 E8.57975
G1 X85.522 Y145.802 E8.68082
G1 X84.921 Y145.553 E8.70176
G1 X82.082 Y144.210 E8.80282
G1 X81.509 Y143.903 E8.82372
G1 X78.816 Y142.289 E8.92475
G1 X78.276 Y141.928 E8.94567
G1 X75.753 Y140.057 E9.04674
G1 X75.249 Y139.644 E9.06771
G1 X72.923 Y137.535 E9.16875
G1 X72.465 Y137.077 E9.18959
G1 X70.356 Y134.751 E9.29062
G1 X69.943 Y134.247 E9.31159
G1 X68.072 Y131.724 E9.41267
G1 X67.711 Y131.185 E9.43353
G1 X66.096 Y128.492 E9.53458
G1 X65.789 Y127.916 E9.55559
G1 X64.447 Y125.077 E9.65664
G1 X64.198 Y124.478 E9.67752
G1 X63.140 Y121.521 E9.77858
G1 X62.952 Y120.899 E9.79950
G1 X62.189 Y117.853 E9.90054
G1 X62.062 Y117.216 E9.92145
G1 X61.601 Y114.110 E10.02249
G1 X61.537 Y113.462 E10.04343
G1 X61.375 Y110.000 E10.15495
G1 X61.375 Y58.000 E11.82826
G1 X61.772 Y55.741 E11.90206
G1 X62.886 Y53.805 E11.97393
G1 E9.97393 F2400.00000
G92 E0
G1 X130.353 Y104.352 F7800.000
G1 E2.00000 F2400.00000
G1 X126.869 Y104.352 E2.11211 F1800.000
G1 X126.844 Y104.701 E2.12335
G1 X127.071 Y104.733 E2.13071
G1 X127.591 Y104.997 E2.14949
G1 X128.003 Y105.409 E2.16823
G1 X128.266 Y105.927 E2.18693
G1 X128.356 Y106.500 E2.20560
G1 X128.266 Y107.073 E2.22427
G1 X128.003 Y107.591 E2.24297
G1 X127.591 Y108.003 E2.26170
G1 X127.073 Y108.266 E2.28040
G1 X126.500 Y108.356 E2.29907
G1 X125.927 Y108.266 E2.31774
G1 X125.409 Y108.003 E2.33644
G1 X124.997 Y107.591 E2.35517
G1 X124.734 Y107.074 E2.37386
G1 X124.643 Y106.500 E2.39255
G1 X124.734 Y105.926 E2.41123
G1 X124.997 Y105.409 E2.42992
G1 X125.409 Y104.997 E2.44865
G1 X125.926 Y104.734 E2.46734
G1 X126.157 Y104.697 E2.47484
G1 X126.129 Y104.352 E2.48599
G1 X125.648 Y104.352 E2.50148
G1 X125.648 Y59.647 E3.94004
G1 X130.353 Y59.647 E4.09145
G1 X130.353 Y104.292 E5.52808
G1 X130.353 Y104.752 F7800.000
G1 E3.52808 F2400.00000
G92 E0
G1 X104.672 Y129.424 F7800.000
G1 E2.00000 F2400.00000
G1 X105.243 Y130.168 E2.03019 F1800.000
G1 X105.691 Y130.992 E2.06037
G1 X106.005 Y131.877 E2.09059
G1 X106.176 Y132.800 E2.12080
G1 X106.200 Y133.738 E2.15100
G1 X106.078 Y134.668 E2.18118
G1 X105.811 Y135.567 E2.21136
G1 X105.407 Y136.415 E2.24157
G1 X104.875 Y137.189 E2.27178
G1 X104.229 Y137.869 E2.30196
G1 X103.485 Y138.440 E2.33217
G1 X102.661 Y138.887 E2.36233
G1 X101.776 Y139.201 E2.39253
G1 X100.853 Y139.371 E2.42272
G1 X99.915 Y139.397 E2.45294
G1 X98.984 Y139.273 E2.48315
G1 X98.086 Y139.007 E2.51329
G1 X97.238 Y138.604 E2.54349
G1 X96.464 Y138.072 E2.57372
G1 X95.784 Y137.426 E2.60390
G1 X95.211 Y136.679 E2.63419
G1 X94.756 Y135.830 E2.66521
G1 X94.452 Y134.972 E2.69448
G1 X94.282 Y134.051 E2.72464
G1 X94.256 Y133.112 E2.75486
G1 X94.380 Y132.181 E2.78506
G1 X94.646 Y131.281 E2.81527
G1 X95.050 Y130.435 E2.84544
G1 X95.581 Y129.662 E2.87562
G1 X96.227 Y128.981 E2.90582
G1 X96.971 Y128.410 E2.93602
G1 X97.796 Y127.962 E2.96622
G1 X98.681 Y127.648 E2.99643
G1 X99.603 Y127.477 E3.02661
G1 X100.512 Y127.454 E3.05587 F1800.000
G1 X101.469 Y127.575 E3.08689
G1 X102.372 Y127.842 E3.11720
G1 X103.218 Y128.246 E3.14739
G1 X103.992 Y128.778 E3.17759
G1 X104.628 Y129.382 E3.20583
G1 X104.206 Y129.843 F7800.000
G1 X104.717 Y130.510 E3.23287 F1800.000
G1 X105.119 Y131.247 E3.25989
G1 X105.399 Y132.039 E3.28693
G1 X105.552 Y132.865 E3.31397
G1 X105.574 Y133.705 E3.34100
G1 X105.464 Y134.538 E3.36802
G1 X105.226 Y135.343 E3.39504
G1 X104.864 Y136.102 E3.42209
G1 X104.388 Y136.794 E3.44913
G1 X103.810 Y137.403 E3.47614
G1 X103.143 Y137.914 E3.50318
G1 X102.406 Y138.315 E3.53018
G1 X101.614 Y138.595 E3.55722
G1 X100.788 Y138.748 E3.58425
G1 X99.948 Y138.771 E3.61130
G1 X99.115 Y138.660 E3.63833
G1 X98.310 Y138.422 E3.66533
G1 X97.552 Y138.061 E3.69236
G1 X96.859 Y137.585 E3.71941
G1 X96.250 Y137.007 E3.74643
G1 X95.738 Y136.339 E3.77350
G1 X95.329 Y135.576 E3.80136
G1 X95.058 Y134.810 E3.82752
G1 X94.905 Y133.985 E3.85452
G1 X94.882 Y133.145 E3.88157
G1 X94.993 Y132.312 E3.90860
G1 X95.231 Y131.506 E3.93564
G1 X95.593 Y130.749 E3.96266
G1 X96.068 Y130.056 E3.98968
G1 X96.646 Y129.447 E4.01670
G1 X97.313 Y128.936 E4.04374
G1 X98.051 Y128.534 E4.07078
G1 X98.843 Y128.254 E4.09782
G1 X99.668 Y128.101 E4.12482
G1 X100.481 Y128.080 E4.15098 F1800.000
G1 X101.340 Y128.188 E4.17884
G1 X102.147 Y128.427 E4.20592
G1 X102.905 Y128.789 E4.23294
G1 X103.597 Y129.265 E4.25998
G1 X104.162 Y129.802 E4.28506
G1 X104.599 Y129.770 F7800.000
G1 X74.463 Y66.470 F7800.000
G1 X73.500 Y66.621 E4.31643 F1800.000
G1 X72.537 Y66.470 E4.34780
G1 X71.665 Y66.027 E4.37926
G1 X70.973 Y65.335 E4.41077
G1 X70.531 Y64.465 E4.44218
G1 X70.377 Y63.500 E4.47361
G1 X70.531 Y62.535 E4.50504
G1 X70.973 Y61.665 E4.53644
G1 X71.665 Y60.973 E4.56795
G1 X72.535 Y60.531 E4.59936
G1 X73.439 Y60.387 E4.62880 F1800.000
G1 X74.446 Y60.521 E4.66150
G1 X75.335 Y60.973 E4.69356
G1 X76.027 Y61.665 E4.72508
G1 X76.469 Y62.535 E4.75648
G1 X76.623 Y63.500 E4.78791
G1 X76.469 Y64.465 E4.81934
G1 X76.027 Y65.335 E4.85074
G1 X75.335 Y66.027 E4.88225
G1 X74.516 Y66.443 E4.91178
G1 X74.268 Y65.868 F7800.000
G1 X73.500 Y65.989 E4.93680 F1800.000
G1 X72.732 Y65.868 E4.96182
G1 X72.037 Y65.515 E4.98690
G1 X71.485 Y64.963 E5.01203
G1 X71.132 Y64.269 E5.03707
G1 X71.010 Y63.500 E5.06213
G1 X71.132 Y62.731 E5.08719
G1 X71.485 Y62.037 E5.11223
G1 X72.037 Y61.485 E5.13736
G1 X72.731 Y61.132 E5.16240
G1 X73.447 Y61.018 E5.18573 F1800.000
G1 X74.258 Y61.127 E5.21206
G1 X74.963 Y61.485 E5.23751
G1 X75.515 Y62.037 E5.26263
G1 X75.868 Y62.731 E5.28767
G1 X75.990 Y63.500 E5.31273
G1 X75.868 Y64.269 E5.33779
G1 X75.515 Y64.963 E5.36284
G1 X74.963 Y65.515 E5.38796
G1 X74.322 Y65.841 E5.41111
G1 X74.073 Y65.266 F7800.000
G1 X73.500 Y65.356 E5.42978 F1800.000
G1 X72.927 Y65.266 E5.44845
G1 X72.409 Y65.003 E5.46715
G1 X71.997 Y64.591 E5.48588
G1 X71.734 Y64.074 E5.50457
G1 X71.643 Y63.500 E5.52326
G1 X71.734 Y62.926 E5.54194
G1 X71.997 Y62.409 E5.56063
G1 X72.409 Y61.997 E5.57936
G1 X72.926 Y61.734 E5.59805
G1 X73.455 Y61.650 E5.61527 F1800.000
G1 X74.069 Y61.732 E5.63522
G1 X74.591 Y61.997 E5.65405
G1 X75.003 Y62.409 E5.67279
G1 X75.266 Y62.926 E5.69147
G1 X75.357 Y63.500 E5.71016
G1 X75.266 Y64.074 E5.72885
G1 X75.003 Y64.591 E5.74754
G1 X74.591 Y65.003 E5.76627
G1 X74.127 Y65.239 E5.78304
G1 X73.969 Y65.652 F7800.000
G1 E3.78304 F2400.00000
G92 E0
G1 X69.600 Y59.600 F7800.000
G1 E2.00000 F2400.00000
G1 X124.398 Y59.600 E3.76336 F1800.000
G1 X124.398 Y104.240 E5.19984
G1 X123.973 Y104.665 E5.21919
G1 X123.531 Y105.535 E5.25060
G1 X123.377 Y106.500 E5.28203
G1 X123.531 Y107.465 E5.31346
G1 X123.973 Y108.335 E5.34486
G1 X124.665 Y109.027 E5.37637
G1 X125.537 Y109.470 E5.40783
G1 X126.500 Y109.621 E5.43920
G1 X127.463 Y109.470 E5.47057
G1 X128.335 Y109.027 E5.50203
G1 X129.027 Y108.335 E5.53354
G1 X129.470 Y107.463 E5.56500
G1 X129.621 Y106.500 E5.59637
G1 X129.480 Y105.602 E5.62563
G1 X130.400 Y105.602 E5.65524
G1 X130.400 Y109.961 E5.79550
G1 X130.252 Y112.980 E5.89278
G1 X129.814 Y115.930 E5.98876
G1 X129.089 Y118.824 E6.08475
G1 X128.084 Y121.633 E6.18075
G1 X126.808 Y124.330 E6.27675
G1 X125.275 Y126.888 E6.37273
G1 X123.498 Y129.285 E6.46874
G1 X121.494 Y131.494 E6.56472
G1 X119.285 Y133.498 E6.66070
G1 X116.888 Y135.275 E6.75671
G1 X114.330 Y136.808 E6.85269
G1 X111.633 Y138.084 E6.94869
G1 X108.824 Y139.089 E7.04469
G1 X105.930 Y139.814 E7.14068
G1 X102.980 Y140.252 E7.23667
G1 X100.900 Y140.354 E7.30367
G1 X100.860 Y140.006 E7.31495
G1 X101.938 Y139.806 E7.35025
G1 X102.916 Y139.460 E7.38361
G1 X103.826 Y138.966 E7.41694
G1 X104.649 Y138.335 E7.45032
G1 X105.362 Y137.583 E7.48365
G1 X105.950 Y136.728 E7.51703
G1 X106.396 Y135.792 E7.55041
G1 X106.691 Y134.798 E7.58376
G1 X106.825 Y133.771 E7.61711
G1 X106.799 Y132.735 E7.65046
G1 X106.610 Y131.715 E7.68384
G1 X106.264 Y130.737 E7.71724
G1 X105.768 Y129.826 E7.75058
G1 X105.138 Y129.004 E7.78393
G1 X104.386 Y128.291 E7.81727
G1 X103.532 Y127.704 E7.85063
G1 X102.596 Y127.257 E7.88399
G1 X101.597 Y126.961 E7.91752
G1 X100.543 Y126.828 E7.95170
G1 X99.538 Y126.854 E7.98407
G1 X98.519 Y127.043 E8.01742
G1 X97.541 Y127.389 E8.05079
G1 X96.630 Y127.884 E8.08417
G1 X95.807 Y128.515 E8.11753
G1 X95.094 Y129.267 E8.15089
G1 X94.507 Y130.122 E8.18424
G1 X94.061 Y131.057 E8.21757
G1 X93.766 Y132.051 E8.25093
G1 X93.630 Y133.079 E8.28430
G1 X93.658 Y134.116 E8.31770
G1 X93.847 Y135.134 E8.35102
G1 X94.183 Y136.083 E8.38339
G1 X94.684 Y137.019 E8.41758
G1 X95.318 Y137.846 E8.45110
G1 X96.070 Y138.559 E8.48444
G1 X96.925 Y139.147 E8.51785
G1 X97.862 Y139.592 E8.55121
G1 X98.854 Y139.886 E8.58450
G1 X99.882 Y140.023 E8.61788
G1 X100.343 Y140.010 E8.63272
G1 X100.357 Y140.381 E8.64465
G1 X100.000 Y140.398 E8.65614
G1 X97.020 Y140.252 E8.75215
G1 X94.070 Y139.814 E8.84814
G1 X91.176 Y139.089 E8.94412
G1 X88.367 Y138.084 E9.04013
G1 X85.670 Y136.808 E9.13613
G1 X83.112 Y135.275 E9.23211
G1 X80.715 Y133.498 E9.32812
G1 X78.506 Y131.494 E9.42410
G1 X76.502 Y129.285 E9.52008
G1 X74.725 Y126.888 E9.61610
G1 X73.191 Y124.330 E9.71208
G1 X71.916 Y121.633 E9.80806
G1 X70.911 Y118.824 E9.90407
G1 X70.186 Y115.930 E10.00006
G1 X69.748 Y112.980 E10.09605
G1 X69.600 Y109.961 E10.19332
G1 X69.600 Y59.660 E11.81195
G1 X68.975 Y58.975 F7800.000
G1 X125.023 Y58.975 E13.61553 F1800.000
G1 X125.023 Y104.499 E15.08045
G1 X124.485 Y105.037 E15.10493
G1 X124.132 Y105.731 E15.12998
G1 X124.010 Y106.500 E15.15504
G1 X124.132 Y107.269 E15.18010
G1 X124.485 Y107.963 E15.20514
G1 X125.037 Y108.515 E15.23026
G1 X125.732 Y108.868 E15.25534
G1 X126.500 Y108.989 E15.28036
G1 X127.268 Y108.868 E15.30538
G1 X127.963 Y108.515 E15.33046
G1 X128.515 Y107.963 E15.35558
G1 X128.868 Y107.268 E15.38066
G1 X128.989 Y106.500 E15.40568
G1 X128.868 Y105.732 E15.43070
G1 X128.484 Y104.977 E15.45796
G1 X131.025 Y104.977 E15.53972
G1 X131.025 Y109.976 E15.70059
G1 X130.875 Y113.041 E15.79935
G1 X130.428 Y116.053 E15.89731
G1 X129.688 Y119.006 E15.99527
G1 X128.662 Y121.872 E16.09325
G1 X127.360 Y124.625 E16.19123
G1 X125.795 Y127.236 E16.28918
G1 X123.982 Y129.682 E16.38717
G1 X121.937 Y131.937 E16.48512
G1 X119.682 Y133.982 E16.58308
G1 X117.236 Y135.795 E16.68107
G1 X114.625 Y137.360 E16.77901
G1 X111.872 Y138.662 E16.87699
G1 X109.006 Y139.688 E16.97497
G1 X106.053 Y140.428 E17.07294
G1 X103.041 Y140.875 E17.17090
G1 X100.000 Y141.024 E17.26888
G1 X96.959 Y140.875 E17.36686
G1 X93.947 Y140.428 E17.46482
G1 X90.994 Y139.688 E17.56279
G1 X88.128 Y138.662 E17.66077
G1 X85.375 Y137.360 E17.75875
G1 X82.764 Y135.795 E17.85670
G1 X80.318 Y133.982 E17.95469
G1 X78.063 Y131.937 E18.05264
G1 X76.018 Y129.682 E18.15059
G1 X74.205 Y127.236 E18.24859
G1 X72.639 Y124.625 E18.34655
G1 X71.338 Y121.873 E18.44451
G1 X70.312 Y119.006 E18.54249
G1 X69.572 Y116.053 E18.64046
G1 X69.125 Y113.041 E18.73842
G1 X68.975 Y109.976 E18.83717
G1 X68.975 Y59.035 E20.47641
G1 X68.350 Y58.350 F7800.000
G1 X131.650 Y58.350 E22.51334 F1800.000
G1 X131.650 Y109.991 E24.17510
G1 X131.497 Y113.103 E24.27534
G1 X131.041 Y116.175 E24.37528
G1 X130.287 Y119.187 E24.47522
G1 X129.240 Y122.112 E24.57517
G1 X127.912 Y124.920 E24.67513
G1 X126.316 Y127.583 E24.77505
G1 X124.465 Y130.079 E24.87502
G1 X122.379 Y132.379 E24.97495
G1 X120.079 Y134.465 E25.07487
G1 X117.583 Y136.316 E25.17484
G1 X114.920 Y137.912 E25.27477
G1 X112.112 Y139.240 E25.37472
G1 X109.187 Y140.287 E25.47468
G1 X106.175 Y141.041 E25.57462
G1 X103.103 Y141.497 E25.67455
G1 X100.000 Y141.650 E25.77451
G1 X99.618 Y141.646 E25.78682
G1 X99.524 Y141.626 E25.78990
G1 X96.897 Y141.497 E25.87452
G1 X93.825 Y141.041 E25.97446
G1 X90.813 Y140.287 E26.07440
G1 X87.888 Y139.240 E26.17435
G1 X85.080 Y137.912 E26.27431
G1 X82.417 Y136.316 E26.37423
G1 X79.921 Y134.465 E26.47420
G1 X77.621 Y132.379 E26.57413
G1 X75.535 Y130.079 E26.67406
G1 X73.684 Y127.583 E26.77402
G1 X72.087 Y124.920 E26.87396
G1 X70.760 Y122.112 E26.97390
G1 X69.713 Y119.187 E27.07386
G1 X68.959 Y116.175 E27.17380
G1 X68.503 Y113.103 E27.27373
G1 X68.350 Y109.991 E27.37397
G1 X68.350 Y58.410 E29.03381
G1 X68.696 Y58.550 F7800.000
G1 X70.278 Y60.934 F7800.000
G1 X69.978 Y60.635 E29.05405 F1800.000
G1 X70.635 Y59.978 E29.09840
G1 X70.934 Y60.278 E29.11863
G1 X71.571 Y60.651 F7800.000
G1 X72.355 Y60.082 E29.14980 F1800.000
G1 X73.446 Y59.992 E29.18502
G1 X74.645 Y60.082 E29.22373
G1 X75.429 Y60.651 E29.25489
G1 X70.651 Y61.571 F7800.000
G1 X70.082 Y62.355 E29.28606 F1800.000
G1 X69.987 Y63.512 E29.32341
G1 X70.082 Y64.645 E29.36002
G1 X70.651 Y65.429 E29.39118
G1 X70.421 Y65.999 F7800.000
G1 X127.181 Y122.759 E31.97881 F1800.000
G1 X126.897 Y123.360 E32.00024
G1 X69.978 Y66.442 E34.59507
G1 X69.978 Y67.327 E34.62360
G1 X126.613 Y123.961 E37.20547
G1 X126.301 Y124.535 E37.22652
G1 X69.978 Y68.213 E39.79420
G1 X69.978 Y69.098 E39.82273
G1 X125.970 Y125.089 E42.37529
G1 X125.638 Y125.643 E42.39609
G1 X69.978 Y69.983 E44.93352
G1 X69.978 Y70.868 E44.96206
G1 X125.306 Y126.196 E47.48436
G1 X124.973 Y126.749 E47.50515
G1 X69.978 Y71.754 E50.01229
G1 X69.978 Y72.639 E50.04082
G1 X124.596 Y127.257 E52.53077
G1 X124.219 Y127.765 E52.55117
G1 X69.978 Y73.524 E55.02393
G1 X69.978 Y74.410 E55.05247
G1 X123.842 Y128.274 E57.50805
G1 X123.465 Y128.782 E57.52845
G1 X69.978 Y75.295 E59.96684
G1 X69.978 Y76.180 E59.99538
G1 X123.071 Y129.273 E62.41580
G1 X122.650 Y129.737 E62.43601
G1 X69.978 Y77.065 E64.83724
G1 X69.978 Y77.951 E64.86578
G1 X122.229 Y130.202 E67.24782
G1 X121.808 Y130.666 E67.26802
G1 X69.978 Y78.836 E69.63087
G1 X69.978 Y79.721 E69.65941
G1 X121.379 Y131.122 E72.00271
G1 X120.936 Y131.564 E72.02289
G1 X69.978 Y80.607 E74.34595
G1 X69.978 Y81.492 E74.37449
G1 X120.471 Y131.985 E76.67639
G1 X120.007 Y132.406 E76.69659
G1 X69.978 Y82.377 E78.97732
G1 X69.978 Y83.262 E79.00586
G1 X119.543 Y132.827 E81.26542
G1 X119.077 Y133.246 E81.28563
G1 X69.978 Y84.148 E83.52396
G1 X69.978 Y85.033 E83.55250
G1 X118.569 Y133.623 E85.76766
G1 X118.060 Y134.000 E85.78806
G1 X69.978 Y85.918 E87.98005
G1 X69.978 Y86.804 E88.00859
G1 X117.552 Y134.377 E90.17740
G1 X117.044 Y134.754 E90.19780
G1 X69.978 Y87.689 E92.34344
