; generated by Slic3r 1.2.9 on 2019-09-29 at 13:26:13

; external perimeters extrusion width = 0.40mm
; perimeters extrusion width = 0.48mm
; infill extrusion width = 0.48mm
; solid infill extrusion width = 0.48mm
; top infill extrusion width = 0.48mm
; support material extrusion width = 0.40mm

M107
M190 S65 ; set bed temperature
M104 S200 ; set temperature
G28 ; home all axes
G1 Z5 F5000 ; lift nozzle

M109 S200 ; wait for temperature to be reached
G21 ; set units to millimeters
G90 ; use absolute coordinates
M82 ; use absolute distances for extrusion
G92 E0
G1 Z0.350 F7800.000
G1 E-2.00000 F2400.00000
G92 E0
G1 X91.327 Y62.844 F7800.000
G1 E2.00000 F2400.00000
G1 X92.694 Y61.002 E2.07380 F1800.000
G1 X94.607 Y59.737 E2.14760
G1 X97.250 Y59.188 E2.23446
G1 X101.444 Y59.188 E2.36942
G1 X103.702 Y59.584 E2.44322
G1 X105.691 Y60.728 E2.51702 F1800.000
G1 X107.332 Y62.776 E2.60146
G1 X117.976 Y83.429 E3.34915
G1 X118.699 Y86.417 E3.44806
G1 X118.709 Y89.247 E3.53912
G1 X118.655 Y97.973 E3.81992
G1 X118.096 Y110.245 E4.21525
G1 X117.541 Y112.614 E4.29353
G1 X107.427 Y135.582 E5.10111
G1 X106.648 Y137.156 E5.15763
G1 X105.281 Y138.998 E5.23143
G1 X103.368 Y140.263 E5.30523
G1 X100.725 Y140.812 E5.39209
G1 X97.929 Y140.812 E5.48206
G1 X95.731 Y140.437 E5.55383
G1 X94.542 Y140.019 E5.59437
G1 X92.543 Y138.895 E5.66817
G1 X91.047 Y137.157 E5.74197
G1 X90.233 Y135.012 E5.81577
G1 X90.116 Y133.743 E5.85680
G1 X90.388 Y66.259 E8.02839
G1 X91.090 Y63.317 E8.12571
G1 X91.300 Y62.898 E8.14080
G1 E6.14080 F2400.00000
G92 E0
G1 X99.682 Y130.900 F7800.000
G1 E2.00000 F2400.00000
G1 X99.284 Y130.900 E2.01278 F1800.000
G1 X99.284 Y69.100 E4.00146
G1 X99.682 Y69.100 E4.01424
G1 X99.682 Y130.840 E6.00099
G1 X100.306 Y131.525 F7800.000
G1 X98.659 Y131.525 E6.05399 F1800.000
G1 X98.659 Y68.475 E8.08288
G1 X100.306 Y68.475 E8.13588
G1 X100.306 Y131.465 E10.16284
G1 X100.931 Y132.150 F7800.000
G1 X98.034 Y132.150 E10.25606 F1800.000
G1 X98.034 Y67.850 E12.32517
G1 X100.931 Y67.850 E12.41838
G1 X100.931 Y132.090 E14.48556
G1 X100.585 Y131.950 F7800.000
G1 Z0.350 F7800.000
G1 E12.48556 F2400.00000
G92 E0
G1 X100.725 Y134.188 F7800.000
G1 E2.00000 F2400.00000
G1 X101.364 Y132.912 E2.04590 F1800.000
G1 X99.966 Y132.912 E2.09088
G1 X99.327 Y134.188 E2.13678
G1 X97.929 Y134.188 E2.18177
G1 X98.568 Y132.912 E2.22767
G1 X97.170 Y132.912 E2.27265
G1 X96.741 Y133.770 E2.30350
G1 E0.30350 F2400.00000
G92 E0
G1 X107.676 Y114.741 F7800.000
G1 E2.00000 F2400.00000
G1 X110.368 Y109.370 E2.19332 F1800.000
G1 X111.478 Y109.944 F7800.000
G1 X110.974 Y110.949 E2.22950 F1800.000
G1 E0.22950 F2400.00000
G92 E0
G1 X109.959 Y112.975 F7800.000
G1 E2.00000 F2400.00000
G1 X109.100 Y114.689 E2.06170 F1800.000
G1 E0.06170 F2400.00000
G92 E0
G1 X105.316 Y111.081 F7800.000
G1 E2.00000 F2400.00000
G1 X107.441 Y106.842 E2.15260 F1800.000
G1 X108.686 Y107.147 F7800.000
G1 X105.725 Y113.055 E2.36526 F1800.000
G1 X106.258 Y114.780 E2.42335
G1 X110.376 Y106.565 E2.71904
G1 E0.71904 F2400.00000
G92 E0
G1 X109.050 Y100.842 F7800.000
G1 E2.00000 F2400.00000
G1 X109.733 Y99.479 E2.04907 F1800.000
G1 X109.719 Y96.718 E2.13789
G1 X107.416 Y101.314 E2.30330
G1 X106.808 Y99.737 E2.35767
G1 X108.812 Y95.739 E2.50159
G1 X107.414 Y95.739 F7800.000
G1 X106.806 Y96.953 E2.54530 F1800.000
G1 E0.54530 F2400.00000
G92 E0
G1 X111.214 Y99.314 F7800.000
G1 E2.00000 F2400.00000
G1 X112.037 Y97.671 E2.05912 F1800.000
G1 X110.481 Y97.986 E2.11020
G1 X111.865 Y95.225 E2.20959
G1 E0.20959 F2400.00000
G92 E0
G1 X111.606 Y90.164 F7800.000
G1 E2.00000 F2400.00000
G1 X112.084 Y89.210 E2.03434 F1800.000
G1 X110.891 Y88.801 E2.07493
G1 X112.075 Y86.440 E2.15990
G1 X111.369 Y85.058 E2.20984
G1 X109.946 Y87.899 E2.31209
G1 E0.31209 F2400.00000
G92 E0
G1 X107.893 Y86.416 F7800.000
G1 E2.00000 F2400.00000
G1 X106.473 Y89.248 E2.10196 F1800.000
G1 X106.575 Y91.835 E2.18525
G1 X109.105 Y86.786 E2.36699
G1 X109.487 Y88.814 E2.43340
G1 X107.971 Y91.838 E2.54223
G1 E0.54223 F2400.00000
G92 E0
G1 X100.805 Y67.088 F7800.000
G1 E2.00000 F2400.00000
G1 X101.444 Y65.812 E2.04590 F1800.000
G1 X100.046 Y65.812 E2.09088
G1 X99.407 Y67.088 E2.13678
G1 X98.009 Y67.088 E2.18177
G1 X98.648 Y65.812 E2.22767
G1 X97.250 Y65.812 E2.27265
G1 X97.013 Y66.285 E2.28967
G1 Z0.500 F7800.000
G1 X98.945 Y66.900 F7800.000
G1 X98.945 Y66.000 E2.29698 F3600.000
G1 X97.098 Y66.000 E2.31197
G1 X97.246 Y66.900 E2.31938
G1 X98.945 Y66.900 E2.33316
G1 E0.33316 F2400.00000
G92 E0
G1 X109.385 Y87.085 F7800.000
G1 E2.00000 F2400.00000
G1 X107.203 Y86.419 E2.01852 F3600.000
G1 X106.576 Y87.352 E2.02764
G1 X106.578 Y90.650 E2.05441
G1 X109.384 Y90.650 E2.07719
G1 X109.385 Y87.085 E2.10613
G1 X109.017 Y87.357 F7800.000
G1 X108.979 Y87.346 E2.10644 F3600.000
G1 X108.821 Y87.620 E2.10901
G1 X106.944 Y87.620 E2.12425
G1 X106.944 Y87.956 E2.12698
G1 X108.821 Y87.956 E2.14221
G1 X109.016 Y88.294 E2.14539
G1 X109.017 Y87.357 E2.15299
G1 E0.15299 F2400.00000
G92 E0
G1 X111.605 Y87.951 F7800.000
G1 E2.00000 F2400.00000
G1 X111.601 Y85.612 E2.01899 F3600.000
G1 X110.417 Y85.616 E2.02860
G1 X110.417 Y87.696 E2.04548
G1 X111.356 Y87.696 E2.05310
G1 X111.350 Y88.432 E2.05908
G1 X111.399 Y88.470 E2.05958
G1 X111.394 Y89.092 E2.06463
G1 X111.422 Y89.096 E2.06486
G1 X111.422 Y89.611 E2.06904
G1 X111.614 Y89.609 E2.07060
G1 X111.605 Y87.951 E2.08406
G1 X111.973 Y87.950 F7800.000
G1 X111.968 Y85.243 E2.10603 F3600.000
G1 X110.050 Y85.250 E2.12161
G1 X110.050 Y88.064 E2.14445
G1 X110.985 Y88.064 E2.15204
G1 X110.981 Y88.612 E2.15650
G1 X111.030 Y88.650 E2.15700
G1 X111.022 Y89.414 E2.16320
G1 X111.054 Y89.418 E2.16346
G1 X111.054 Y89.983 E2.16805
G1 X111.983 Y89.974 E2.17559
G1 X111.973 Y87.950 E2.19202
G1 E0.19202 F2400.00000
G92 E0
G1 X107.094 Y92.391 F7800.000
G1 E2.00000 F2400.00000
G1 X107.620 Y92.250 E2.00442 F3600.000
G1 X107.014 Y92.250 E2.00933
G1 X107.094 Y92.391 E2.01065
G1 E0.01065 F2400.00000
G92 E0
G1 X107.483 Y96.601 F7800.000
G1 E2.00000 F2400.00000
G1 X107.483 Y95.926 E2.00548 F3600.000
G1 X106.909 Y95.926 E2.01014
G1 X106.913 Y100.386 E2.04634
G1 X106.964 Y100.450 E2.04701
G1 X109.633 Y100.450 E2.06867
G1 X109.610 Y95.926 E2.10539
G1 X108.285 Y95.926 E2.11614
G1 X108.286 Y97.026 E2.12507
G1 X107.507 Y97.026 E2.13139
G1 X107.483 Y96.601 E2.13485
G1 E0.13485 F2400.00000
G92 E0
G1 X109.256 Y98.445 F7800.000
G1 E2.00000 F2400.00000
G1 X109.254 Y98.212 E2.00189 F3600.000
G1 X108.821 Y98.963 E2.00892
G1 X107.279 Y98.963 E2.02144
G1 X107.279 Y99.298 E2.02416
G1 X108.821 Y99.298 E2.03668
G1 X109.263 Y100.064 E2.04386
G1 X109.256 Y98.445 E2.05701
G1 E0.05701 F2400.00000
G92 E0
G1 X111.565 Y98.816 F7800.000
G1 E2.00000 F2400.00000
G1 X111.566 Y96.463 E2.01910 F3600.000
G1 X111.436 Y96.463 E2.02015
G1 X111.436 Y97.081 E2.02517
G1 X110.448 Y97.081 E2.03319
G1 X110.448 Y97.381 E2.03563
G1 X111.232 Y97.609 E2.04225
G1 X111.224 Y98.599 E2.05029
G1 X111.449 Y98.600 E2.05212
G1 X111.449 Y98.785 E2.05362
G1 X111.565 Y98.816 E2.05459
G1 X111.933 Y99.294 F7800.000
G1 X111.934 Y95.413 E2.08610 F3600.000
G1 X111.069 Y95.413 E2.09312
G1 X111.069 Y96.713 E2.10368
G1 X110.080 Y96.713 E2.11170
G1 X110.080 Y97.663 E2.11941
G1 X110.862 Y97.884 E2.12601
G1 X110.853 Y98.966 E2.13479
G1 X111.081 Y98.967 E2.13665
G1 X111.081 Y99.068 E2.13746
G1 X111.933 Y99.294 E2.14462
G1 X111.566 Y96.127 F7800.000
G1 X111.566 Y95.781 E2.14743 F3600.000
G1 X111.436 Y95.781 E2.14849
G1 X111.436 Y96.127 E2.15130
G1 X111.566 Y96.127 E2.15235
G1 E0.15235 F2400.00000
G92 E0
G1 X110.991 Y109.608 F7800.000
G1 E2.00000 F2400.00000
G1 X110.965 Y109.573 E2.00036 F3600.000
G1 X110.965 Y109.607 E2.00064
G1 X110.991 Y109.608 E2.00085
G1 X111.621 Y110.447 F7800.000
G1 X111.013 Y109.638 E2.00906 F3600.000
G1 X111.010 Y109.755 E2.01001
G1 X111.056 Y109.756 E2.01039
G1 X111.077 Y109.965 E2.01209
G1 X111.076 Y111.515 E2.02468
G1 X111.058 Y111.515 E2.02482
G1 X111.060 Y111.655 E2.02596
G1 X111.028 Y111.656 E2.02622
G1 X111.028 Y111.790 E2.02731
G1 X110.992 Y111.793 E2.02760
G1 X110.993 Y111.969 E2.02903
G1 X110.950 Y111.972 E2.02938
G1 X110.951 Y112.142 E2.03075
G1 X110.898 Y112.147 E2.03118
G1 X110.898 Y112.310 E2.03251
G1 X110.839 Y112.315 E2.03299
G1 X110.839 Y112.365 E2.03339
G1 X111.620 Y112.100 E2.04008
G1 X111.621 Y110.447 E2.05350
G1 X110.258 Y111.514 F7800.000
G1 X110.272 Y106.609 E2.09331 F3600.000
G1 X108.959 Y107.276 E2.10527
G1 X108.962 Y107.423 E2.10647
G1 X106.488 Y106.817 E2.12715
G1 X105.859 Y108.030 E2.13824
G1 X105.859 Y108.770 E2.14424
G1 X105.547 Y108.760 E2.14677
G1 X105.418 Y110.878 E2.16400
G1 X105.558 Y112.877 E2.18026
G1 X105.859 Y112.866 E2.18270
G1 X105.859 Y113.659 E2.18914
G1 X106.503 Y114.872 E2.20029
G1 X108.528 Y114.358 E2.21725
G1 X108.527 Y114.688 E2.21993
G1 X109.870 Y114.305 E2.23126
G1 X109.853 Y111.344 E2.25530
G1 X110.258 Y111.514 E2.25887
G1 X109.892 Y110.961 F7800.000
G1 X109.899 Y108.438 E2.27935 F3600.000
G1 X108.821 Y110.305 E2.29685
G1 X105.818 Y110.305 E2.32122
G1 X105.797 Y110.641 E2.32395
G1 X108.821 Y110.641 E2.34850
G1 X109.485 Y111.790 E2.35927
G1 X109.485 Y110.791 E2.36738
G1 X109.892 Y110.961 E2.37096
G1 E0.37096 F2400.00000
G92 E0
G1 X101.753 Y133.632 F7800.000
G1 E2.00000 F2400.00000
G1 X101.753 Y133.468 E2.00133 F3600.000
G1 X99.080 Y133.468 E2.02303
G1 X99.175 Y133.632 E2.02457
G1 X101.753 Y133.632 E2.04550
G1 X97.145 Y133.100 F7800.000
G1 X96.845 Y133.100 E2.04794 F3600.000
G1 X96.845 Y134.000 E2.05524
G1 X102.121 Y134.000 E2.09808
G1 X102.121 Y133.100 E2.10538
G1 X97.145 Y133.100 E2.14578
G1 Z0.650 F7800.000
G1 E0.14578 F2400.00000
G92 E0
G1 X101.481 Y131.504 F7800.000
G1 E2.00000 F2400.00000
G1 X97.484 Y131.504 E2.07390 F1800.000
G1 X97.397 Y131.504 E2.07551 F3600.000
G1 X97.397 Y68.496 E3.24045
G1 X97.484 Y68.496 E3.24207
G1 X101.481 Y68.496 E3.31597 F1800.000
G1 X101.569 Y68.496 E3.31758 F3600.000
G1 X101.569 Y131.504 E4.48252
G1 X101.541 Y131.504 E4.48303
G1 X101.987 Y131.923 F7800.000
G1 X101.481 Y131.923 E4.49238 F3600.000
G1 X97.484 Y131.923 E4.56628 F1800.000
G1 X96.978 Y131.923 E4.57564 F3600.000
G1 X96.978 Y68.077 E5.75607
G1 X97.484 Y68.077 E5.76543
G1 X101.481 Y68.077 E5.83933 F1800.000
G1 X101.987 Y68.077 E5.84869 F3600.000
G1 X101.987 Y131.863 E7.02801
G1 X102.365 Y132.300 F7800.000
G1 X101.481 Y132.300 E7.04434 F3600.000
G1 X97.484 Y132.300 E7.10355 F900.000
G1 X96.601 Y132.300 E7.11988 F3600.000
G1 X96.601 Y67.700 E8.31427
G1 X97.484 Y67.700 E8.33060
G1 X101.481 Y67.700 E8.38981 F900.000
G1 X102.365 Y67.700 E8.40614 F3600.000
G1 X102.365 Y132.240 E9.59941
G1 X101.197 Y131.267 F7800.000
G1 X101.197 Y68.733 E11.32125 F3600.000
G1 X100.659 Y68.733 E11.33606
G1 X100.659 Y131.267 E13.05789
G1 X100.121 Y131.267 E13.07271
G1 X100.121 Y68.733 E14.79454
G1 X99.583 Y68.733 E14.80936
G1 X99.583 Y131.267 E16.53119
G1 X99.044 Y131.267 E16.54601
G1 X99.044 Y68.733 E18.26784
G1 X98.506 Y68.733 E18.28266
G1 X98.506 Y131.267 E20.00449
G1 X97.634 Y131.132 F7800.000
G1 X98.191 Y131.132 E20.01486 F3600.000
G1 X98.191 Y130.681 E20.02325
G1 X97.634 Y130.681 E20.03362
G1 X97.634 Y130.230 E20.04201
G1 X98.191 Y130.230 E20.05238
G1 X98.191 Y129.779 E20.06078
G1 X97.634 Y129.779 E20.07115
G1 X97.634 Y129.328 E20.07954
G1 X98.191 Y129.328 E20.08991
G1 X98.191 Y128.876 E20.09830
G1 X97.634 Y128.876 E20.10867
G1 X97.634 Y128.425 E20.11706
G1 X98.191 Y128.425 E20.12743
G1 X98.191 Y127.974 E20.13582
G1 X97.634 Y127.974 E20.14619
G1 X97.634 Y127.523 E20.15458
G1 X98.191 Y127.523 E20.16495
G1 X98.191 Y127.072 E20.17334
G1 X97.634 Y127.072 E20.18371
G1 X97.634 Y126.620 E20.19211
G1 X98.191 Y126.620 E20.20248
G1 X98.191 Y126.169 E20.21087
G1 X97.634 Y126.169 E20.22124
G1 X97.634 Y125.718 E20.22963
G1 X98.191 Y125.718 E20.24000
G1 X98.191 Y125.267 E20.24839
G1 X97.634 Y125.267 E20.25876
G1 X97.634 Y124.816 E20.26715
G1 X98.191 Y124.816 E20.27752
G1 X98.191 Y124.364 E20.28591
G1 X97.634 Y124.364 E20.29628
G1 X97.634 Y123.913 E20.30467
G1 X98.191 Y123.913 E20.31504
G1 X98.191 Y123.462 E20.32344
G1 X97.634 Y123.462 E20.33381
G1 X97.634 Y123.011 E20.34220
G1 X98.191 Y123.011 E20.35257
G1 X98.191 Y122.560 E20.36096
G1 X97.634 Y122.560 E20.37133
G1 X97.634 Y122.108 E20.37972
G1 X98.191 Y122.108 E20.39009
G1 X98.191 Y121.657 E20.39848
G1 X97.634 Y121.657 E20.40885
G1 X97.634 Y121.206 E20.41724
G1 X98.191 Y121.206 E20.42761
G1 X98.191 Y120.755 E20.43601
G1 X97.634 Y120.755 E20.44637
G1 X97.634 Y120.304 E20.45477
G1 X98.191 Y120.304 E20.46514
G1 X98.191 Y119.852 E20.47353
G1 X97.634 Y119.852 E20.48390
G1 X97.634 Y119.401 E20.49229
G1 X98.191 Y119.401 E20.50266
G1 X98.191 Y118.950 E20.51105
G1 X97.634 Y118.950 E20.52142
G1 X97.634 Y118.499 E20.52981
G1 X98.191 Y118.499 E20.54018
G1 X98.191 Y118.048 E20.54857
G1 X97.634 Y118.048 E20.55894
G1 X97.634 Y117.597 E20.56734
G1 X98.191 Y117.597 E20.57770
G1 X98.191 Y117.145 E20.58610
G1 X97.634 Y117.145 E20.59647
G1 X97.634 Y116.694 E20.60486
G1 X98.191 Y116.694 E20.61523
G1 X98.191 Y116.243 E20.62362
G1 X97.634 Y116.243 E20.63399
G1 X97.634 Y115.792 E20.64238
G1 X98.191 Y115.792 E20.65275
G1 X98.191 Y115.341 E20.66114
G1 X97.634 Y115.341 E20.67151
G1 X97.634 Y114.889 E20.67990
G1 X98.191 Y114.889 E20.69027
G1 X98.191 Y114.438 E20.69867
G1 X97.634 Y114.438 E20.70903
G1 X97.634 Y113.987 E20.71743
G1 X98.191 Y113.987 E20.72780
G1 X98.191 Y113.536 E20.73619
G1 X97.634 Y113.536 E20.74656
G1 X97.634 Y113.085 E20.75495
G1 X98.191 Y113.085 E20.76532
G1 X98.191 Y112.633 E20.77371
G1 X97.634 Y112.633 E20.78408
G1 X97.634 Y112.182 E20.79247
G1 X98.191 Y112.182 E20.80284
G1 X98.191 Y111.731 E20.81123
G1 X97.634 Y111.731 E20.82160
G1 X97.634 Y111.280 E20.83000
G1 X98.191 Y111.280 E20.84036
G1 X98.191 Y110.829 E20.84876
G1 X97.634 Y110.829 E20.85913
G1 X97.634 Y110.377 E20.86752
G1 X98.191 Y110.377 E20.87789
G1 X98.191 Y109.926 E20.88628
G1 X97.634 Y109.926 E20.89665
G1 X97.634 Y109.475 E20.90504
G1 X98.191 Y109.475 E20.91541
G1 X98.191 Y109.024 E20.92380
G1 X97.634 Y109.024 E20.93417
G1 X97.634 Y108.573 E20.94256
G1 X98.191 Y108.573 E20.95293
G1 X98.191 Y108.121 E20.96133
G1 X97.634 Y108.121 E20.97169
G1 X97.634 Y107.670 E20.98009
G1 X98.191 Y107.670 E20.99046
G1 X98.191 Y107.219 E20.99885
G1 X97.634 Y107.219 E21.00922
G1 X97.634 Y106.768 E21.01761
G1 X98.191 Y106.768 E21.02798
G1 X98.191 Y106.317 E21.03637
G1 X97.634 Y106.317 E21.04674
G1 X97.634 Y105.866 E21.05513
G1 X98.191 Y105.866 E21.06550
G1 X98.191 Y105.414 E21.07389
G1 X97.634 Y105.414 E21.08426
G1 X97.634 Y104.963 E21.09266
G1 X98.191 Y104.963 E21.10302
G1 X98.191 Y104.512 E21.11142
G1 X97.634 Y104.512 E21.12179
G1 X97.634 Y104.061 E21.13018
G1 X98.191 Y104.061 E21.14055
G1 X98.191 Y103.610 E21.14894
G1 X97.634 Y103.610 E21.15931
G1 X97.634 Y103.158 E21.16770
G1 X98.191 Y103.158 E21.17807
G1 X98.191 Y102.707 E21.18646
G1 X97.634 Y102.707 E21.19683
G1 X97.634 Y102.256 E21.20522
G1 X98.191 Y102.256 E21.21559
G1 X98.191 Y101.805 E21.22399
G1 X97.634 Y101.805 E21.23435
G1 X97.634 Y101.354 E21.24275
G1 X98.191 Y101.354 E21.25312
G1 X98.191 Y100.902 E21.26151
G1 X97.634 Y100.902 E21.27188
G1 X97.634 Y100.451 E21.28027
G1 X98.191 Y100.451 E21.29064
G1 X98.191 Y100.000 E21.29903
G1 X97.634 Y100.000 E21.30940
G1 X97.634 Y99.549 E21.31779
G1 X98.191 Y99.549 E21.32816
G1 X98.191 Y99.098 E21.33655
G1 X97.634 Y99.098 E21.34692
G1 X97.634 Y98.646 E21.35532
G1 X98.191 Y98.646 E21.36568
G1 X98.191 Y98.195 E21.37408
G1 X97.634 Y98.195 E21.38445
G1 X97.634 Y97.744 E21.39284
G1 X98.191 Y97.744 E21.40321
G1 X98.191 Y97.293 E21.41160
G1 X97.634 Y97.293 E21.42197
G1 X97.634 Y96.842 E21.43036
G1 X98.191 Y96.842 E21.44073
G1 X98.191 Y96.390 E21.44912
G1 X97.634 Y96.390 E21.45949
G1 X97.634 Y95.939 E21.46788
G1 X98.191 Y95.939 E21.47825
G1 X98.191 Y95.488 E21.48665
G1 X97.634 Y95.488 E21.49701
G1 X97.634 Y95.037 E21.50541
G1 X98.191 Y95.037 E21.51578
G1 X98.191 Y94.586 E21.52417
G1 X97.634 Y94.586 E21.53454
G1 X97.634 Y94.134 E21.54293
G1 X98.191 Y94.134 E21.55330
G1 X98.191 Y93.683 E21.56169
G1 X97.634 Y93.683 E21.57206
G1 X97.634 Y93.232 E21.58045
G1 X98.191 Y93.232 E21.59082
G1 X98.191 Y92.781 E21.59921
G1 X97.634 Y92.781 E21.60958
G1 X97.634 Y92.330 E21.61798
G1 X98.191 Y92.330 E21.62834
