; generated by Slic3r 1.2.9 on 2019-09-30 at 14:37:40

; external perimeters extrusion width = 0.40mm
; perimeters extrusion width = 0.48mm
; infill extrusion width = 0.48mm
; solid infill extrusion width = 0.48mm
; top infill extrusion width = 0.48mm

M107
M190 S65 ; set bed temperature
M104 S200 ; set temperature
G28 ; home all axes
G1 Z5 F5000 ; lift nozzle

M109 S200 ; wait for temperature to be reached
G21 ; set units to millimeters
G90 ; use absolute coordinates
M82 ; use absolute distances for extrusion
G92 E0
G1 Z0.350 F7800.000
G1 E-2.00000 F2400.00000
G92 E0
G1 X88.602 Y88.602 F7800.000
G1 E2.00000 F2400.00000
G1 X89.333 Y87.911 E2.03237 F1800.000
G1 X89.729 Y87.573 E2.04911
G1 X90.735 Y86.806 E2.08983
G1 X91.356 Y86.392 E2.11385
G1 X91.813 Y86.112 E2.13110
G1 X92.913 Y85.519 E2.17130
G1 X94.072 Y85.008 E2.21205
G1 X95.266 Y84.589 E2.25279
G1 X95.984 Y84.386 E2.27679
G1 X97.221 Y84.119 E2.31753
G1 X97.751 Y84.036 E2.33478
G1 X98.994 Y83.910 E2.37500
G1 X99.740 Y83.880 E2.39900
G1 X100.276 Y83.881 E2.41625
G1 X101.524 Y83.950 E2.45646 F1800.000
G1 X102.265 Y84.038 E2.48048
G1 X103.510 Y84.265 E2.52122
G1 X104.734 Y84.589 E2.56195
G1 X105.928 Y85.008 E2.60268
G1 X107.087 Y85.519 E2.64342
G1 X108.201 Y86.120 E2.68415
G1 X108.644 Y86.392 E2.70089
G1 X109.685 Y87.112 E2.74163
G1 X110.667 Y87.911 E2.78236
G1 X111.582 Y88.785 E2.82310
G1 X112.427 Y89.729 E2.86384
G1 X112.888 Y90.315 E2.88784
G1 X113.608 Y91.356 E2.92857
G1 X114.245 Y92.450 E2.96931
G1 X114.793 Y93.591 E3.01004
G1 X115.250 Y94.771 E3.05078
G1 X115.614 Y95.984 E3.09151
G1 X115.881 Y97.221 E3.13225
G1 X116.050 Y98.476 E3.17299
G1 X116.120 Y99.740 E3.21372
G1 X116.090 Y101.005 E3.25445
G1 X116.050 Y101.524 E3.27119
G1 X115.881 Y102.779 E3.31193
G1 X115.614 Y104.016 E3.35266
G1 X115.250 Y105.229 E3.39339
G1 X114.793 Y106.409 E3.43413
G1 X114.481 Y107.087 E3.45813
G1 X113.888 Y108.187 E3.49835
G1 X113.608 Y108.644 E3.51561
G1 X113.194 Y109.265 E3.53962
G1 X112.427 Y110.271 E3.58034
G1 X111.582 Y111.215 E3.62108
G1 X110.667 Y112.089 E3.66181
G1 X110.271 Y112.427 E3.67855
G1 X109.265 Y113.194 E3.71928
G1 X108.201 Y113.880 E3.76002
G1 X107.087 Y114.481 E3.80076
G1 X105.928 Y114.992 E3.84149
G1 X104.734 Y115.411 E3.88222
G1 X103.511 Y115.735 E3.92294
G1 X102.779 Y115.881 E3.94696
G1 X101.524 Y116.050 E3.98770
G1 X100.260 Y116.120 E4.02843
G1 X99.724 Y116.119 E4.04570
G1 X98.476 Y116.050 E4.08590
G1 X97.221 Y115.881 E4.12664
G1 X95.984 Y115.614 E4.16738
G1 X94.771 Y115.250 E4.20811
G1 X93.591 Y114.793 E4.24885
G1 X92.450 Y114.245 E4.28958
G1 X91.356 Y113.608 E4.33032
G1 X90.315 Y112.888 E4.37105
G1 X89.729 Y112.427 E4.39505
G1 X88.785 Y111.582 E4.43579
G1 X87.911 Y110.667 E4.47653
G1 X87.112 Y109.685 E4.51726
G1 X86.392 Y108.644 E4.55800
G1 X85.755 Y107.550 E4.59873
G1 X85.207 Y106.409 E4.63946
G1 X84.750 Y105.229 E4.68020
G1 X84.386 Y104.016 E4.72094
G1 X84.119 Y102.779 E4.76167
G1 X83.950 Y101.524 E4.80242
G1 X83.880 Y100.259 E4.84316
G1 X83.909 Y99.011 E4.88335
G1 X83.950 Y98.476 E4.90061
G1 X84.119 Y97.221 E4.94135
G1 X84.265 Y96.490 E4.96535
G1 X84.589 Y95.266 E5.00608
G1 X85.008 Y94.072 E5.04682
G1 X85.519 Y92.913 E5.08757
G1 X86.120 Y91.799 E5.12830
G1 X86.806 Y90.735 E5.16904
G1 X87.573 Y89.729 E5.20976
G1 X87.911 Y89.333 E5.22650
G1 X88.559 Y88.644 E5.25694
G1 E3.25694 F2400.00000
G92 E0
G1 X104.314 Y104.314 F7800.000
G1 E2.00000 F2400.00000
G1 X103.962 Y104.639 E2.01542 F1800.000
G1 X103.586 Y104.936 E2.03083
G1 X103.188 Y105.202 E2.04625
G1 X102.770 Y105.436 E2.06166
G1 X102.335 Y105.637 E2.07708
G1 X101.885 Y105.802 E2.09249
G1 X101.424 Y105.932 E2.10791
G1 X100.954 Y106.026 E2.12332
G1 X100.479 Y106.082 E2.13874
G1 X100.000 Y106.101 E2.15415
G1 X99.521 Y106.082 E2.16957
G1 X99.046 Y106.026 E2.18498
G1 X98.576 Y105.932 E2.20040
G1 X98.115 Y105.802 E2.21581
G1 X97.665 Y105.637 E2.23123
G1 X97.230 Y105.436 E2.24665
G1 X96.812 Y105.202 E2.26206
G1 X96.414 Y104.936 E2.27747
G1 X96.038 Y104.639 E2.29289
G1 X95.686 Y104.314 E2.30831
G1 X95.360 Y103.961 E2.32376
G1 X95.059 Y103.579 E2.33943
G1 X94.798 Y103.188 E2.35455
G1 X94.564 Y102.770 E2.36997
G1 X94.363 Y102.334 E2.38543
G1 X94.195 Y101.877 E2.40109
G1 X94.068 Y101.424 E2.41621
G1 X93.974 Y100.954 E2.43163
G1 X93.918 Y100.479 E2.44704
G1 X93.899 Y100.000 E2.46246
G1 X93.918 Y99.520 E2.47792
G1 X93.976 Y99.037 E2.49358
G1 X94.068 Y98.576 E2.50870
G1 X94.198 Y98.115 E2.52412
G1 X94.364 Y97.664 E2.53958
G1 X94.568 Y97.222 E2.55524
G1 X94.798 Y96.812 E2.57036
G1 X95.064 Y96.414 E2.58578
G1 X95.361 Y96.038 E2.60119
G1 X95.686 Y95.686 E2.61661
G1 X96.038 Y95.361 E2.63202
G1 X96.414 Y95.064 E2.64744
G1 X96.812 Y94.798 E2.66286
G1 X97.222 Y94.568 E2.67798
G1 X97.664 Y94.364 E2.69364
G1 X98.115 Y94.198 E2.70910
G1 X98.576 Y94.068 E2.72452
G1 X99.046 Y93.974 E2.73993
G1 X99.521 Y93.918 E2.75535
G1 X99.991 Y93.899 E2.77047 F1800.000
G1 X100.477 Y93.918 E2.78613
G1 X100.954 Y93.974 E2.80159
G1 X101.424 Y94.068 E2.81701
G1 X101.885 Y94.198 E2.83242
G1 X102.335 Y94.363 E2.84784
G1 X102.770 Y94.564 E2.86325
G1 X103.188 Y94.798 E2.87867
G1 X103.586 Y95.064 E2.89408
G1 X103.962 Y95.361 E2.90950
G1 X104.314 Y95.686 E2.92491
G1 X104.640 Y96.039 E2.94037
G1 X104.941 Y96.421 E2.95604
G1 X105.202 Y96.812 E2.97116
G1 X105.436 Y97.230 E2.98657
G1 X105.637 Y97.666 E3.00203
G1 X105.805 Y98.123 E3.01770
G1 X105.932 Y98.576 E3.03282
G1 X106.026 Y99.046 E3.04823
G1 X106.082 Y99.521 E3.06365
G1 X106.101 Y100.000 E3.07907
G1 X106.082 Y100.479 E3.09448
G1 X106.026 Y100.954 E3.10990
G1 X105.932 Y101.424 E3.12531
G1 X105.802 Y101.885 E3.14073
G1 X105.637 Y102.335 E3.15614
G1 X105.436 Y102.770 E3.17156
G1 X105.202 Y103.188 E3.18697
G1 X104.936 Y103.586 E3.20239
G1 X104.639 Y103.962 E3.21780
G1 X104.355 Y104.270 E3.23129
G1 X103.872 Y103.872 F7800.000
G1 X103.556 Y104.164 E3.24512 F1800.000
G1 X103.218 Y104.430 E3.25896
G1 X102.861 Y104.669 E3.27279
G1 X102.486 Y104.879 E3.28663
G1 X102.095 Y105.059 E3.30046
G1 X101.692 Y105.208 E3.31430
G1 X101.278 Y105.324 E3.32813
G1 X100.857 Y105.408 E3.34197
G1 X100.430 Y105.459 E3.35580
G1 X100.000 Y105.476 E3.36964
G1 X99.570 Y105.459 E3.38348
G1 X99.143 Y105.408 E3.39731
G1 X98.722 Y105.324 E3.41115
G1 X98.308 Y105.208 E3.42498
G1 X97.905 Y105.059 E3.43882
G1 X97.514 Y104.879 E3.45265
G1 X97.139 Y104.669 E3.46649
G1 X96.782 Y104.430 E3.48032
G1 X96.444 Y104.164 E3.49416
G1 X96.128 Y103.872 E3.50799
G1 X95.836 Y103.556 E3.52185
G1 X95.565 Y103.211 E3.53594
G1 X95.331 Y102.861 E3.54950
G1 X95.121 Y102.486 E3.56333
G1 X94.941 Y102.095 E3.57719
G1 X94.790 Y101.684 E3.59128
G1 X94.676 Y101.278 E3.60484
G1 X94.592 Y100.857 E3.61867
G1 X94.541 Y100.430 E3.63251
G1 X94.524 Y100.000 E3.64634
G1 X94.541 Y99.570 E3.66020
G1 X94.593 Y99.135 E3.67429
G1 X94.676 Y98.722 E3.68785
G1 X94.792 Y98.308 E3.70168
G1 X94.941 Y97.904 E3.71554
G1 X95.125 Y97.507 E3.72963
G1 X95.331 Y97.139 E3.74319
G1 X95.570 Y96.782 E3.75702
G1 X95.836 Y96.444 E3.77086
G1 X96.128 Y96.128 E3.78469
G1 X96.444 Y95.836 E3.79853
G1 X96.782 Y95.570 E3.81236
G1 X97.139 Y95.331 E3.82620
G1 X97.507 Y95.125 E3.83976
G1 X97.904 Y94.941 E3.85384
G1 X98.308 Y94.792 E3.86770
G1 X98.722 Y94.676 E3.88154
G1 X99.143 Y94.592 E3.89537
G1 X99.570 Y94.541 E3.90921
G1 X99.991 Y94.525 E3.92277 F1800.000
G1 X100.429 Y94.541 E3.93685
G1 X100.857 Y94.592 E3.95071
G1 X101.278 Y94.676 E3.96455
G1 X101.692 Y94.792 E3.97838
G1 X102.095 Y94.941 E3.99222
G1 X102.486 Y95.121 E4.00605
G1 X102.861 Y95.331 E4.01989
G1 X103.218 Y95.570 E4.03372
G1 X103.556 Y95.836 E4.04756
G1 X103.872 Y96.128 E4.06140
G1 X104.164 Y96.444 E4.07526
G1 X104.435 Y96.789 E4.08934
G1 X104.669 Y97.139 E4.10290
G1 X104.879 Y97.514 E4.11674
G1 X105.059 Y97.905 E4.13060
G1 X105.210 Y98.316 E4.14468
G1 X105.324 Y98.722 E4.15824
G1 X105.408 Y99.143 E4.17208
G1 X105.459 Y99.570 E4.18591
G1 X105.476 Y100.000 E4.19975
G1 X105.459 Y100.430 E4.21358
G1 X105.408 Y100.857 E4.22742
G1 X105.324 Y101.278 E4.24125
G1 X105.208 Y101.692 E4.25509
G1 X105.059 Y102.095 E4.26892
G1 X104.879 Y102.486 E4.28276
G1 X104.669 Y102.861 E4.29659
G1 X104.430 Y103.218 E4.31043
G1 X104.164 Y103.556 E4.32426
G1 X103.913 Y103.828 E4.33617
G1 X103.430 Y103.430 F7800.000
G1 X103.150 Y103.688 E4.34842 F1800.000
G1 X102.851 Y103.924 E4.36068
G1 X102.534 Y104.136 E4.37293
G1 X102.202 Y104.322 E4.38519
G1 X101.856 Y104.481 E4.39744
G1 X101.499 Y104.613 E4.40970
G1 X101.132 Y104.716 E4.42195
G1 X100.759 Y104.791 E4.43421
G1 X100.381 Y104.835 E4.44646
G1 X100.000 Y104.850 E4.45872
G1 X99.619 Y104.835 E4.47097
G1 X99.241 Y104.791 E4.48323
G1 X98.868 Y104.716 E4.49548
G1 X98.501 Y104.613 E4.50774
G1 X98.144 Y104.481 E4.51999
G1 X97.798 Y104.322 E4.53225
G1 X97.466 Y104.136 E4.54450
G1 X97.149 Y103.924 E4.55676
G1 X96.850 Y103.688 E4.56901
G1 X96.570 Y103.430 E4.58127
G1 X96.312 Y103.150 E4.59353
G1 X96.072 Y102.844 E4.60604
G1 X95.864 Y102.534 E4.61803
G1 X95.678 Y102.202 E4.63029
G1 X95.519 Y101.856 E4.64255
G1 X95.385 Y101.491 E4.65506
G1 X95.284 Y101.132 E4.66705
G1 X95.209 Y100.759 E4.67931
G1 X95.165 Y100.381 E4.69156
G1 X95.150 Y100.000 E4.70382
G1 X95.165 Y99.619 E4.71608
G1 X95.211 Y99.233 E4.72859
G1 X95.284 Y98.868 E4.74058
G1 X95.387 Y98.501 E4.75284
G1 X95.519 Y98.144 E4.76510
G1 X95.682 Y97.791 E4.77761
G1 X95.864 Y97.466 E4.78960
G1 X96.076 Y97.149 E4.80186
G1 X96.312 Y96.850 E4.81411
G1 X96.570 Y96.570 E4.82637
G1 X96.850 Y96.312 E4.83862
G1 X97.149 Y96.076 E4.85088
G1 X97.466 Y95.864 E4.86313
G1 X97.791 Y95.682 E4.87513
G1 X98.144 Y95.519 E4.88763
G1 X98.501 Y95.387 E4.89990
G1 X98.868 Y95.284 E4.91215
G1 X99.241 Y95.209 E4.92441
G1 X99.619 Y95.165 E4.93666
G1 X99.992 Y95.150 E4.94866 F1800.000
G1 X100.380 Y95.165 E4.96116
G1 X100.759 Y95.209 E4.97343
G1 X101.132 Y95.284 E4.98568
G1 X101.499 Y95.387 E4.99794
G1 X101.856 Y95.519 E5.01019
G1 X102.202 Y95.678 E5.02245
G1 X102.534 Y95.864 E5.03470
G1 X102.851 Y96.076 E5.04696
G1 X103.150 Y96.312 E5.05921
G1 X103.430 Y96.570 E5.07147
G1 X103.688 Y96.850 E5.08373
G1 X103.928 Y97.156 E5.09624
G1 X104.136 Y97.466 E5.10823
G1 X104.322 Y97.798 E5.12049
G1 X104.481 Y98.144 E5.13275
G1 X104.615 Y98.509 E5.14525
G1 X104.716 Y98.868 E5.15725
G1 X104.791 Y99.241 E5.16951
G1 X104.835 Y99.619 E5.18176
G1 X104.850 Y100.000 E5.19402
G1 X104.835 Y100.381 E5.20627
G1 X104.791 Y100.759 E5.21853
G1 X104.716 Y101.132 E5.23078
G1 X104.613 Y101.499 E5.24304
G1 X104.481 Y101.856 E5.25529
G1 X104.322 Y102.202 E5.26755
G1 X104.136 Y102.534 E5.27980
G1 X103.924 Y102.851 E5.29206
G1 X103.688 Y103.150 E5.30431
G1 X103.470 Y103.386 E5.31464
G1 X103.523 Y103.799 F7800.000
G1 X105.498 Y105.667 F7800.000
G1 X105.131 Y106.006 E5.33070 F1800.000
G1 X104.630 Y106.399 E5.35118
G1 X104.127 Y106.735 E5.37066
G1 X103.586 Y107.038 E5.39062
G1 X103.024 Y107.297 E5.41053
G1 X102.427 Y107.516 E5.43101
G1 X101.844 Y107.681 E5.45049
G1 X101.236 Y107.802 E5.47045
G1 X100.620 Y107.875 E5.49041
G1 X100.000 Y107.899 E5.51037
G1 X99.380 Y107.875 E5.53032
G1 X98.764 Y107.802 E5.55028
G1 X98.156 Y107.681 E5.57024
G1 X97.559 Y107.512 E5.59020
G1 X96.977 Y107.298 E5.61016
G1 X96.414 Y107.038 E5.63011
G1 X95.873 Y106.735 E5.65007
G1 X95.357 Y106.390 E5.67003
G1 X94.870 Y106.006 E5.68999
G1 X94.415 Y105.585 E5.70995
G1 X93.994 Y105.130 E5.72991
G1 X93.610 Y104.643 E5.74986
G1 X93.265 Y104.127 E5.76982
G1 X92.962 Y103.586 E5.78978
G1 X92.702 Y103.023 E5.80974
G1 X92.488 Y102.441 E5.82970
G1 X92.319 Y101.844 E5.84966
G1 X92.201 Y101.250 E5.86913
G1 X92.125 Y100.618 E5.88961
G1 X92.101 Y100.000 E5.90953
G1 X92.125 Y99.380 E5.92949
G1 X92.198 Y98.764 E5.94945
G1 X92.319 Y98.156 E5.96940
G1 X92.488 Y97.559 E5.98936
G1 X92.702 Y96.977 E6.00932
G1 X92.962 Y96.414 E6.02928
G1 X93.265 Y95.873 E6.04924
G1 X93.601 Y95.370 E6.06871
G1 X93.994 Y94.869 E6.08919
G1 X94.415 Y94.415 E6.10911
G1 X94.869 Y93.994 E6.12902
G1 X95.370 Y93.601 E6.14951
G1 X95.873 Y93.265 E6.16898
G1 X96.414 Y92.962 E6.18894
G1 X96.977 Y92.702 E6.20890
G1 X97.559 Y92.488 E6.22886
G1 X98.156 Y92.319 E6.24882
G1 X98.764 Y92.198 E6.26877
G1 X99.379 Y92.126 E6.28869
G1 X100.015 Y92.102 E6.30917
G1 X100.620 Y92.125 E6.32865
G1 X101.236 Y92.198 E6.34860 F1800.000
G1 X101.844 Y92.319 E6.36856
G1 X102.441 Y92.488 E6.38852
G1 X103.023 Y92.702 E6.40848
G1 X103.586 Y92.962 E6.42844
G1 X104.127 Y93.265 E6.44840
G1 X104.643 Y93.610 E6.46835
G1 X105.130 Y93.994 E6.48831
G1 X105.585 Y94.415 E6.50827
G1 X106.006 Y94.870 E6.52823
G1 X106.390 Y95.357 E6.54819
G1 X106.735 Y95.873 E6.56814
G1 X107.038 Y96.414 E6.58810
G1 X107.298 Y96.977 E6.60806
G1 X107.512 Y97.559 E6.62802
G1 X107.681 Y98.156 E6.64798
G1 X107.799 Y98.750 E6.66745
G1 X107.875 Y99.382 E6.68794
G1 X107.899 Y100.000 E6.70785
G1 X107.875 Y100.620 E6.72781
G1 X107.802 Y101.236 E6.74777
G1 X107.681 Y101.844 E6.76773
G1 X107.516 Y102.427 E6.78720
G1 X107.297 Y103.024 E6.80768
G1 X107.038 Y103.586 E6.82760
G1 X106.735 Y104.127 E6.84756
G1 X106.399 Y104.630 E6.86703
G1 X106.006 Y105.131 E6.88751
G1 X105.542 Y105.626 E6.90934
G1 X105.922 Y106.126 F7800.000
G1 X105.537 Y106.481 E6.92622 F1800.000
G1 X104.998 Y106.905 E6.94828
G1 X104.454 Y107.268 E6.96932
G1 X103.870 Y107.595 E6.99086
G1 X103.263 Y107.875 E7.01237
G1 X102.619 Y108.111 E7.03443
G1 X101.990 Y108.289 E7.05547
G1 X101.334 Y108.419 E7.07701
G1 X100.669 Y108.498 E7.09855
G1 X100.000 Y108.524 E7.12008
G1 X99.331 Y108.498 E7.14162
G1 X98.666 Y108.419 E7.16316
G1 X98.010 Y108.289 E7.18470
G1 X97.366 Y108.107 E7.20624
G1 X96.738 Y107.875 E7.22778
G1 X96.130 Y107.595 E7.24931
G1 X95.546 Y107.268 E7.27085
G1 X94.990 Y106.896 E7.29239
G1 X94.464 Y106.482 E7.31393
G1 X93.972 Y106.028 E7.33547
G1 X93.518 Y105.536 E7.35701
G1 X93.104 Y105.010 E7.37854
G1 X92.732 Y104.454 E7.40008
G1 X92.405 Y103.870 E7.42162
G1 X92.125 Y103.262 E7.44316
G1 X91.893 Y102.634 E7.46470
G1 X91.711 Y101.990 E7.48624
G1 X91.584 Y101.349 E7.50728
G1 X91.502 Y100.668 E7.52934
G1 X91.476 Y100.000 E7.55085
G1 X91.502 Y99.331 E7.57239
G1 X91.581 Y98.666 E7.59393
G1 X91.711 Y98.010 E7.61546
G1 X91.893 Y97.366 E7.63700
G1 X92.125 Y96.738 E7.65854
G1 X92.405 Y96.130 E7.68008
G1 X92.732 Y95.546 E7.70162
G1 X93.095 Y95.002 E7.72266
G1 X93.519 Y94.463 E7.74472
G1 X93.972 Y93.972 E7.76623
G1 X94.463 Y93.519 E7.78774
G1 X95.002 Y93.095 E7.80980
G1 X95.546 Y92.732 E7.83084
G1 X96.130 Y92.405 E7.85238
G1 X96.738 Y92.125 E7.87392
G1 X97.366 Y91.893 E7.89546
G1 X98.010 Y91.711 E7.91700
G1 X98.666 Y91.581 E7.93854
G1 X99.330 Y91.502 E7.96005
G1 X100.015 Y91.476 E7.98211
G1 X100.669 Y91.502 E8.00315
G1 X101.334 Y91.581 E8.02469 F1800.000
G1 X101.990 Y91.711 E8.04623
G1 X102.634 Y91.893 E8.06776
G1 X103.262 Y92.125 E8.08930
G1 X103.870 Y92.405 E8.11084
G1 X104.454 Y92.732 E8.13238
G1 X105.010 Y93.104 E8.15392
G1 X105.536 Y93.518 E8.17546
G1 X106.028 Y93.972 E8.19699
G1 X106.482 Y94.464 E8.21853
G1 X106.896 Y94.990 E8.24007
G1 X107.268 Y95.546 E8.26161
G1 X107.595 Y96.130 E8.28315
G1 X107.875 Y96.738 E8.30469
G1 X108.107 Y97.366 E8.32622
G1 X108.289 Y98.010 E8.34776
G1 X108.416 Y98.651 E8.36880
G1 X108.498 Y99.332 E8.39086
G1 X108.524 Y100.000 E8.41238
G1 X108.498 Y100.669 E8.43391
G1 X108.419 Y101.334 E8.45545
G1 X108.289 Y101.990 E8.47699
G1 X108.111 Y102.619 E8.49803
G1 X107.875 Y103.263 E8.52009
G1 X107.595 Y103.870 E8.54160
G1 X107.268 Y104.454 E8.56314
G1 X106.905 Y104.998 E8.58418
G1 X106.481 Y105.537 E8.60624
G1 X105.966 Y106.085 E8.63046
G1 X106.346 Y106.584 F7800.000
G1 X105.942 Y106.957 E8.64814 F1800.000
G1 X105.365 Y107.411 E8.67178
G1 X104.781 Y107.801 E8.69438
G1 X104.154 Y108.152 E8.71750
G1 X103.502 Y108.453 E8.74061
G1 X102.812 Y108.706 E8.76425
G1 X102.136 Y108.897 E8.78685
G1 X101.431 Y109.037 E8.80997
G1 X100.718 Y109.122 E8.83309
G1 X100.000 Y109.150 E8.85621
G1 X99.282 Y109.122 E8.87933
G1 X98.569 Y109.037 E8.90245
G1 X97.864 Y108.897 E8.92557
G1 X97.173 Y108.702 E8.94868
G1 X96.499 Y108.453 E8.97180
G1 X95.846 Y108.152 E8.99492
G1 X95.219 Y107.801 E9.01804
G1 X94.622 Y107.402 E9.04116
G1 X94.058 Y106.958 E9.06428
G1 X93.530 Y106.470 E9.08739
G1 X93.042 Y105.942 E9.11051
G1 X92.598 Y105.378 E9.13363
G1 X92.199 Y104.781 E9.15675
G1 X91.848 Y104.154 E9.17987
