; generated by Slic3r 1.2.9 on 2019-07-18 at 13:58:27

; external perimeters extrusion width = 0.40mm
; perimeters extrusion width = 0.56mm
; infill extrusion width = 0.56mm
; solid infill extrusion width = 0.56mm
; top infill extrusion width = 0.56mm

M107
M190 S65 ; set bed temperature
M104 S200 ; set temperature
G28 ; home all axes
G1 Z5 F5000 ; lift nozzle

M109 S200 ; wait for temperature to be reached
G21 ; set units to millimeters
G90 ; use absolute coordinates
M82 ; use absolute distances for extrusion
G92 E0
G1 Z0.350 F7800.000
G1 E-2.00000 F2400.00000
G92 E0
G1 X72.128 Y71.420 F7800.000
G1 E2.00000 F2400.00000
G1 X72.783 Y70.812 E2.02876 F1800.000
G1 X76.203 Y67.966 E2.17192
G1 X76.915 Y67.435 E2.20052
G1 X77.322 Y67.165 E2.21623
G1 X81.120 Y64.847 E2.35942
G1 X81.549 Y64.607 E2.37521
G1 X82.345 Y64.218 E2.40373
G1 X86.440 Y62.478 E2.54690
G1 X87.276 Y62.174 E2.57553
G1 X87.742 Y62.034 E2.59118
G1 X92.046 Y60.908 E2.73435
G1 X92.921 Y60.729 E2.76310
G1 X93.400 Y60.658 E2.77868
G1 X97.823 Y60.171 E2.92186
G1 X98.715 Y60.121 E2.95059
G1 X99.199 Y60.121 E2.96620
G1 X103.646 Y60.284 E3.10938 F1800.000
G1 X104.245 Y60.332 E3.12871
G1 X105.012 Y60.435 E3.15363
G1 X109.388 Y61.242 E3.29682
G1 X109.861 Y61.348 E3.31242
G1 X110.721 Y61.591 E3.34115
G1 X114.932 Y63.028 E3.48434
G1 X115.384 Y63.201 E3.49992
G1 X116.199 Y63.566 E3.52866
G1 X120.156 Y65.601 E3.67183
G1 X120.580 Y65.839 E3.68748
G1 X121.330 Y66.318 E3.71611
G1 X124.948 Y68.906 E3.85928
G1 X125.641 Y69.459 E3.88780
G1 X126.007 Y69.787 E3.90360
G1 X129.210 Y72.875 E4.04678
G1 X129.822 Y73.532 E4.07565
G1 X130.128 Y73.900 E4.09109
G1 X132.848 Y77.422 E4.23426
G1 X133.129 Y77.816 E4.24985
G1 X133.607 Y78.570 E4.27856
G1 X135.785 Y82.450 E4.42174
G1 X136.007 Y82.882 E4.43738
G1 X136.368 Y83.696 E4.46603
G1 X137.958 Y87.851 E4.60920
G1 X138.116 Y88.314 E4.62495
G1 X138.355 Y89.170 E4.65352
G1 X139.323 Y93.513 E4.79672
G1 X139.411 Y93.993 E4.81241
G1 X139.523 Y94.874 E4.84101
G1 X139.848 Y99.312 E4.98419
G1 X139.865 Y99.804 E5.00004
G1 X139.847 Y100.688 E5.02848
G1 X139.523 Y105.126 E5.17168
G1 X139.469 Y105.615 E5.18749
G1 X139.322 Y106.488 E5.21598
G1 X138.354 Y110.831 E5.35917
G1 X138.114 Y111.691 E5.38792
G1 X137.958 Y112.149 E5.40348
G1 X136.368 Y116.305 E5.54667
G1 X136.179 Y116.751 E5.56227
G1 X135.784 Y117.551 E5.59096
G1 X133.606 Y121.432 E5.73415
G1 X133.131 Y122.183 E5.76277
G1 X132.847 Y122.580 E5.77847
G1 X130.127 Y126.101 E5.92165
G1 X129.549 Y126.773 E5.95017
G1 X129.209 Y127.127 E5.96596
G1 X126.005 Y130.215 E6.10914
G1 X125.335 Y130.795 E6.13767
G1 X124.948 Y131.094 E6.15340
G1 X121.330 Y133.683 E6.29657
G1 X120.927 Y133.950 E6.31214
G1 X120.155 Y134.401 E6.34089
G1 X116.198 Y136.435 E6.48408
G1 X115.382 Y136.801 E6.51283
G1 X114.931 Y136.973 E6.52837
G1 X110.721 Y138.410 E6.67154
G1 X109.857 Y138.654 E6.70040
G1 X109.387 Y138.758 E6.71590
G1 X105.013 Y139.566 E6.85905
G1 X104.244 Y139.668 E6.88400
G1 X103.644 Y139.717 E6.90337
G1 X99.197 Y139.879 E7.04655
G1 X98.309 Y139.864 E7.07514
G1 X97.822 Y139.829 E7.09084
G1 X93.400 Y139.342 E7.23401
G1 X92.917 Y139.271 E7.24971
G1 X92.047 Y139.092 E7.27830
G1 X87.742 Y137.967 E7.42148
G1 X87.279 Y137.827 E7.43706
G1 X86.439 Y137.522 E7.46580
G1 X82.345 Y135.783 E7.60896
G1 X81.908 Y135.578 E7.62446
G1 X81.119 Y135.153 E7.65332
G1 X77.321 Y132.835 E7.79648
G1 X76.586 Y132.330 E7.82519
G1 X76.203 Y132.034 E7.84077
G1 X72.782 Y129.188 E7.98396
G1 X72.127 Y128.580 E8.01271
G1 X71.791 Y128.232 E8.02828
G1 X68.822 Y124.918 E8.17145
G1 X68.510 Y124.542 E8.18719
G1 X67.982 Y123.830 E8.21572
G1 X65.527 Y120.119 E8.35890
G1 X65.271 Y119.700 E8.37469
G1 X64.853 Y118.919 E8.40321
G1 X62.964 Y114.890 E8.54639
G1 X62.774 Y114.441 E8.56208
G1 X62.473 Y113.604 E8.59070
G1 X61.191 Y109.343 E8.73390
G1 X60.980 Y108.476 E8.76259
G1 X60.892 Y108.000 E8.77818
G1 X60.244 Y103.598 E8.92137
G1 X60.191 Y103.117 E8.93694
G1 X60.143 Y102.225 E8.96569
G1 X60.143 Y97.775 E9.10887
G1 X60.190 Y96.891 E9.13736
G1 X60.244 Y96.402 E9.15317
G1 X60.892 Y92.000 E9.29637
G1 X61.066 Y91.133 E9.32482
G1 X61.191 Y90.657 E9.34066
G1 X62.473 Y86.396 E9.48385
G1 X62.773 Y85.560 E9.51244
G1 X62.964 Y85.111 E9.52814
G1 X64.853 Y81.082 E9.67133
G1 X65.272 Y80.299 E9.69991
G1 X65.527 Y79.881 E9.71565
G1 X67.982 Y76.170 E9.85883
G1 X68.512 Y75.455 E9.88747
G1 X68.823 Y75.082 E9.90311
G1 X71.792 Y71.768 E10.04629
G1 X72.086 Y71.463 E10.05991
G1 E8.05991 F2400.00000
G92 E0
G1 X121.191 Y117.598 F7800.000
G1 E2.00000 F2400.00000
G1 X113.524 Y123.481 E2.31098 F1800.000
G1 X111.447 Y124.342 E2.38334
G1 X109.217 Y124.635 E2.45570
G1 X106.988 Y124.342 E2.52806
G1 X104.910 Y123.481 E2.60041
G1 X103.126 Y122.113 E2.67277
G1 X101.758 Y120.329 E2.74513
G1 X100.897 Y118.251 E2.81749
G1 X100.604 Y116.022 E2.88984
G1 X100.897 Y113.793 E2.96220
G1 X101.758 Y111.715 E3.03456
G1 X103.126 Y109.931 E3.10691
G1 X104.328 Y109.009 E3.15566
G1 X102.839 Y108.150 E3.21099
G1 X97.080 Y108.149 E3.39631
G1 X95.602 Y109.006 E3.45127
G1 X96.808 Y109.931 E3.50017
G1 X98.177 Y111.715 E3.57253
G1 X99.037 Y113.793 E3.64489
G1 X99.331 Y116.022 E3.71724
G1 X99.037 Y118.251 E3.78960
G1 X95.339 Y127.180 E4.10058
G1 X86.410 Y123.481 E4.41157
G1 X84.626 Y122.113 E4.48392
G1 X83.258 Y120.329 E4.55628
G1 X82.397 Y118.251 E4.62864
G1 X82.104 Y116.022 E4.70100
G1 X82.397 Y113.793 E4.77335
G1 X83.258 Y111.715 E4.84571
G1 X84.626 Y109.931 E4.91807
G1 X86.410 Y108.562 E4.99043
G1 X88.488 Y107.702 E5.06278
G1 X90.717 Y107.408 E5.13514
G1 X92.946 Y107.702 E5.20750
G1 X94.344 Y108.281 E5.25616
G1 X94.340 Y106.571 E5.31117
G1 X91.460 Y101.581 E5.49657
G1 X89.985 Y100.729 E5.55140
G1 X89.787 Y102.230 E5.60011
G1 X88.927 Y104.307 E5.67246
G1 X87.558 Y106.091 E5.74482
G1 X85.774 Y107.460 E5.81718
G1 X83.696 Y108.321 E5.88954
G1 X74.115 Y109.582 E6.20052
G1 X72.854 Y100.000 E6.51150
G1 X73.147 Y97.771 E6.58386
G1 X74.008 Y95.694 E6.65622
G1 X75.376 Y93.910 E6.72857
G1 X77.160 Y92.541 E6.80093
G1 X79.238 Y91.680 E6.87329
G1 X81.467 Y91.387 E6.94565
G1 X83.696 Y91.680 E7.01800
G1 X85.774 Y92.541 E7.09036
G1 X87.558 Y93.910 E7.16272
G1 X88.927 Y95.694 E7.23508
G1 X89.787 Y97.771 E7.30743
G1 X89.985 Y99.272 E7.35614
G1 X91.460 Y98.420 E7.41097
G1 X94.340 Y93.430 E7.59637
G1 X94.344 Y91.720 E7.65138
G1 X92.946 Y92.299 E7.70004
G1 X90.717 Y92.593 E7.77240
G1 X88.488 Y92.299 E7.84476
G1 X86.410 Y91.439 E7.91711
G1 X84.626 Y90.070 E7.98947
G1 X78.743 Y82.403 E8.30046
G1 X86.410 Y76.519 E8.61144
G1 X88.488 Y75.659 E8.68380
G1 X90.717 Y75.365 E8.75615
G1 X92.946 Y75.659 E8.82851
G1 X95.024 Y76.519 E8.90087
G1 X96.808 Y77.888 E8.97323
G1 X98.177 Y79.672 E9.04558
G1 X99.037 Y81.750 E9.11794
G1 X99.331 Y83.979 E9.19030
G1 X99.037 Y86.208 E9.26266
G1 X98.177 Y88.286 E9.33501
G1 X96.808 Y90.070 E9.40737
G1 X95.602 Y90.995 E9.45627
G1 X97.080 Y91.852 E9.51124
G1 X102.835 Y91.852 E9.69644
G1 X104.322 Y90.987 E9.75180
G1 X103.126 Y90.070 E9.80031
G1 X101.758 Y88.286 E9.87266
G1 X100.897 Y86.208 E9.94502
G1 X100.604 Y83.979 E10.01738
G1 X100.897 Y81.750 E10.08974
G1 X104.595 Y72.821 E10.40072
G1 X113.524 Y76.519 E10.71170
G1 X115.308 Y77.888 E10.78406
G1 X116.677 Y79.672 E10.85642
G1 X117.537 Y81.750 E10.92878
G1 X117.831 Y83.979 E11.00113
G1 X117.537 Y86.208 E11.07349
G1 X116.677 Y88.286 E11.14585
G1 X115.308 Y90.070 E11.21821
G1 X113.524 Y91.439 E11.29056
G1 X111.446 Y92.299 E11.36292
G1 X109.217 Y92.593 E11.43528
G1 X106.988 Y92.299 E11.50763
G1 X105.570 Y91.712 E11.55700
G1 X105.576 Y93.429 E11.61224
G1 X108.456 Y98.420 E11.79768
G1 X109.948 Y99.281 E11.85312
G1 X110.147 Y97.771 E11.90214
G1 X111.008 Y95.694 E11.97450
G1 X112.376 Y93.910 E12.04685
G1 X114.160 Y92.541 E12.11921
G1 X116.238 Y91.680 E12.19157
G1 X125.819 Y90.419 E12.50255
G1 X127.081 Y100.000 E12.81353
G1 X126.787 Y102.230 E12.88589
G1 X125.927 Y104.307 E12.95825
G1 X124.558 Y106.091 E13.03061
G1 X122.774 Y107.460 E13.10296
G1 X120.697 Y108.321 E13.17532
G1 X118.467 Y108.614 E13.24768
G1 X116.238 Y108.321 E13.32004
G1 X114.160 Y107.460 E13.39239
G1 X112.376 Y106.091 E13.46475
G1 X111.008 Y104.307 E13.53711
G1 X110.147 Y102.230 E13.60947
G1 X109.948 Y100.720 E13.65848
G1 X108.456 Y101.581 E13.71393
G1 X105.576 Y106.569 E13.89926
G1 X105.577 Y108.286 E13.95452
G1 X106.988 Y107.702 E14.00365
G1 X109.217 Y107.408 E14.07601
G1 X111.446 Y107.702 E14.14837
G1 X113.524 Y108.562 E14.22072
G1 X115.308 Y109.931 E14.29308
G1 X121.155 Y117.551 E14.60213
G1 E12.60213 F2400.00000
G92 E0
G1 X95.001 Y126.363 F7800.000
G1 E2.00000 F2400.00000
G1 X86.725 Y122.936 E2.28823 F1800.000
G1 X85.072 Y121.667 E2.35529
G1 X83.803 Y120.014 E2.42235
G1 X83.006 Y118.088 E2.48942
G1 X82.734 Y116.022 E2.55648
G1 X83.006 Y113.956 E2.62354
G1 X83.803 Y112.030 E2.69060
G1 X85.072 Y110.377 E2.75767
G1 X86.725 Y109.108 E2.82473
G1 X88.651 Y108.311 E2.89179
G1 X90.717 Y108.039 E2.95886
G1 X92.783 Y108.311 E3.02592
G1 X94.709 Y109.108 E3.09298
G1 X96.362 Y110.377 E3.16004
G1 X97.631 Y112.030 E3.22711
G1 X98.428 Y113.956 E3.29417
G1 X98.700 Y116.022 E3.36123
G1 X98.428 Y118.088 E3.42830
G1 X95.024 Y126.308 E3.71459
G1 X94.663 Y125.547 F7800.000
G1 X87.041 Y122.390 E3.98006 F1800.000
G1 X85.518 Y121.221 E4.04183
G1 X84.349 Y119.698 E4.10360
G1 X83.615 Y117.925 E4.16537
G1 X83.364 Y116.022 E4.22714
G1 X83.615 Y114.119 E4.28891
G1 X84.349 Y112.345 E4.35067
G1 X85.518 Y110.823 E4.41244
G1 X87.041 Y109.654 E4.47421
G1 X88.814 Y108.919 E4.53598
G1 X90.717 Y108.669 E4.59775
G1 X92.620 Y108.919 E4.65951
G1 X94.394 Y109.654 E4.72128
G1 X95.917 Y110.823 E4.78305
G1 X97.085 Y112.345 E4.84482
G1 X97.820 Y114.119 E4.90659
G1 X98.070 Y116.022 E4.96836
G1 X97.820 Y117.925 E5.03012
G1 X94.685 Y125.491 E5.29366
G1 X94.509 Y125.916 F7800.000
G1 E3.29366 F2400.00000
G92 E0
G1 X74.653 Y108.881 F7800.000
G1 E2.00000 F2400.00000
G1 X73.484 Y100.000 E2.28823 F1800.000
G1 X73.756 Y97.934 E2.35529
G1 X74.553 Y96.009 E2.42235
G1 X75.822 Y94.355 E2.48942
G1 X77.476 Y93.087 E2.55648
G1 X79.401 Y92.289 E2.62354
G1 X81.467 Y92.017 E2.69060
G1 X83.533 Y92.289 E2.75767
G1 X85.459 Y93.087 E2.82473
G1 X87.112 Y94.355 E2.89179
G1 X88.381 Y96.009 E2.95886
G1 X89.178 Y97.934 E3.02592
G1 X89.450 Y100.000 E3.09298
G1 X89.178 Y102.067 E3.16004
G1 X88.381 Y103.992 E3.22711
G1 X87.112 Y105.645 E3.29417
G1 X85.459 Y106.914 E3.36123
G1 X83.533 Y107.712 E3.42830
G1 X74.712 Y108.873 E3.71459
G1 X75.191 Y108.180 F7800.000
G1 X74.114 Y100.000 E3.98006 F1800.000
G1 X74.365 Y98.097 E4.04183
G1 X75.099 Y96.324 E4.10360
G1 X76.268 Y94.801 E4.16537
G1 X77.791 Y93.633 E4.22714
G1 X79.564 Y92.898 E4.28891
G1 X81.467 Y92.647 E4.35067
G1 X83.370 Y92.898 E4.41244
G1 X85.144 Y93.633 E4.47421
G1 X86.667 Y94.801 E4.53598
G1 X87.835 Y96.324 E4.59775
G1 X88.570 Y98.097 E4.65951
G1 X88.820 Y100.000 E4.72128
G1 X88.570 Y101.904 E4.78305
G1 X87.835 Y103.677 E4.84482
G1 X86.667 Y105.200 E4.90659
G1 X85.144 Y106.368 E4.96836
G1 X83.370 Y107.103 E5.03012
G1 X75.250 Y108.172 E5.29366
G1 X74.794 Y108.232 F7800.000
G1 E3.29366 F2400.00000
G92 E0
G1 X79.619 Y82.518 F7800.000
G1 E2.00000 F2400.00000
G1 X86.725 Y77.065 E2.28823 F1800.000
G1 X88.651 Y76.268 E2.35529
G1 X90.717 Y75.996 E2.42235
G1 X92.783 Y76.268 E2.48942
G1 X94.709 Y77.065 E2.55648
G1 X96.362 Y78.334 E2.62354
G1 X97.631 Y79.987 E2.69060
G1 X98.428 Y81.913 E2.75767
G1 X98.700 Y83.979 E2.82473
G1 X98.428 Y86.045 E2.89179
G1 X97.631 Y87.971 E2.95886
G1 X96.362 Y89.624 E3.02592
G1 X94.709 Y90.893 E3.09298
G1 X92.783 Y91.690 E3.16004
G1 X90.717 Y91.962 E3.22711
G1 X88.651 Y91.690 E3.29417
G1 X86.725 Y90.893 E3.36123
G1 X85.072 Y89.624 E3.42830
G1 X79.656 Y82.566 E3.71459
G1 X80.496 Y82.633 F7800.000
G1 X87.041 Y77.611 E3.98006 F1800.000
G1 X88.814 Y76.877 E4.04183
G1 X90.717 Y76.626 E4.10360
G1 X92.620 Y76.877 E4.16537
G1 X94.394 Y77.611 E4.22714
G1 X95.917 Y78.780 E4.28890
G1 X97.085 Y80.302 E4.35067
G1 X97.820 Y82.076 E4.41244
G1 X98.070 Y83.979 E4.47421
G1 X97.820 Y85.882 E4.53598
G1 X97.085 Y87.655 E4.59775
G1 X95.917 Y89.178 E4.65951
G1 X94.394 Y90.347 E4.72128
G1 X92.620 Y91.081 E4.78305
G1 X90.717 Y91.332 E4.84482
G1 X88.814 Y91.081 E4.90659
G1 X87.041 Y90.347 E4.96836
G1 X85.518 Y89.178 E5.03012
G1 X80.532 Y82.681 E5.29366
G1 X80.252 Y82.316 F7800.000
G1 E3.29366 F2400.00000
G92 E0
G1 X104.934 Y73.638 F7800.000
G1 E2.00000 F2400.00000
G1 X113.209 Y77.065 E2.28823 F1800.000
G1 X114.862 Y78.334 E2.35529
G1 X116.131 Y79.987 E2.42235
G1 X116.928 Y81.913 E2.48942
G1 X117.200 Y83.979 E2.55648
G1 X116.928 Y86.045 E2.62354
G1 X116.131 Y87.971 E2.69060
G1 X114.862 Y89.624 E2.75767
G1 X113.209 Y90.893 E2.82473
G1 X111.283 Y91.690 E2.89179
G1 X109.217 Y91.962 E2.95886
G1 X107.151 Y91.690 E3.02592
G1 X105.225 Y90.893 E3.09298
G1 X103.572 Y89.624 E3.16004
G1 X102.303 Y87.971 E3.22711
G1 X101.506 Y86.045 E3.29417
G1 X101.234 Y83.979 E3.36123
G1 X101.506 Y81.913 E3.42830
G1 X104.911 Y73.693 E3.71459
G1 X105.272 Y74.454 F7800.000
G1 X112.894 Y77.611 E3.98006 F1800.000
G1 X114.417 Y78.780 E4.04183
G1 X115.585 Y80.302 E4.10360
G1 X116.320 Y82.076 E4.16537
G1 X116.570 Y83.979 E4.22714
G1 X116.320 Y85.882 E4.28890
G1 X115.585 Y87.655 E4.35067
G1 X114.417 Y89.178 E4.41244
G1 X112.894 Y90.347 E4.47421
G1 X111.120 Y91.081 E4.53598
G1 X109.217 Y91.332 E4.59775
G1 X107.314 Y91.081 E4.65951
G1 X105.541 Y90.347 E4.72128
G1 X104.018 Y89.178 E4.78305
G1 X102.849 Y87.655 E4.84482
G1 X102.115 Y85.882 E4.90659
G1 X101.864 Y83.979 E4.96836
G1 X102.115 Y82.076 E5.03012
G1 X105.249 Y74.509 E5.29366
G1 X105.425 Y74.084 F7800.000
G1 E3.29366 F2400.00000
G92 E0
G1 X104.944 Y91.348 F7800.000
G1 E2.00000 F2400.00000
G1 X104.952 Y93.597 E2.07235 F1800.000
G1 X107.999 Y98.877 E2.26853
G1 X109.944 Y100.000 E2.34081
G1 X107.998 Y101.124 E2.41311
G1 X104.951 Y106.401 E2.60922
G1 X104.953 Y108.648 E2.68149
G1 X103.006 Y107.525 E2.75380
G1 X96.912 Y107.524 E2.94990
G1 X94.969 Y108.651 E3.02216
G1 X94.965 Y106.403 E3.09449
G1 X91.918 Y101.124 E3.29064
G1 X89.972 Y100.000 E3.36293
G1 X91.918 Y98.877 E3.43522
G1 X94.965 Y93.598 E3.63137
G1 X94.969 Y91.350 E3.70370
G1 X96.912 Y92.477 E3.77596
G1 X103.004 Y92.477 E3.97199
G1 X104.892 Y91.379 E4.04230
G1 X104.323 Y92.433 F7800.000
G1 X104.327 Y93.765 E4.08517 F1800.000
G1 X107.541 Y99.335 E4.29209
G1 X108.694 Y100.000 E4.33494
G1 X107.541 Y100.666 E4.37779
G1 X104.326 Y106.234 E4.58468
G1 X104.327 Y107.566 E4.62753
G1 X103.173 Y106.901 E4.67039
G1 X96.744 Y106.899 E4.87728
G1 X95.592 Y107.567 E4.92012
G1 X95.589 Y106.235 E4.96298
G1 X92.375 Y100.666 E5.16989
G1 X91.222 Y100.000 E5.21274
G1 X92.375 Y99.335 E5.25559
G1 X95.589 Y93.766 E5.46250
G1 X95.592 Y92.434 E5.50536
G1 X96.744 Y93.102 E5.54820
G1 X103.172 Y93.102 E5.75507
G1 X104.271 Y92.463 E5.79597
G1 X104.717 Y92.362 F7800.000
G1 X120.315 Y117.483 F7800.000
G1 X113.209 Y122.936 E6.08420 F1800.000
G1 X111.283 Y123.733 E6.15126
G1 X109.217 Y124.005 E6.21832
G1 X107.151 Y123.733 E6.28539
G1 X105.399 Y123.007 E6.34641
G1 X105.225 Y122.936 E6.35245
G1 X103.572 Y121.667 E6.41951
G1 X102.303 Y120.014 E6.48657
G1 X102.232 Y119.840 E6.49261
G1 X101.506 Y118.088 E6.55364
G1 X101.234 Y116.022 E6.62070
G1 X101.506 Y113.956 E6.68776
G1 X102.303 Y112.030 E6.75483
G1 X103.572 Y110.377 E6.82189
G1 X105.225 Y109.108 E6.88895
G1 X107.151 Y108.311 E6.95601
G1 X109.217 Y108.039 E7.02308
G1 X111.283 Y108.311 E7.09014
G1 X113.209 Y109.108 E7.15720
G1 X114.862 Y110.377 E7.22427
G1 X120.278 Y117.435 E7.51056
G1 X119.439 Y117.368 F7800.000
G1 X112.894 Y122.390 E7.77603 F1800.000
G1 X111.120 Y123.124 E7.83780
G1 X109.217 Y123.375 E7.89957
G1 X107.314 Y123.124 E7.96134
G1 X105.638 Y122.430 E8.01972
G1 X105.541 Y122.390 E8.02311
G1 X104.018 Y121.221 E8.08488
G1 X102.849 Y119.698 E8.14664
G1 X102.809 Y119.601 E8.15003
G1 X102.115 Y117.925 E8.20841
G1 X101.864 Y116.022 E8.27018
G1 X102.115 Y114.119 E8.33195
G1 X102.849 Y112.345 E8.39372
G1 X104.018 Y110.823 E8.45548
G1 X105.541 Y109.654 E8.51725
G1 X107.314 Y108.919 E8.57902
G1 X109.217 Y108.669 E8.64079
G1 X111.120 Y108.919 E8.70256
G1 X112.894 Y109.654 E8.76433
G1 X114.417 Y110.823 E8.82609
G1 X119.402 Y117.320 E9.08964
G1 X119.682 Y117.685 F7800.000
G1 E7.08964 F2400.00000
G92 E0
