; generated by Slic3r 1.2.9 on 2019-07-18 at 07:07:41

; external perimeters extrusion width = 0.40mm
; perimeters extrusion width = 0.48mm
; infill extrusion width = 0.48mm
; solid infill extrusion width = 0.48mm
; top infill extrusion width = 0.48mm

M107
M190 S65 ; set bed temperature
M104 S200 ; set temperature
G28 ; home all axes
G1 Z5 F5000 ; lift nozzle

M109 S200 ; wait for temperature to be reached
G21 ; set units to millimeters
G90 ; use absolute coordinates
M82 ; use absolute distances for extrusion
G92 E0
G1 Z0.350 F7800.000
G1 E-2.00000 F2400.00000
G92 E0
G1 X62.915 Y53.753 F7800.000
G1 E2.00000 F2400.00000
G1 X64.668 Y52.274 E2.07380 F1800.000
G1 X66.820 Y51.481 E2.14760
G1 X68.000 Y51.375 E2.18572
G1 X132.000 Y51.375 E4.24517
G1 X134.259 Y51.772 E4.31897
G1 X136.247 Y52.915 E4.39277 F1800.000
G1 X137.726 Y54.668 E4.46658
G1 X138.519 Y56.820 E4.54038
G1 X138.625 Y58.000 E4.57849
G1 X138.617 Y110.325 E6.26225
G1 X138.463 Y113.462 E6.36332
G1 X138.399 Y114.110 E6.38426
G1 X137.938 Y117.216 E6.48531
G1 X137.802 Y117.891 E6.50746
G1 X137.048 Y120.899 E6.60726
G1 X136.860 Y121.519 E6.62812
G1 X135.802 Y124.478 E6.72923
G1 X135.553 Y125.079 E6.75017
G1 X134.210 Y127.918 E6.85123
G1 X133.904 Y128.490 E6.87212
G1 X132.304 Y131.160 E6.97228
G1 X131.929 Y131.724 E6.99407
G1 X130.057 Y134.247 E7.09516
G1 X129.644 Y134.751 E7.11612
G1 X127.535 Y137.077 E7.21716
G1 X127.077 Y137.535 E7.23798
G1 X124.751 Y139.644 E7.33903
G1 X124.216 Y140.080 E7.36124
G1 X121.724 Y141.928 E7.46108
G1 X121.185 Y142.289 E7.48195
G1 X118.490 Y143.904 E7.58304
G1 X117.918 Y144.209 E7.60391
G1 X115.079 Y145.553 E7.70499
G1 X114.478 Y145.802 E7.72593
G1 X111.521 Y146.860 E7.82699
G1 X110.873 Y147.055 E7.84875
G1 X107.853 Y147.811 E7.94895
G1 X107.216 Y147.938 E7.96985
G1 X104.110 Y148.399 E8.07090
G1 X103.462 Y148.463 E8.09184
G1 X100.324 Y148.617 E8.19293
G1 X99.677 Y148.617 E8.21376
G1 X96.538 Y148.463 E8.31488
G1 X95.891 Y148.399 E8.33582
G1 X92.784 Y147.938 E8.43687
G1 X92.147 Y147.811 E8.45777
G1 X89.101 Y147.048 E8.55882
G1 X88.480 Y146.860 E8.57972
G1 X85.522 Y145.802 E8.68080
G1 X84.921 Y145.553 E8.70174
G1 X82.082 Y144.210 E8.80280
G1 X81.486 Y143.890 E8.82456
G1 X78.816 Y142.289 E8.92473
G1 X78.276 Y141.929 E8.94562
G1 X75.753 Y140.057 E9.04672
G1 X75.249 Y139.644 E9.06769
G1 X72.923 Y137.535 E9.16873
G1 X72.465 Y137.077 E9.18956
G1 X70.356 Y134.751 E9.29060
G1 X69.943 Y134.247 E9.31156
G1 X68.072 Y131.724 E9.41265
G1 X67.711 Y131.185 E9.43353
G1 X66.097 Y128.491 E9.53459
G1 X65.790 Y127.918 E9.55549
G1 X64.447 Y125.079 E9.65655
G1 X64.198 Y124.478 E9.67749
G1 X63.140 Y121.521 E9.77856
G1 X62.952 Y120.899 E9.79946
G1 X62.189 Y117.853 E9.90052
G1 X62.062 Y117.216 E9.92141
G1 X61.601 Y114.110 E10.02246
G1 X61.537 Y113.462 E10.04340
G1 X61.375 Y110.000 E10.15493
G1 X61.375 Y58.000 E11.82824
G1 X61.772 Y55.741 E11.90204
G1 X62.886 Y53.805 E11.97391
G1 E9.97391 F2400.00000
G92 E0
G1 X91.284 Y122.958 F7800.000
G1 E2.00000 F2400.00000
G1 X91.526 Y123.966 E2.03336 F1800.000
G1 X91.608 Y125.000 E2.06675
G1 X91.523 Y126.065 E2.10112
G1 X91.282 Y127.046 E2.13364
G1 X90.886 Y128.000 E2.16687
G1 X90.345 Y128.883 E2.20021
G1 X89.672 Y129.672 E2.23357
G1 X88.883 Y130.345 E2.26694
G1 X88.000 Y130.886 E2.30027
G1 X87.042 Y131.284 E2.33364
G1 X86.033 Y131.526 E2.36703
G1 X85.000 Y131.607 E2.40038
G1 X83.967 Y131.526 E2.43373
G1 X82.958 Y131.284 E2.46713
G1 X82.000 Y130.886 E2.50050
G1 X81.117 Y130.345 E2.53383
G1 X80.328 Y129.672 E2.56720
G1 X79.655 Y128.883 E2.60056
G1 X79.114 Y128.000 E2.63389
G1 X78.716 Y127.042 E2.66726
G1 X78.474 Y126.033 E2.70066
G1 X78.393 Y125.000 E2.73401
G1 X78.474 Y123.967 E2.76736
G1 X78.716 Y122.958 E2.80075
G1 X79.114 Y122.000 E2.83412
G1 X79.655 Y121.117 E2.86745
G1 X80.328 Y120.328 E2.90082
G1 X81.117 Y119.655 E2.93418
G1 X82.000 Y119.114 E2.96752
G1 X82.958 Y118.716 E3.00089
G1 X83.966 Y118.474 E3.03425
G1 X84.977 Y118.394 E3.06690 F1800.000
G1 X86.031 Y118.473 E3.10091
G1 X87.042 Y118.716 E3.13437
G1 X88.000 Y119.114 E3.16774
G1 X88.883 Y119.655 E3.20108
G1 X89.672 Y120.328 E3.23444
G1 X90.345 Y121.117 E3.26781
G1 X90.886 Y122.000 E3.30114
G1 X91.261 Y122.902 E3.33258
G1 X90.688 Y123.152 F7800.000
G1 X90.907 Y124.064 E3.36277 F1800.000
G1 X90.981 Y125.000 E3.39299
G1 X90.905 Y125.965 E3.42414
G1 X90.687 Y126.851 E3.45349
G1 X90.328 Y127.715 E3.48361
G1 X89.838 Y128.515 E3.51379
G1 X89.228 Y129.228 E3.54399
G1 X88.515 Y129.838 E3.57419
G1 X87.715 Y130.328 E3.60437
G1 X86.848 Y130.688 E3.63457
G1 X85.935 Y130.907 E3.66478
G1 X85.000 Y130.980 E3.69497
G1 X84.064 Y130.907 E3.72517
G1 X83.152 Y130.688 E3.75538
G1 X82.285 Y130.328 E3.78558
G1 X81.485 Y129.838 E3.81576
G1 X80.772 Y129.228 E3.84596
G1 X80.162 Y128.515 E3.87616
G1 X79.672 Y127.715 E3.90634
G1 X79.312 Y126.848 E3.93654
G1 X79.093 Y125.936 E3.96675
G1 X79.020 Y125.000 E3.99695
G1 X79.093 Y124.064 E4.02714
G1 X79.312 Y123.152 E4.05735
G1 X79.672 Y122.285 E4.08756
G1 X80.162 Y121.485 E4.11773
G1 X80.772 Y120.772 E4.14793
G1 X81.485 Y120.162 E4.17814
G1 X82.285 Y119.672 E4.20831
G1 X83.152 Y119.312 E4.23851
G1 X84.064 Y119.093 E4.26871
G1 X84.979 Y119.021 E4.29823 F1800.000
G1 X85.934 Y119.093 E4.32907
G1 X86.848 Y119.312 E4.35932
G1 X87.715 Y119.672 E4.38953
G1 X88.515 Y120.162 E4.41970
G1 X89.228 Y120.772 E4.44990
G1 X89.838 Y121.485 E4.48011
G1 X90.328 Y122.285 E4.51028
G1 X90.665 Y123.096 E4.53855
G1 X90.092 Y123.345 F7800.000
G1 X90.288 Y124.162 E4.56558 F1800.000
G1 X90.354 Y125.000 E4.59263
G1 X90.286 Y125.865 E4.62056
G1 X90.092 Y126.655 E4.64674
G1 X89.770 Y127.431 E4.67374
G1 X89.331 Y128.146 E4.70076
G1 X88.785 Y128.785 E4.72780
G1 X88.146 Y129.331 E4.75484
G1 X87.431 Y129.770 E4.78186
G1 X86.655 Y130.092 E4.80889
G1 X85.838 Y130.288 E4.83592
G1 X85.000 Y130.353 E4.86296
G1 X84.162 Y130.288 E4.89000
G1 X83.345 Y130.092 E4.91703
G1 X82.569 Y129.770 E4.94407
G1 X81.854 Y129.331 E4.97108
G1 X81.215 Y128.785 E4.99812
G1 X80.669 Y128.146 E5.02516
G1 X80.230 Y127.431 E5.05218
G1 X79.908 Y126.655 E5.07921
G1 X79.712 Y125.838 E5.10624
G1 X79.647 Y125.000 E5.13328
G1 X79.712 Y124.162 E5.16032
G1 X79.908 Y123.345 E5.18735
G1 X80.230 Y122.569 E5.21439
G1 X80.669 Y121.854 E5.24141
G1 X81.215 Y121.215 E5.26844
G1 X81.854 Y120.669 E5.29548
G1 X82.569 Y120.230 E5.32250
G1 X83.345 Y119.908 E5.34953
G1 X84.162 Y119.712 E5.37656
G1 X84.980 Y119.648 E5.40295 F1800.000
G1 X85.837 Y119.712 E5.43063
G1 X86.655 Y119.908 E5.45767
G1 X87.431 Y120.230 E5.48471
G1 X88.146 Y120.669 E5.51173
G1 X88.785 Y121.215 E5.53876
G1 X89.331 Y121.854 E5.56580
G1 X89.770 Y122.569 E5.59282
G1 X90.069 Y123.290 E5.61792
G1 X90.481 Y123.439 F7800.000
G1 E3.61792 F2400.00000
G92 E0
G1 X75.554 Y108.807 F7800.000
G1 E2.00000 F2400.00000
G1 X75.335 Y109.027 E2.00999 F1800.000
G1 X74.463 Y109.470 E2.04145
G1 X73.500 Y109.621 E2.07282
G1 X72.537 Y109.470 E2.10419
G1 X71.665 Y109.027 E2.13564
G1 X70.973 Y108.335 E2.16716
G1 X70.530 Y107.463 E2.19861
G1 X70.379 Y106.500 E2.22998
G1 X70.530 Y105.537 E2.26135
G1 X70.973 Y104.665 E2.29281
G1 X71.665 Y103.973 E2.32432
G1 X72.535 Y103.531 E2.35573
G1 X73.459 Y103.384 E2.38582 F1800.000
G1 X74.452 Y103.524 E2.41810
G1 X75.335 Y103.973 E2.44995
G1 X76.027 Y104.665 E2.48146
G1 X76.469 Y105.535 E2.51287
G1 X76.623 Y106.500 E2.54430
G1 X76.469 Y107.465 E2.57573
G1 X76.027 Y108.335 E2.60713
G1 X75.596 Y108.765 E2.62673
G1 X75.112 Y108.366 F7800.000
G1 X74.963 Y108.515 E2.63352 F1800.000
G1 X74.268 Y108.868 E2.65860
G1 X73.500 Y108.989 E2.68362
G1 X72.732 Y108.868 E2.70864
G1 X72.037 Y108.515 E2.73372
G1 X71.485 Y107.963 E2.75884
G1 X71.132 Y107.268 E2.78392
G1 X71.011 Y106.500 E2.80894
G1 X71.132 Y105.732 E2.83396
G1 X71.485 Y105.037 E2.85904
G1 X72.037 Y104.485 E2.88416
G1 X72.731 Y104.132 E2.90920
G1 X73.464 Y104.015 E2.93311 F1800.000
G1 X74.261 Y104.129 E2.95901
G1 X74.963 Y104.485 E2.98433
G1 X75.515 Y105.037 E3.00945
G1 X75.868 Y105.731 E3.03449
G1 X75.990 Y106.500 E3.05955
G1 X75.868 Y107.269 E3.08461
G1 X75.515 Y107.963 E3.10966
G1 X75.155 Y108.323 E3.12606
G1 X74.670 Y107.924 F7800.000
G1 X74.591 Y108.003 E3.12965 F1800.000
G1 X74.073 Y108.266 E3.14835
G1 X73.500 Y108.356 E3.16702
G1 X72.927 Y108.266 E3.18570
G1 X72.409 Y108.003 E3.20439
G1 X71.997 Y107.591 E3.22313
G1 X71.734 Y107.073 E3.24183
G1 X71.644 Y106.500 E3.26050
G1 X71.734 Y105.927 E3.27917
G1 X71.997 Y105.409 E3.29787
G1 X72.409 Y104.997 E3.31660
G1 X72.926 Y104.734 E3.33529
G1 X73.470 Y104.647 E3.35299 F1800.000
G1 X74.071 Y104.733 E3.37252
G1 X74.591 Y104.997 E3.39131
G1 X75.003 Y105.409 E3.41004
G1 X75.266 Y105.926 E3.42873
G1 X75.357 Y106.500 E3.44741
G1 X75.266 Y107.074 E3.46610
G1 X75.003 Y107.591 E3.48479
G1 X74.713 Y107.881 E3.49799
G1 X74.699 Y108.032 F7800.000
G1 X91.398 Y118.602 F7800.000
G1 X91.398 Y90.397 E4.40559 F1800.000
G1 X92.398 Y90.397 E4.43777
G1 X92.398 Y83.397 E4.66302
G1 X107.603 Y83.397 E5.15229
G1 X107.603 Y90.397 E5.37754
G1 X108.603 Y90.397 E5.40972
G1 X108.603 Y118.602 E6.31731
G1 X91.458 Y118.602 E6.86900
G1 X92.023 Y117.977 F7800.000
G1 X92.023 Y91.022 E7.73638 F1800.000
G1 X107.978 Y91.022 E8.24979
G1 X107.978 Y117.977 E9.11717
G1 X92.083 Y117.977 E9.62864
G1 X92.648 Y117.352 F7800.000
G1 X92.648 Y91.647 E10.45580 F1800.000
G1 X107.353 Y91.647 E10.92900
G1 X107.353 Y117.352 E11.75616
G1 X92.708 Y117.352 E12.22742
G1 X92.248 Y117.352 F7800.000
G1 E10.22742 F2400.00000
G92 E0
G1 X93.023 Y89.977 F7800.000
G1 E2.00000 F2400.00000
G1 X93.023 Y84.022 E2.19162 F1800.000
G1 X106.978 Y84.022 E2.64067
G1 X106.978 Y89.977 E2.83229
G1 X93.083 Y89.977 E3.27941
G1 X93.648 Y89.352 F7800.000
G1 X93.648 Y84.647 E3.43081 F1800.000
G1 X106.353 Y84.647 E3.83964
G1 X106.353 Y89.352 E3.99104
G1 X93.708 Y89.352 E4.39795
G1 X93.248 Y89.352 F7800.000
G1 X75.334 Y66.027 F7800.000
G1 X74.463 Y66.470 E4.42941 F1800.000
G1 X73.500 Y66.621 E4.46078
G1 X72.537 Y66.470 E4.49215
G1 X71.665 Y66.027 E4.52361
G1 X70.973 Y65.335 E4.55512
G1 X70.530 Y64.463 E4.58658
G1 X70.379 Y63.500 E4.61795
G1 X70.530 Y62.537 E4.64931
G1 X70.973 Y61.665 E4.68077
G1 X71.665 Y60.973 E4.71228
G1 X72.535 Y60.531 E4.74369
G1 X73.500 Y60.377 E4.77512 F1800.000
G1 X74.465 Y60.531 E4.80655
G1 X75.334 Y60.973 E4.83795
G1 X76.027 Y61.665 E4.86946
G1 X76.469 Y62.535 E4.90087
G1 X76.623 Y63.500 E4.93230
G1 X76.469 Y64.465 E4.96373
G1 X76.027 Y65.335 E4.99513
G1 X75.377 Y65.984 E5.02471
G1 X74.963 Y65.515 F7800.000
G1 X74.268 Y65.868 E5.04979 F1800.000
G1 X73.500 Y65.989 E5.07481
G1 X72.732 Y65.868 E5.09983
G1 X72.037 Y65.515 E5.12491
G1 X71.485 Y64.963 E5.15003
G1 X71.132 Y64.268 E5.17511
G1 X71.011 Y63.500 E5.20013
G1 X71.132 Y62.732 E5.22515
G1 X71.485 Y62.037 E5.25023
G1 X72.037 Y61.485 E5.27535
G1 X72.731 Y61.132 E5.30040
G1 X73.500 Y61.010 E5.32546 F1800.000
G1 X74.269 Y61.132 E5.35052
G1 X74.963 Y61.485 E5.37556
G1 X75.515 Y62.037 E5.40068
G1 X75.868 Y62.731 E5.42573
G1 X75.990 Y63.500 E5.45079
G1 X75.868 Y64.269 E5.47585
G1 X75.515 Y64.963 E5.50089
G1 X75.005 Y65.472 E5.52408
G1 X74.591 Y65.003 F7800.000
G1 X74.073 Y65.266 E5.54278 F1800.000
G1 X73.500 Y65.356 E5.56145
G1 X72.927 Y65.266 E5.58012
G1 X72.409 Y65.003 E5.59882
G1 X71.997 Y64.591 E5.61756
G1 X71.734 Y64.073 E5.63625
G1 X71.644 Y63.500 E5.65493
G1 X71.734 Y62.927 E5.67360
G1 X71.997 Y62.409 E5.69230
G1 X72.409 Y61.997 E5.71103
G1 X72.926 Y61.734 E5.72971
G1 X73.500 Y61.643 E5.74840 F1800.000
G1 X74.074 Y61.734 E5.76709
G1 X74.591 Y61.997 E5.78578
G1 X75.003 Y62.409 E5.80451
G1 X75.266 Y62.926 E5.82320
G1 X75.357 Y63.500 E5.84189
G1 X75.266 Y64.074 E5.86057
G1 X75.003 Y64.591 E5.87926
G1 X74.634 Y64.960 E5.89606
G1 X74.612 Y65.402 F7800.000
G1 E3.89606 F2400.00000
G92 E0
G1 X123.973 Y104.666 F7800.000
G1 E2.00000 F2400.00000
G1 X124.665 Y103.973 E2.03151 F1800.000
G1 X125.535 Y103.531 E2.06292
G1 X126.500 Y103.377 E2.09435 F1800.000
G1 X127.465 Y103.531 E2.12578
G1 X128.335 Y103.973 E2.15718
G1 X129.027 Y104.666 E2.18869
G1 X129.469 Y105.535 E2.22009
G1 X129.623 Y106.500 E2.25152
G1 X129.469 Y107.465 E2.28295
G1 X129.027 Y108.334 E2.31436
G1 X128.335 Y109.027 E2.34587
G1 X127.463 Y109.470 E2.37733
G1 X126.500 Y109.621 E2.40870
G1 X125.537 Y109.470 E2.44007
G1 X124.665 Y109.027 E2.47153
G1 X123.973 Y108.334 E2.50304
G1 X123.531 Y107.465 E2.53444
G1 X123.377 Y106.500 E2.56587
G1 X123.531 Y105.535 E2.59730
G1 X123.946 Y104.719 E2.62678
G1 X124.485 Y105.037 F7800.000
G1 X125.037 Y104.485 E2.65190 F1800.000
G1 X125.731 Y104.132 E2.67694
G1 X126.500 Y104.010 E2.70200 F1800.000
G1 X127.269 Y104.132 E2.72706
G1 X127.963 Y104.485 E2.75211
G1 X128.515 Y105.037 E2.77723
G1 X128.868 Y105.731 E2.80227
G1 X128.990 Y106.500 E2.82733
G1 X128.868 Y107.269 E2.85239
G1 X128.515 Y107.963 E2.87744
G1 X127.963 Y108.515 E2.90256
G1 X127.268 Y108.868 E2.92764
G1 X126.500 Y108.989 E2.95266
G1 X125.732 Y108.868 E2.97768
G1 X125.037 Y108.515 E3.00276
G1 X124.485 Y107.963 E3.02788
G1 X124.132 Y107.269 E3.05292
G1 X124.010 Y106.500 E3.07798
G1 X124.132 Y105.731 E3.10304
G1 X124.458 Y105.091 E3.12616
G1 X124.997 Y105.409 F7800.000
G1 X125.409 Y104.997 E3.14489 F1800.000
G1 X125.926 Y104.734 E3.16358
G1 X126.500 Y104.643 E3.18227 F1800.000
G1 X127.073 Y104.734 E3.20095
G1 X127.591 Y104.997 E3.21964
G1 X128.003 Y105.409 E3.23837
G1 X128.266 Y105.926 E3.25706
G1 X128.357 Y106.500 E3.27575
G1 X128.266 Y107.074 E3.29444
G1 X128.003 Y107.591 E3.31312
G1 X127.591 Y108.003 E3.33185
G1 X127.073 Y108.266 E3.35055
G1 X126.500 Y108.356 E3.36922
G1 X125.927 Y108.266 E3.38789
G1 X125.409 Y108.003 E3.40659
G1 X124.997 Y107.591 E3.42533
G1 X124.734 Y107.074 E3.44401
G1 X124.643 Y106.500 E3.46270
G1 X124.734 Y105.926 E3.48139
G1 X124.970 Y105.462 E3.49815
G1 X124.854 Y105.035 F7800.000
G1 X130.400 Y59.600 F7800.000
G1 X130.400 Y109.961 E5.11871 F1800.000
G1 X130.252 Y112.980 E5.21598
G1 X129.814 Y115.930 E5.31197
G1 X129.089 Y118.824 E5.40796
G1 X128.084 Y121.633 E5.50396
G1 X126.808 Y124.330 E5.59996
G1 X125.275 Y126.888 E5.69594
G1 X123.498 Y129.285 E5.79195
G1 X121.494 Y131.494 E5.88793
G1 X119.285 Y133.498 E5.98390
G1 X116.879 Y135.281 E6.08028
G1 X114.330 Y136.808 E6.17589
G1 X111.634 Y138.084 E6.27188
G1 X108.798 Y139.096 E6.36876
G1 X105.930 Y139.814 E6.46388
G1 X102.980 Y140.252 E6.55987
G1 X100.000 Y140.398 E6.65588
G1 X97.020 Y140.252 E6.75188
G1 X94.070 Y139.814 E6.84787
G1 X91.176 Y139.089 E6.94386
G1 X88.367 Y138.084 E7.03986
G1 X85.670 Y136.808 E7.13586
G1 X83.112 Y135.275 E7.23184
G1 X80.715 Y133.498 E7.32785
G1 X78.506 Y131.494 E7.42383
G1 X76.502 Y129.285 E7.51980
G1 X74.719 Y126.879 E7.61618
G1 X73.192 Y124.330 E7.71179
G1 X71.916 Y121.633 E7.80780
G1 X70.911 Y118.824 E7.90380
G1 X70.186 Y115.930 E7.99979
G1 X69.748 Y112.980 E8.09577
G1 X69.600 Y109.961 E8.19305
G1 X69.600 Y59.600 E9.81361
G1 X130.340 Y59.600 E11.76818
G1 X131.025 Y58.975 F7800.000
G1 X131.025 Y109.976 E13.40934 F1800.000
G1 X130.875 Y113.041 E13.50810
G1 X130.428 Y116.053 E13.60605
G1 X129.688 Y119.006 E13.70402
G1 X128.662 Y121.872 E13.80200
G1 X127.360 Y124.625 E13.89998
G1 X125.795 Y127.236 E13.99793
G1 X123.982 Y129.682 E14.09592
G1 X121.937 Y131.937 E14.19387
G1 X119.682 Y133.981 E14.29182
G1 X117.226 Y135.801 E14.39018
G1 X114.625 Y137.360 E14.48776
G1 X111.873 Y138.662 E14.58573
G1 X108.979 Y139.695 E14.68459
G1 X106.053 Y140.428 E14.78168
G1 X103.041 Y140.875 E14.87964
G1 X100.000 Y141.024 E14.97762
G1 X96.959 Y140.875 E15.07561
G1 X93.947 Y140.428 E15.17357
G1 X90.994 Y139.688 E15.27153
G1 X88.128 Y138.662 E15.36951
G1 X85.375 Y137.360 E15.46749
G1 X82.764 Y135.795 E15.56544
G1 X80.318 Y133.982 E15.66343
G1 X78.063 Y131.937 E15.76138
G1 X76.019 Y129.682 E15.85933
G1 X74.199 Y127.226 E15.95769
G1 X72.640 Y124.625 E16.05528
G1 X71.338 Y121.872 E16.15326
G1 X70.312 Y119.006 E16.25123
G1 X69.572 Y116.053 E16.34920
G1 X69.125 Y113.041 E16.44716
G1 X68.975 Y109.976 E16.54591
G1 X68.975 Y58.975 E18.18708
G1 X130.965 Y58.975 E20.18186
G1 X131.650 Y58.350 F7800.000
G1 X131.650 Y109.991 E21.84363 F1800.000
G1 X131.497 Y113.103 E21.94386
G1 X131.041 Y116.175 E22.04380
G1 X130.287 Y119.187 E22.14374
G1 X129.240 Y122.112 E22.24369
G1 X127.912 Y124.920 E22.34365
G1 X126.316 Y127.583 E22.44357
