; generated by Slic3r 1.2.9 on 2019-08-29 at 18:30:27

; external perimeters extrusion width = 0.40mm
; perimeters extrusion width = 0.56mm
; infill extrusion width = 0.56mm
; solid infill extrusion width = 0.56mm
; top infill extrusion width = 0.56mm

M107
M190 S65 ; set bed temperature
M104 S200 ; set temperature
G28 ; home all axes
G1 Z5 F5000 ; lift nozzle

M109 S200 ; wait for temperature to be reached
G21 ; set units to millimeters
G90 ; use absolute coordinates
M82 ; use absolute distances for extrusion
G92 E0
G1 Z0.350 F7800.000
G1 E-2.00000 F2400.00000
G92 E0
G1 X67.911 Y87.143 F7800.000
G1 E2.00000 F2400.00000
G1 X86.598 Y72.579 E2.76238 F1800.000
G1 X88.624 Y71.504 E2.83618
G1 X90.671 Y71.180 E2.90286
G1 X109.271 Y71.180 E3.50139
G1 X111.529 Y71.577 E3.57519
G1 X113.085 Y72.388 E3.63165 F1800.000
G1 X133.675 Y86.888 E4.44202
G1 X135.293 Y88.514 E4.51582
G1 X136.260 Y90.593 E4.58962
G1 X136.480 Y92.565 E4.65347
G1 X136.388 Y94.910 E4.72899
G1 X136.347 Y95.429 E4.74574
G1 X136.072 Y97.760 E4.82126
G1 X135.990 Y98.273 E4.83800
G1 X135.532 Y100.575 E4.91352
G1 X135.411 Y101.081 E4.93025
G1 X134.774 Y103.340 E5.00577
G1 X134.613 Y103.834 E5.02251
G1 X133.801 Y106.036 E5.09804
G1 X133.602 Y106.517 E5.11478
G1 X132.619 Y108.648 E5.19030
G1 X132.383 Y109.112 E5.20704
G1 X131.236 Y111.160 E5.28257
G1 X130.964 Y111.603 E5.29930
G1 X129.660 Y113.555 E5.37482
G1 X129.355 Y113.975 E5.39156
G1 X127.902 Y115.818 E5.46709
G1 X127.564 Y116.214 E5.48383
G1 X125.971 Y117.937 E5.55935
G1 X125.603 Y118.305 E5.57608
G1 X123.880 Y119.898 E5.65161
G1 X123.484 Y120.236 E5.66834
G1 X121.641 Y121.689 E5.74387
G1 X121.220 Y121.995 E5.76061
G1 X119.269 Y123.299 E5.83613
G1 X118.825 Y123.570 E5.85286
G1 X116.777 Y124.717 E5.92839
G1 X116.314 Y124.954 E5.94513
G1 X114.183 Y125.936 E6.02065
G1 X113.702 Y126.135 E6.03739
G1 X111.500 Y126.948 E6.11292
G1 X111.005 Y127.108 E6.12966
G1 X108.746 Y127.745 E6.20518
G1 X108.241 Y127.867 E6.22191
G1 X105.939 Y128.325 E6.29744
G1 X105.425 Y128.406 E6.31417
G1 X103.094 Y128.682 E6.38970
G1 X102.576 Y128.723 E6.40644
G1 X100.231 Y128.815 E6.48196
G1 X99.711 Y128.815 E6.49870
G1 X97.365 Y128.723 E6.57422
G1 X96.789 Y128.675 E6.59285
G1 X94.516 Y128.406 E6.66649
G1 X94.002 Y128.325 E6.68322
G1 X91.700 Y127.867 E6.75875
G1 X91.195 Y127.745 E6.77548
G1 X88.936 Y127.108 E6.85100
G1 X88.441 Y126.948 E6.86774
G1 X86.239 Y126.135 E6.94326
G1 X85.759 Y125.936 E6.96000
G1 X83.627 Y124.954 E7.03553
G1 X83.164 Y124.717 E7.05227
G1 X81.116 Y123.571 E7.12779
G1 X80.673 Y123.299 E7.14453
G1 X78.721 Y121.995 E7.22005
G1 X78.254 Y121.653 E7.23868
G1 X76.457 Y120.236 E7.31231
G1 X76.062 Y119.898 E7.32905
G1 X74.338 Y118.305 E7.40457
G1 X73.970 Y117.937 E7.42131
G1 X72.377 Y116.214 E7.49683
G1 X72.039 Y115.818 E7.51357
G1 X70.586 Y113.975 E7.58910
G1 X70.281 Y113.555 E7.60583
G1 X68.977 Y111.603 E7.68136
G1 X68.705 Y111.160 E7.69809
G1 X67.558 Y109.112 E7.77362
G1 X67.322 Y108.648 E7.79036
G1 X66.339 Y106.517 E7.86588
G1 X66.140 Y106.036 E7.88262
G1 X65.328 Y103.834 E7.95815
G1 X65.167 Y103.340 E7.97489
G1 X64.530 Y101.081 E8.05041
G1 X64.409 Y100.575 E8.06714
G1 X63.962 Y98.331 E8.14077
G1 X63.870 Y97.760 E8.15940
G1 X63.594 Y95.429 E8.23493
G1 X63.553 Y94.910 E8.25167
G1 X63.520 Y94.065 E8.27889
G1 X63.828 Y91.792 E8.35269
G1 X64.892 Y89.761 E8.42649
G1 X66.067 Y88.579 E8.48010
G1 X67.863 Y87.180 E8.55339
G1 E6.55339 F2400.00000
G92 E0
G1 X102.911 Y118.820 F7800.000
G1 E2.00000 F2400.00000
G1 X102.554 Y119.058 E2.01381 F1800.000
G1 X101.893 Y119.395 E2.03771
G1 X101.490 Y119.544 E2.05150
G1 X100.777 Y119.715 E2.07512
G1 X100.362 Y119.765 E2.08857
G1 X99.951 Y119.781 E2.10179
G1 X99.211 Y119.723 E2.12569
G1 X98.790 Y119.639 E2.13950
G1 X98.066 Y119.404 E2.16401
G1 X97.387 Y119.058 E2.18853
G1 X97.030 Y118.820 E2.20233
G1 X96.465 Y118.337 E2.22626
G1 X96.168 Y118.015 E2.24033
G1 X95.726 Y117.406 E2.26456
G1 X95.380 Y116.727 E2.28907
G1 X95.238 Y116.342 E2.30229
G1 X95.125 Y115.939 E2.31574
G1 X95.011 Y115.214 E2.33936
G1 X94.995 Y114.804 E2.35257
G1 X95.012 Y114.387 E2.36601
G1 X95.130 Y113.643 E2.39025
G1 X95.372 Y112.900 E2.41538
G1 X95.726 Y112.204 E2.44051
G1 X96.174 Y111.588 E2.46503
G1 X96.465 Y111.273 E2.47884
G1 X97.030 Y110.790 E2.50273
G1 X97.387 Y110.552 E2.51654
G1 X98.066 Y110.206 E2.54106
G1 X98.790 Y109.971 E2.56557
G1 X99.211 Y109.887 E2.57938
G1 X99.942 Y109.829 E2.60299 F1800.000
G1 X100.360 Y109.845 E2.61644
G1 X100.749 Y109.891 E2.62904
G1 X101.151 Y109.971 E2.64223
G1 X101.875 Y110.206 E2.66675
G1 X102.554 Y110.552 E2.69126
G1 X102.911 Y110.790 E2.70507
G1 X103.477 Y111.273 E2.72900
G1 X103.773 Y111.595 E2.74307
G1 X104.215 Y112.204 E2.76730
G1 X104.570 Y112.900 E2.79243
G1 X104.811 Y113.643 E2.81756
G1 X104.930 Y114.395 E2.84208
G1 X104.946 Y114.805 E2.85527
G1 X104.930 Y115.215 E2.86846
G1 X104.811 Y115.967 E2.89298
G1 X104.570 Y116.710 E2.91811
G1 X104.215 Y117.406 E2.94325
G1 X103.767 Y118.022 E2.96777
G1 X103.476 Y118.337 E2.98157
G1 X102.957 Y118.781 E3.00354
G1 X102.533 Y118.321 F7800.000
G1 X102.238 Y118.518 E3.01497 F1800.000
G1 X101.642 Y118.822 E3.03650
G1 X101.308 Y118.945 E3.04793
G1 X100.666 Y119.099 E3.06919
G1 X100.312 Y119.142 E3.08066
G1 X99.964 Y119.156 E3.09189
G1 X99.297 Y119.103 E3.11341
G1 X98.948 Y119.034 E3.12485
G1 X98.305 Y118.825 E3.14660
G1 X97.703 Y118.518 E3.16834
G1 X97.408 Y118.321 E3.17978
G1 X96.899 Y117.886 E3.20132
G1 X96.653 Y117.619 E3.21301
G1 X96.261 Y117.078 E3.23449
G1 X95.954 Y116.476 E3.25624
G1 X95.833 Y116.149 E3.26746
G1 X95.737 Y115.806 E3.27893
G1 X95.634 Y115.153 E3.30019
G1 X95.620 Y114.805 E3.31142
G1 X95.635 Y114.449 E3.32288
G1 X95.740 Y113.789 E3.34437
G1 X95.951 Y113.140 E3.36634
G1 X96.261 Y112.532 E3.38831
G1 X96.658 Y111.985 E3.41006
G1 X96.899 Y111.724 E3.42149
G1 X97.408 Y111.289 E3.44302
G1 X97.703 Y111.092 E3.45445
G1 X98.305 Y110.785 E3.47620
G1 X98.948 Y110.576 E3.49795
G1 X99.297 Y110.507 E3.50938
G1 X99.955 Y110.455 E3.53064 F1800.000
G1 X100.312 Y110.468 E3.54211
G1 X100.651 Y110.508 E3.55311
G1 X100.993 Y110.576 E3.56433
G1 X101.636 Y110.785 E3.58608
G1 X102.238 Y111.092 E3.60782
G1 X102.533 Y111.289 E3.61926
G1 X103.042 Y111.724 E3.64080
G1 X103.288 Y111.991 E3.65249
G1 X103.680 Y112.532 E3.67397
G1 X103.990 Y113.140 E3.69594
G1 X104.201 Y113.789 E3.71791
G1 X104.307 Y114.457 E3.73966
G1 X104.321 Y114.805 E3.75087
G1 X104.307 Y115.153 E3.76209
G1 X104.201 Y115.821 E3.78384
G1 X103.990 Y116.470 E3.80580
G1 X103.680 Y117.078 E3.82778
G1 X103.283 Y117.625 E3.84953
G1 X103.042 Y117.886 E3.86096
G1 X102.579 Y118.282 E3.88056
G1 X102.570 Y118.674 F7800.000
G1 E1.88056 F2400.00000
G92 E0
G1 X105.070 Y107.205 F7800.000
G1 E2.00000 F2400.00000
G1 X94.871 Y107.205 E2.32821 F1800.000
G1 X94.871 Y94.073 E2.75077
G1 X94.710 Y93.536 E2.76883
G1 X94.582 Y92.729 E2.79510
G1 X94.582 Y91.881 E2.82239
G1 X94.715 Y91.043 E2.84969
G1 X94.977 Y90.237 E2.87698
G1 X95.362 Y89.481 E2.90427
G1 X95.861 Y88.795 E2.93156
G1 X96.460 Y88.195 E2.95885
G1 X97.147 Y87.697 E2.98614
G1 X97.902 Y87.312 E3.01343
G1 X98.679 Y87.059 E3.03971
G1 X99.156 Y86.964 E3.05537
G1 X99.962 Y86.901 E3.08136
G1 X100.815 Y86.967 E3.10891
G1 X101.641 Y87.165 E3.13624
G1 X102.424 Y87.489 E3.16353
G1 X103.147 Y87.932 E3.19082
G1 X103.793 Y88.484 E3.21815
G1 X104.348 Y89.136 E3.24569
G1 X104.770 Y89.825 E3.27169
G1 X104.974 Y90.267 E3.28735
G1 X105.226 Y91.043 E3.31362
G1 X105.359 Y91.881 E3.34091
G1 X105.359 Y92.729 E3.36820
G1 X105.231 Y93.536 E3.39448
G1 X105.070 Y94.073 E3.41254
G1 X105.070 Y107.145 E3.83317
G1 X104.445 Y106.580 F7800.000
G1 X95.496 Y106.580 E4.12116 F1800.000
G1 X95.496 Y93.960 E4.52726
G1 X95.322 Y93.401 E4.54608
G1 X95.207 Y92.680 E4.56959
G1 X95.207 Y91.930 E4.59372
G1 X95.325 Y91.190 E4.61784
G1 X95.556 Y90.477 E4.64197
G1 X95.897 Y89.809 E4.66609
G1 X96.337 Y89.202 E4.69022
G1 X96.868 Y88.672 E4.71435
G1 X97.474 Y88.231 E4.73847
G1 X98.142 Y87.891 E4.76260
G1 X98.837 Y87.665 E4.78610
G1 X99.242 Y87.584 E4.79940
G1 X99.962 Y87.527 E4.82264
G1 X100.717 Y87.586 E4.84701
G1 X101.447 Y87.761 E4.87116
G1 X102.140 Y88.048 E4.89529
G1 X102.779 Y88.440 E4.91941
G1 X103.350 Y88.927 E4.94356
G1 X103.841 Y89.504 E4.96794
G1 X104.218 Y90.120 E4.99118
G1 X104.391 Y90.495 E5.00447
G1 X104.616 Y91.190 E5.02798
G1 X104.734 Y91.930 E5.05211
G1 X104.734 Y92.680 E5.07623
G1 X104.619 Y93.401 E5.09974
G1 X104.445 Y93.960 E5.11856
G1 X104.445 Y106.520 E5.52273
G1 X103.821 Y105.955 F7800.000
G1 X96.121 Y105.955 E5.77051 F1800.000
G1 X96.121 Y93.846 E6.16016
G1 X96.024 Y93.589 E6.16901
G1 X95.933 Y93.267 E6.17976
G1 X95.832 Y92.631 E6.20050
G1 X95.832 Y91.979 E6.22146
G1 X95.934 Y91.336 E6.24242
G1 X96.135 Y90.716 E6.26338
G1 X96.431 Y90.136 E6.28434
G1 X96.814 Y89.609 E6.30530
G1 X97.275 Y89.148 E6.32626
G1 X97.802 Y88.766 E6.34722
G1 X98.382 Y88.470 E6.36818
G1 X98.995 Y88.271 E6.38892
G1 X99.328 Y88.205 E6.39985
G1 X99.963 Y88.154 E6.42034
G1 X100.620 Y88.205 E6.44154
G1 X101.253 Y88.357 E6.46251
G1 X101.855 Y88.606 E6.48347
G1 X102.410 Y88.947 E6.50443
G1 X102.906 Y89.370 E6.52540
G1 X103.333 Y89.872 E6.54660
G1 X103.666 Y90.415 E6.56709
G1 X103.808 Y90.723 E6.57802
G1 X104.007 Y91.336 E6.59876
G1 X104.109 Y91.979 E6.61972
G1 X104.109 Y92.631 E6.64068
G1 X104.008 Y93.267 E6.66142
G1 X103.917 Y93.589 E6.67216
G1 X103.821 Y93.846 E6.68102
G1 X103.821 Y105.895 E7.06874
G1 X103.821 Y106.355 F7800.000
G1 X107.671 Y93.905 F7800.000
G1 X128.197 Y93.905 E7.72924 F1800.000
G1 X128.172 Y94.525 E7.74920
G1 X127.911 Y96.730 E7.82067
G1 X127.478 Y98.909 E7.89215
G1 X126.875 Y101.047 E7.96363
G1 X126.106 Y103.131 E8.03511
G1 X125.176 Y105.148 E8.10658
G1 X124.091 Y107.086 E8.17806
G1 X122.857 Y108.933 E8.24954
G1 X121.482 Y110.677 E8.32102
G1 X119.974 Y112.308 E8.39249
G1 X118.343 Y113.816 E8.46397
G1 X116.598 Y115.191 E8.53545
G1 X114.752 Y116.425 E8.60692
G1 X112.813 Y117.511 E8.67840
G1 X110.796 Y118.441 E8.74988
G1 X108.712 Y119.209 E8.82136
G1 X106.574 Y119.812 E8.89283
G1 X104.396 Y120.246 E8.96431
G1 X102.190 Y120.507 E9.03579
G1 X101.489 Y120.534 E9.05835
G1 X101.443 Y120.198 E9.06929
G1 X101.672 Y120.143 E9.07688
G1 X102.143 Y119.969 E9.09304
G1 X102.871 Y119.598 E9.11931
G1 X103.289 Y119.319 E9.13550
G1 X103.910 Y118.789 E9.16177
G1 X104.251 Y118.419 E9.17794
G1 X104.749 Y117.733 E9.20523
G1 X105.149 Y116.950 E9.23353
G1 X105.420 Y116.113 E9.26183
G1 X105.553 Y115.276 E9.28912
G1 X105.572 Y114.805 E9.30428
G1 X105.553 Y114.334 E9.31944
G1 X105.420 Y113.497 E9.34673
G1 X105.149 Y112.660 E9.37503
G1 X104.750 Y111.877 E9.40332
G1 X104.257 Y111.198 E9.43031
G1 X103.911 Y110.822 E9.44675
G1 X103.289 Y110.291 E9.47306
G1 X102.871 Y110.012 E9.48925
G1 X102.115 Y109.627 E9.51653
G1 X101.309 Y109.365 E9.54381
G1 X100.847 Y109.273 E9.55898
G1 X100.408 Y109.221 E9.57318
G1 X99.929 Y109.203 E9.58861
G1 X99.125 Y109.267 E9.61458
G1 X98.632 Y109.365 E9.63075
G1 X97.826 Y109.627 E9.65803
G1 X97.070 Y110.012 E9.68531
G1 X96.652 Y110.291 E9.70150
G1 X96.031 Y110.821 E9.72776
G1 X95.690 Y111.191 E9.74394
G1 X95.192 Y111.877 E9.77123
G1 X94.792 Y112.660 E9.79953
G1 X94.521 Y113.496 E9.82782
G1 X94.389 Y114.324 E9.85480
G1 X94.369 Y114.803 E9.87023
G1 X94.388 Y115.275 E9.88543
G1 X94.514 Y116.073 E9.91140
G1 X94.643 Y116.534 E9.92683
G1 X94.807 Y116.978 E9.94204
G1 X95.192 Y117.733 E9.96932
G1 X95.684 Y118.412 E9.99630
G1 X96.030 Y118.788 E10.01274
G1 X96.652 Y119.319 E10.03906
G1 X97.070 Y119.598 E10.05524
G1 X97.826 Y119.983 E10.08253
G1 X98.524 Y120.210 E10.10616
G1 X98.467 Y120.532 E10.11669
G1 X97.694 Y120.500 E10.14156
G1 X95.545 Y120.246 E10.21120
G1 X93.367 Y119.812 E10.28267
G1 X91.229 Y119.209 E10.35415
G1 X89.145 Y118.441 E10.42563
G1 X87.128 Y117.511 E10.49711
G1 X85.190 Y116.425 E10.56858
G1 X83.343 Y115.191 E10.64006
G1 X81.598 Y113.816 E10.71154
G1 X79.967 Y112.308 E10.78302
G1 X78.459 Y110.677 E10.85449
G1 X77.120 Y108.978 E10.92413
G1 X75.849 Y107.085 E10.99749
G1 X74.765 Y105.148 E11.06892
G1 X73.835 Y103.131 E11.14040
G1 X73.066 Y101.047 E11.21187
G1 X72.463 Y98.909 E11.28335
G1 X72.041 Y96.786 E11.35299
G1 X71.875 Y95.405 E11.39777
G1 X92.270 Y95.405 E12.05408
G1 X92.270 Y79.405 E12.56894
G1 X107.671 Y79.405 E13.06451
G1 X107.671 Y93.845 E13.52918
G1 X108.296 Y93.280 F7800.000
G1 X128.847 Y93.280 E14.19048 F1800.000
G1 X128.796 Y94.574 E14.23215
G1 X128.529 Y96.828 E14.30520
G1 X128.086 Y99.055 E14.37826
G1 X127.470 Y101.240 E14.45132
G1 X126.684 Y103.370 E14.52437
G1 X125.733 Y105.432 E14.59743
G1 X124.624 Y107.413 E14.67049
G1 X123.363 Y109.300 E14.74355
G1 X121.957 Y111.083 E14.81661
G1 X120.416 Y112.751 E14.88966
G1 X118.749 Y114.292 E14.96272
G1 X116.966 Y115.697 E15.03578
G1 X115.078 Y116.959 E15.10883
G1 X113.097 Y118.068 E15.18189
G1 X111.036 Y119.018 E15.25495
G1 X108.906 Y119.804 E15.32801
G1 X106.720 Y120.420 E15.40106
G1 X104.494 Y120.863 E15.47412
G1 X102.239 Y121.130 E15.54718
G1 X99.971 Y121.219 E15.62021
G1 X97.645 Y121.123 E15.69515
G1 X95.447 Y120.863 E15.76634
G1 X93.221 Y120.420 E15.83940
G1 X91.036 Y119.804 E15.91246
G1 X88.906 Y119.018 E15.98552
G1 X86.844 Y118.068 E16.05857
G1 X84.863 Y116.959 E16.13163
G1 X82.975 Y115.697 E16.20469
G1 X81.192 Y114.292 E16.27775
G1 X79.525 Y112.751 E16.35080
G1 X77.984 Y111.083 E16.42386
G1 X76.614 Y109.346 E16.49506
G1 X75.317 Y107.412 E16.57000
G1 X74.208 Y105.432 E16.64303
G1 X73.257 Y103.370 E16.71609
G1 X72.471 Y101.240 E16.78914
G1 X71.855 Y99.055 E16.86220
G1 X71.423 Y96.885 E16.93340
G1 X71.170 Y94.780 E17.00162
G1 X91.645 Y94.780 E17.66049
G1 X91.645 Y78.780 E18.17536
G1 X108.296 Y78.780 E18.71115
G1 X108.296 Y93.220 E19.17581
G1 X108.921 Y92.655 F7800.000
G1 X129.497 Y92.655 E19.83792 F1800.000
G1 X129.419 Y94.623 E19.90129
G1 X129.147 Y96.926 E19.97593
G1 X128.694 Y99.201 E20.05056
G1 X128.065 Y101.433 E20.12520
G1 X127.262 Y103.609 E20.19984
G1 X126.291 Y105.716 E20.27448
G1 X125.157 Y107.739 E20.34912
G1 X123.869 Y109.668 E20.42375
G1 X122.433 Y111.490 E20.49839
G1 X120.858 Y113.193 E20.57303
G1 X119.155 Y114.767 E20.64766
G1 X117.334 Y116.203 E20.72230
G1 X115.405 Y117.492 E20.79694
G1 X113.381 Y118.625 E20.87158
G1 X111.275 Y119.596 E20.94621
G1 X109.099 Y120.399 E21.02085
G1 X106.866 Y121.029 E21.09549
G1 X104.592 Y121.481 E21.17013
G1 X102.288 Y121.754 E21.24476
G1 X99.971 Y121.845 E21.31939
G1 X97.595 Y121.747 E21.39591
G1 X95.350 Y121.481 E21.46867
G1 X93.075 Y121.029 E21.54331
G1 X90.842 Y120.399 E21.61795
G1 X88.666 Y119.596 E21.69258
G1 X86.560 Y118.625 E21.76722
G1 X84.536 Y117.492 E21.84186
G1 X82.608 Y116.203 E21.91650
G1 X80.786 Y114.767 E21.99113
G1 X79.083 Y113.193 E22.06577
G1 X77.508 Y111.490 E22.14041
G1 X76.109 Y109.714 E22.21317
G1 X74.784 Y107.739 E22.28969
G1 X73.650 Y105.716 E22.36431
G1 X72.679 Y103.609 E22.43895
G1 X71.877 Y101.433 E22.51359
G1 X71.247 Y99.201 E22.58823
G1 X70.806 Y96.983 E22.66099
G1 X70.522 Y94.622 E22.73751
G1 X70.503 Y94.155 E22.75256
G1 X91.021 Y94.155 E23.41278
G1 X91.021 Y78.155 E23.92764
G1 X108.921 Y78.155 E24.50364
G1 X108.921 Y92.595 E24.96831
G1 X108.921 Y93.055 F7800.000
G1 X107.292 Y90.949 F7800.000
G1 X96.127 Y79.783 E25.47868 F1800.000
G1 X95.239 Y79.783 E25.50737
G1 X102.501 Y87.046 E25.83933
G1 X105.245 Y89.789 F7800.000
G1 X107.292 Y91.837 E25.93291 F1800.000
G1 X107.292 Y92.724 E25.96160
G1 X105.636 Y91.068 E26.03731
G1 X105.737 Y92.057 E26.06945
G1 X107.292 Y93.612 E26.14052
G1 X107.076 Y94.283 E26.16332
G1 X122.127 Y109.334 E26.85128
G1 X121.735 Y109.830 E26.87171
G1 X105.557 Y93.652 E27.61120
G1 X105.695 Y92.902 E27.63585
G1 X107.292 Y94.500 E27.70885
G1 X107.964 Y94.283 E27.73165
G1 X122.518 Y108.838 E28.39692
G1 X122.879 Y108.311 E28.41756
G1 X108.851 Y94.283 E29.05875
G1 X109.739 Y94.283 E29.08744
G1 X123.234 Y107.779 E29.70431
G1 X123.590 Y107.247 E29.72499
G1 X110.627 Y94.283 E30.31754
G1 X111.514 Y94.283 E30.34623
G1 X123.929 Y106.698 E30.91370
G1 X124.248 Y106.129 E30.93478
G1 X112.402 Y94.283 E31.47625
G1 X113.289 Y94.283 E31.50493
G1 X124.566 Y105.560 E32.02039
G1 X124.881 Y104.987 E32.04152
G1 X114.177 Y94.283 E32.53079
G1 X115.065 Y94.283 E32.55948
G1 X125.161 Y104.380 E33.02099
G1 X125.441 Y103.772 E33.04261
