; generated by Slic3r 1.2.9 on 2019-09-29 at 10:31:32

; external perimeters extrusion width = 0.40mm
; perimeters extrusion width = 0.48mm
; infill extrusion width = 0.48mm
; solid infill extrusion width = 0.48mm
; top infill extrusion width = 0.48mm

M107
M190 S65 ; set bed temperature
M104 S200 ; set temperature
G28 ; home all axes
G1 Z5 F5000 ; lift nozzle

M109 S200 ; wait for temperature to be reached
G21 ; set units to millimeters
G90 ; use absolute coordinates
M82 ; use absolute distances for extrusion
G92 E0
G1 Z0.350 F7800.000
G1 E-2.00000 F2400.00000
G92 E0
G1 X88.869 Y81.834 F7800.000
G1 E2.00000 F2400.00000
G1 X90.671 Y80.415 E2.07380 F1800.000
G1 X93.807 Y79.625 E2.17789
G1 X96.807 Y79.625 E2.27442
G1 X99.066 Y80.022 E2.34823
G1 X100.230 Y80.578 E2.38973 F1800.000
G1 X114.730 Y89.328 E2.93470
G1 X116.459 Y90.835 E3.00850
G1 X117.571 Y92.841 E3.08230
G1 X117.932 Y95.000 E3.15275
G1 X117.932 Y105.000 E3.47454
G1 X117.535 Y107.259 E3.54834
G1 X116.392 Y109.247 E3.62214
G1 X114.730 Y110.672 E3.69258
G1 X100.230 Y119.422 E4.23755
G1 X98.091 Y120.249 E4.31135
G1 X96.807 Y120.375 E4.35286
G1 X93.807 Y120.375 E4.44940
G1 X91.549 Y119.978 E4.52320
G1 X89.561 Y118.835 E4.59700
G1 X88.556 Y117.789 E4.64365
G1 X83.441 Y111.139 E4.91362
G1 X82.379 Y109.107 E4.98742
G1 X82.068 Y107.100 E5.05276
G1 X82.068 Y98.994 E5.31360
G1 X82.544 Y96.527 E5.39447
G1 X87.659 Y83.782 E5.83636
G1 X88.837 Y81.885 E5.90823
G1 E3.90823 F2400.00000
G92 E0
G1 X95.208 Y103.400 F7800.000
G1 E2.00000 F2400.00000
G1 X95.208 Y105.500 E2.06758 F1800.000
G1 X90.292 Y105.500 E2.22575
G1 X90.292 Y100.594 E2.38363
G1 X95.407 Y100.594 E2.54822
G1 X95.407 Y96.600 E2.67675
G1 X109.708 Y96.600 E3.13693
G1 X109.708 Y103.400 E3.35576
G1 X95.268 Y103.400 E3.82042
G1 X95.833 Y104.025 F7800.000
G1 X95.833 Y112.775 E4.10199 F1800.000
G1 X94.782 Y112.775 E4.13578
G1 X94.782 Y106.125 E4.34977
G1 X89.667 Y106.125 E4.51437
G1 X89.667 Y99.969 E4.71246
G1 X94.782 Y99.969 E4.87706
G1 X94.782 Y87.225 E5.28715
G1 X95.833 Y87.225 E5.32095
G1 X95.833 Y95.975 E5.60251
G1 X110.333 Y95.975 E6.06911
G1 X110.333 Y104.025 E6.32816
G1 X95.893 Y104.025 E6.79282
G1 X96.457 Y104.650 F7800.000
G1 X96.457 Y113.400 E7.07439 F1800.000
G1 X94.157 Y113.400 E7.14840
G1 X94.157 Y106.750 E7.36239
G1 X89.042 Y106.750 E7.52698
G1 X89.042 Y99.344 E7.76530
G1 X94.157 Y99.344 E7.92989
G1 X94.157 Y86.600 E8.33999
G1 X96.457 Y86.600 E8.41400
G1 X96.457 Y95.350 E8.69556
G1 X110.957 Y95.350 E9.16216
G1 X110.957 Y104.650 E9.46142
G1 X96.517 Y104.650 E9.92609
G1 X96.057 Y104.650 F7800.000
G1 X95.307 Y105.813 F7800.000
G1 X95.307 Y112.463 E10.37979 F1800.000
G1 E8.37979 F2400.00000
G92 E0
G1 X90.976 Y105.122 F7800.000
G1 E2.00000 F2400.00000
G1 X90.671 Y104.817 E2.01419 F1800.000
G1 X90.671 Y103.913 E2.04389
G1 X91.879 Y105.122 E2.10008
G1 X92.782 Y105.122 E2.12979
G1 X90.671 Y103.010 E2.22798
G1 X90.671 Y102.107 E2.25768
G1 X93.685 Y105.122 E2.39789
G1 X94.589 Y105.122 E2.42759
G1 X90.671 Y101.204 E2.60979
G1 X91.343 Y100.973 E2.63316
G1 X94.829 Y104.459 E2.79531
G1 X94.829 Y103.556 E2.82501
G1 X92.246 Y100.973 E2.94516
G1 X93.149 Y100.973 E2.97486
G1 X95.198 Y103.022 E3.07016
G1 X96.101 Y103.022 E3.09986
G1 X94.052 Y100.973 E3.19516
G1 X94.955 Y100.973 E3.22487
G1 X97.004 Y103.022 E3.32017
G1 X97.907 Y103.022 E3.34987
G1 X95.786 Y100.900 E3.44854
G1 X95.786 Y99.997 E3.47824
G1 X98.811 Y103.022 E3.61892
G1 X99.714 Y103.022 E3.64862
G1 X95.786 Y99.094 E3.83130
G1 X95.786 Y98.191 E3.86100
G1 X100.617 Y103.022 E4.08568
G1 X101.520 Y103.022 E4.11538
G1 X95.786 Y97.287 E4.38207
G1 X96.380 Y96.978 E4.40409
G1 X102.423 Y103.022 E4.68516
G1 X103.326 Y103.022 E4.71486
G1 X97.283 Y96.978 E4.99592
G1 X98.186 Y96.978 E5.02562
G1 X104.230 Y103.022 E5.30668
G1 X105.133 Y103.022 E5.33638
G1 X99.089 Y96.978 E5.61745
G1 X99.993 Y96.978 E5.64715
G1 X106.036 Y103.022 E5.92821
G1 X106.939 Y103.022 E5.95791
G1 X100.896 Y96.978 E6.23897
G1 X101.799 Y96.978 E6.26867
G1 X107.842 Y103.022 E6.54974
G1 X108.745 Y103.022 E6.57944
G1 X102.702 Y96.978 E6.86050
G1 X103.605 Y96.978 E6.89020
G1 X109.329 Y102.702 E7.15641
G1 X109.329 Y101.799 E7.18612
G1 X104.508 Y96.978 E7.41033
G1 X105.411 Y96.978 E7.44003
G1 X109.329 Y100.896 E7.62223
G1 X109.329 Y99.993 E7.65193
G1 X106.315 Y96.978 E7.79214
G1 X107.218 Y96.978 E7.82184
G1 X109.329 Y99.090 E7.92004
G1 X109.329 Y98.187 E7.94974
G1 X108.121 Y96.978 E8.00593
G1 X109.024 Y96.978 E8.03563
G1 X109.329 Y97.283 E8.04982
G1 X95.307 Y96.287 F7800.000
G1 X95.307 Y87.537 E8.64680 F1800.000
G1 Z0.650 F7800.000
G1 X95.811 Y104.004 F7800.000
G1 X95.811 Y112.754 E8.80857 F1800.000
G1 X94.804 Y112.754 E8.82721
G1 X94.804 Y106.104 E8.95016
G1 X89.689 Y106.104 E9.04473
G1 X89.689 Y98.794 E9.17988
G1 X89.689 Y98.660 E9.18236 F3600.000
G1 X93.607 Y98.660 E9.25482
G1 X94.804 Y98.660 E9.27693 F1800.000
G1 X94.804 Y87.246 E9.48796
G1 X95.811 Y87.246 E9.50659
G1 X95.811 Y95.996 E9.66837
G1 X110.311 Y95.996 E9.93646
G1 X110.311 Y104.004 E10.08451
G1 X95.871 Y104.004 E10.35149
G1 X96.230 Y104.423 F7800.000
G1 X96.230 Y113.173 E10.51327 F1800.000
G1 X94.385 Y113.173 E10.54739
G1 X94.385 Y106.523 E10.67034
G1 X89.270 Y106.523 E10.76491
G1 X89.270 Y98.794 E10.90780
G1 X89.270 Y98.241 E10.91803 F3600.000
G1 X93.607 Y98.241 E10.99823
G1 X94.385 Y98.241 E11.01260 F1800.000
G1 X94.385 Y86.827 E11.22363
G1 X96.230 Y86.827 E11.25775
G1 X96.230 Y95.577 E11.41953
G1 X110.730 Y95.577 E11.68762
G1 X110.730 Y104.423 E11.85116
G1 X96.290 Y104.423 E12.11814
G1 X96.607 Y104.800 F7800.000
G1 X96.607 Y113.550 E12.24776 F900.000
G1 X94.007 Y113.550 E12.28628
G1 X94.007 Y106.900 E12.38479
G1 X88.892 Y106.900 E12.46056
G1 X88.892 Y98.794 E12.58064
G1 X88.892 Y97.864 E12.59785 F3600.000
G1 X93.607 Y97.864 E12.68502
G1 X94.007 Y97.864 E12.69095 F900.000
G1 X94.007 Y86.450 E12.86003
G1 X96.607 Y86.450 E12.89854
G1 X96.607 Y95.200 E13.02817
G1 X111.107 Y95.200 E13.24297
G1 X111.107 Y104.800 E13.38518
G1 X96.667 Y104.800 E13.59909
G1 X96.207 Y104.800 F7800.000
G1 X95.326 Y105.647 F7800.000
G1 X95.564 Y105.409 E13.60541 F1200.000
G1 X95.564 Y104.808 E13.61670
G1 X94.725 Y105.647 E13.63898
G1 X96.168 Y99.995 F7800.000
G1 X90.306 Y105.857 E13.79458 F1200.000
G1 X89.936 Y105.625 E13.80278
G1 X95.566 Y99.995 E13.95224
G1 X94.965 Y99.995 E13.96353
G1 X89.936 Y105.024 E14.09702
G1 X89.936 Y104.422 E14.10831
G1 X94.363 Y99.995 E14.22584
G1 X93.762 Y99.995 E14.23713
G1 X89.936 Y103.821 E14.33870
G1 X89.936 Y103.219 E14.34999
G1 X93.161 Y99.995 E14.43559
G1 X92.559 Y99.995 E14.44688
G1 X89.936 Y102.618 E14.51652
G1 X89.936 Y102.017 E14.52781
G1 X91.958 Y99.995 E14.58148
G1 X91.356 Y99.995 E14.59277
G1 X89.936 Y101.415 E14.63048
G1 X89.936 Y100.814 E14.64177
G1 X90.755 Y99.995 E14.66351
G1 X90.154 Y99.995 E14.67480
G1 X89.936 Y100.212 E14.68058
G1 E12.68058 F2400.00000
G92 E0
G1 X96.908 Y96.849 F7800.000
G1 E2.00000 F2400.00000
G1 X97.513 Y96.243 E2.01607 F1200.000
G1 X98.115 Y96.243 E2.02736
G1 X96.908 Y97.450 E2.05939
G1 X96.908 Y98.051 E2.07068
G1 X98.716 Y96.243 E2.11868
G1 X99.318 Y96.243 E2.12997
G1 X96.908 Y98.653 E2.19393
G1 X96.908 Y99.254 E2.20522
G1 X99.919 Y96.243 E2.28515
G1 X100.520 Y96.243 E2.29644
G1 X90.907 Y105.857 E2.55163
G1 X91.508 Y105.857 E2.56292
G1 X101.122 Y96.243 E2.81811
G1 X101.723 Y96.243 E2.82940
G1 X92.110 Y105.857 E3.08459
G1 X92.711 Y105.857 E3.09588
G1 X102.325 Y96.243 E3.35108
G1 X102.926 Y96.243 E3.36236
G1 X95.413 Y103.757 E3.56181
G1 X95.564 Y104.207 E3.57072
G1 X93.914 Y105.857 E3.61453
G1 X93.313 Y105.857 E3.62581
G1 X95.564 Y103.605 E3.68558
G1 X96.014 Y103.757 E3.69449
G1 X103.527 Y96.243 E3.89394
G1 X104.129 Y96.243 E3.90523
G1 X96.615 Y103.757 E4.10468
G1 X97.217 Y103.757 E4.11597
G1 X104.730 Y96.243 E4.31541
G1 X105.332 Y96.243 E4.32670
G1 X97.818 Y103.757 E4.52615
G1 X98.420 Y103.757 E4.53744
G1 X105.933 Y96.243 E4.73689
G1 X106.535 Y96.243 E4.74817
G1 X99.021 Y103.757 E4.94762
G1 X99.623 Y103.757 E4.95891
G1 X107.136 Y96.243 E5.15836
G1 X107.737 Y96.243 E5.16965
G1 X100.224 Y103.757 E5.36909
G1 X100.825 Y103.757 E5.38038
G1 X108.339 Y96.243 E5.57983
G1 X108.940 Y96.243 E5.59112
G1 X101.427 Y103.757 E5.79057
G1 X102.028 Y103.757 E5.80186
G1 X109.542 Y96.243 E6.00130
G1 X110.064 Y96.322 E6.01122
G1 X102.630 Y103.757 E6.20858
G1 X103.231 Y103.757 E6.21987
G1 X110.064 Y96.923 E6.40126
G1 X110.064 Y97.525 E6.41255
G1 X103.832 Y103.757 E6.57798
G1 X104.434 Y103.757 E6.58926
G1 X110.064 Y98.126 E6.73873
G1 X110.064 Y98.728 E6.75002
G1 X105.035 Y103.757 E6.88351
G1 X105.637 Y103.757 E6.89480
G1 X110.064 Y99.329 E7.01233
G1 X110.064 Y99.931 E7.02362
G1 X106.238 Y103.757 E7.12519
G1 X106.839 Y103.757 E7.13648
G1 X110.064 Y100.532 E7.22208
G1 X110.064 Y101.133 E7.23337
G1 X107.441 Y103.757 E7.30301
G1 X108.042 Y103.757 E7.31430
G1 X110.064 Y101.735 E7.36797
G1 X110.064 Y102.336 E7.37926
G1 X108.644 Y103.757 E7.41697
G1 X109.245 Y103.757 E7.42826
G1 X110.064 Y102.938 E7.45000
G1 X110.064 Y103.539 E7.46129
G1 X109.846 Y103.757 E7.46707
G1 X96.219 Y99.701 F7800.000
G1 X96.737 Y99.656 E7.47792 F3600.000
G1 X96.737 Y99.179 E7.48788
G1 X90.769 Y99.701 E7.61297
G1 X89.906 Y99.300 E7.63283
G1 X93.334 Y99.000 E7.70468
G1 X95.021 Y98.852 F7800.000
G1 X96.737 Y98.702 E7.74065 F3600.000
G1 X96.737 Y98.225 E7.75060
G1 X95.021 Y98.375 E7.78658
G1 X95.021 Y97.898 E7.79653
G1 X96.737 Y97.748 E7.83250
G1 X96.737 Y97.271 E7.84246
G1 X95.021 Y97.421 E7.87843
G1 X95.021 Y96.944 E7.88839
G1 X96.737 Y96.794 E7.92436
G1 X96.525 Y96.336 E7.93490
G1 X96.008 Y96.381 E7.94574
G1 X95.307 Y96.206 F7800.000
G1 X95.307 Y87.456 E8.29416 F1200.000
G1 X95.307 Y105.894 F7800.000
G1 X95.307 Y112.544 E8.55896 F1200.000
G1 Z0.950 F7800.000
G1 X95.811 Y104.004 F7800.000
G1 X95.811 Y112.754 E8.72074 F1800.000
G1 X94.804 Y112.754 E8.73937
G1 X94.804 Y106.104 E8.86232
G1 X89.689 Y106.104 E8.95689
G1 X89.689 Y97.933 E9.10796
G1 X94.804 Y97.933 E9.20254
G1 X94.804 Y87.246 E9.40012
G1 X95.811 Y87.246 E9.41876
G1 X95.811 Y95.996 E9.58053
G1 X110.311 Y95.996 E9.84862
G1 X110.311 Y104.004 E9.99668
G1 X95.871 Y104.004 E10.26366
G1 X96.230 Y104.423 F7800.000
G1 X96.230 Y113.173 E10.42543 F1800.000
G1 X94.385 Y113.173 E10.45956
G1 X94.385 Y106.523 E10.58251
G1 X89.270 Y106.523 E10.67708
G1 X89.270 Y97.514 E10.84364
G1 X94.385 Y97.514 E10.93821
G1 X94.385 Y86.827 E11.13580
G1 X96.230 Y86.827 E11.16992
G1 X96.230 Y95.577 E11.33169
G1 X110.730 Y95.577 E11.59978
G1 X110.730 Y104.423 E11.76333
G1 X96.290 Y104.423 E12.03031
G1 X96.607 Y104.800 F7800.000
G1 X96.607 Y113.550 E12.15993 F900.000
G1 X94.007 Y113.550 E12.19844
G1 X94.007 Y106.900 E12.29696
G1 X88.892 Y106.900 E12.37273
G1 X88.892 Y97.464 E12.51252
G1 X88.892 Y97.137 E12.51856 F3600.000
G1 X93.607 Y97.137 E12.60574
G1 X94.007 Y97.137 E12.61166 F900.000
G1 X94.007 Y86.450 E12.76998
G1 X96.607 Y86.450 E12.80849
G1 X96.607 Y95.200 E12.93811
G1 X111.107 Y95.200 E13.15291
G1 X111.107 Y104.800 E13.29513
G1 X96.667 Y104.800 E13.50904
G1 X96.207 Y104.800 F7800.000
G1 X95.307 Y105.894 F7800.000
G1 X95.307 Y112.544 E13.77384 F1200.000
G1 E11.77384 F2400.00000
G92 E0
G1 X90.154 Y105.857 F7800.000
G1 E2.00000 F2400.00000
G1 X89.936 Y105.639 E2.00575 F1200.000
G1 X89.936 Y105.041 E2.01691
G1 X90.752 Y105.857 E2.03845
G1 X91.350 Y105.857 E2.04961
G1 X89.936 Y104.443 E2.08694
G1 X89.936 Y103.845 E2.09810
G1 X91.948 Y105.857 E2.15122
G1 X92.546 Y105.857 E2.16238
G1 X89.936 Y103.247 E2.23129
G1 X89.936 Y102.649 E2.24245
G1 X93.144 Y105.857 E2.32714
G1 X93.742 Y105.857 E2.33831
G1 X89.936 Y102.050 E2.43879
G1 X89.936 Y101.452 E2.44995
G1 X94.340 Y105.857 E2.56622
G1 X94.729 Y105.647 E2.57446
G1 X89.936 Y100.854 E2.70099
G1 X89.936 Y100.256 E2.71216
G1 X95.327 Y105.647 E2.85448
G1 X95.564 Y105.286 E2.86254
G1 X89.936 Y99.658 E3.01112
G1 X89.936 Y99.060 E3.02229
G1 X95.564 Y104.688 E3.17087
G1 X95.564 Y104.090 E3.18204
G1 X89.936 Y98.462 E3.33062
G1 X90.252 Y98.180 E3.33853
G1 X95.829 Y103.757 E3.48575
G1 X96.427 Y103.757 E3.49691
G1 X90.850 Y98.180 E3.64412
G1 X91.448 Y98.180 E3.65529
G1 X97.025 Y103.757 E3.80250
G1 X97.623 Y103.757 E3.81367
G1 X92.046 Y98.180 E3.96088
G1 X92.644 Y98.180 E3.97205
G1 X98.221 Y103.757 E4.11926
G1 X98.819 Y103.757 E4.13043
G1 X93.243 Y98.180 E4.27764
G1 X93.841 Y98.180 E4.28881
G1 X99.417 Y103.757 E4.43602
G1 X100.015 Y103.757 E4.44719
G1 X94.439 Y98.180 E4.59440
G1 X95.037 Y98.180 E4.60557
G1 X100.613 Y103.757 E4.75278
G1 X101.211 Y103.757 E4.76395
G1 X95.051 Y97.596 E4.92658
G1 X95.051 Y96.998 E4.93775
G1 X101.810 Y103.757 E5.11617
G1 X102.408 Y103.757 E5.12734
G1 X95.104 Y96.453 E5.32016
G1 X95.702 Y96.453 E5.33132
G1 X103.006 Y103.757 E5.52414
G1 X103.604 Y103.757 E5.53530
G1 X96.090 Y96.243 E5.73365
G1 X96.689 Y96.243 E5.74481
G1 X104.202 Y103.757 E5.94316
G1 X104.800 Y103.757 E5.95433
G1 X97.287 Y96.243 E6.15267
G1 X97.885 Y96.243 E6.16384
G1 X105.398 Y103.757 E6.36218
G1 X105.996 Y103.757 E6.37335
G1 X98.483 Y96.243 E6.57169
G1 X99.081 Y96.243 E6.58286
G1 X106.594 Y103.757 E6.78121
G1 X107.192 Y103.757 E6.79237
G1 X99.679 Y96.243 E6.99072
G1 X100.277 Y96.243 E7.00188
G1 X107.790 Y103.757 E7.20023
G1 X108.389 Y103.757 E7.21139
G1 X100.875 Y96.243 E7.40974
G1 X101.473 Y96.243 E7.42090
G1 X108.987 Y103.757 E7.61925
G1 X109.585 Y103.757 E7.63042
G1 X102.071 Y96.243 E7.82876
G1 X102.669 Y96.243 E7.83993
G1 X110.064 Y103.638 E8.03514
G1 X110.064 Y103.040 E8.04631
G1 X103.267 Y96.243 E8.22573
G1 X103.866 Y96.243 E8.23690
G1 X110.064 Y102.442 E8.40053
G1 X110.064 Y101.844 E8.41170
G1 X104.464 Y96.243 E8.55955
G1 X105.062 Y96.243 E8.57071
G1 X110.064 Y101.246 E8.70277
G1 X110.064 Y100.648 E8.71394
G1 X105.660 Y96.243 E8.83021
G1 X106.258 Y96.243 E8.84137
G1 X110.064 Y100.050 E8.94185
G1 X110.064 Y99.451 E8.95302
G1 X106.856 Y96.243 E9.03771
G1 X107.454 Y96.243 E9.04887
G1 X110.064 Y98.853 E9.11778
G1 X110.064 Y98.255 E9.12894
G1 X108.052 Y96.243 E9.18206
G1 X108.650 Y96.243 E9.19322
G1 X110.064 Y97.657 E9.23055
G1 X110.064 Y97.059 E9.24171
G1 X109.248 Y96.243 E9.26325
G1 X109.846 Y96.243 E9.27441
G1 X110.064 Y96.461 E9.28016
G1 X95.307 Y96.206 F7800.000
G1 X95.307 Y87.456 E9.62858 F1200.000
M106 S204
G1 Z1.250 F7800.000
G1 X95.811 Y104.004 F7800.000
G1 X95.811 Y112.754 E9.79036 F1800.000
G1 X94.804 Y112.754 E9.80899
G1 X94.804 Y106.104 E9.93194
G1 X89.689 Y106.104 E10.02651
G1 X89.689 Y97.369 E10.18801
G1 X94.804 Y97.369 E10.28258
G1 X94.804 Y87.246 E10.46974
G1 X95.811 Y87.246 E10.48837
G1 X95.811 Y95.996 E10.65015
G1 X110.311 Y95.996 E10.91824
G1 X110.311 Y104.004 E11.06629
G1 X95.871 Y104.004 E11.33327
G1 X96.230 Y104.423 F7800.000
G1 X96.230 Y113.173 E11.49505 F1800.000
G1 X94.385 Y113.173 E11.52917
G1 X94.385 Y106.523 E11.65212
G1 X89.270 Y106.523 E11.74669
G1 X89.270 Y96.950 E11.92368
G1 X94.385 Y96.950 E12.01825
G1 X94.385 Y86.827 E12.20541
G1 X96.230 Y86.827 E12.23953
G1 X96.230 Y95.577 E12.40131
G1 X110.730 Y95.577 E12.66940
G1 X110.730 Y104.423 E12.83294
G1 X96.290 Y104.423 E13.09992
G1 X96.607 Y104.800 F7800.000
G1 X96.607 Y113.550 E13.22954 F900.000
G1 X94.007 Y113.550 E13.26806
G1 X94.007 Y106.900 E13.36657
G1 X88.892 Y106.900 E13.44235
G1 X88.892 Y96.737 E13.59290
M106 S255
G1 X88.892 Y96.573 E13.59593 F3600.000
G1 X93.607 Y96.573 E13.68311
M106 S204
G1 X94.007 Y96.573 E13.68903 F900.000
G1 X94.007 Y86.450 E13.83899
G1 X96.607 Y86.450 E13.87751
G1 X96.607 Y95.200 E14.00713
G1 X111.107 Y95.200 E14.22193
G1 X111.107 Y104.800 E14.36415
G1 X96.667 Y104.800 E14.57806
G1 X96.207 Y104.800 F7800.000
G1 X95.307 Y105.894 F7800.000
G1 X95.307 Y112.544 E14.84286 F1200.000
G1 X94.914 Y102.466 F7800.000
G1 X94.687 Y102.693 E14.84887 F1200.000
G1 X94.087 Y102.693 E14.86013
G1 X94.914 Y101.866 E14.88207
G1 X97.939 Y101.243 F7800.000
G1 X98.157 Y101.026 E14.88784 F1200.000
G1 X98.157 Y100.425 E14.89910
G1 X97.338 Y101.243 E14.92080
G1 X96.738 Y101.243 E14.93206
G1 X98.157 Y99.824 E14.96968
G1 X98.157 Y99.224 E14.98094
G1 X96.137 Y101.243 E15.03449
G1 X95.536 Y101.243 E15.04575
G1 X99.606 Y97.173 E15.15366
G1 X99.606 Y97.774 E15.16492
G1 X98.237 Y99.143 E15.20123
G1 X98.838 Y99.143 E15.21249
G1 X99.606 Y98.375 E15.23288
G1 X99.606 Y96.573 F7800.000
