; generated by Slic3r 1.2.9 on 2019-08-03 at 11:05:47

; external perimeters extrusion width = 0.40mm
; perimeters extrusion width = 0.67mm
; infill extrusion width = 0.67mm
; solid infill extrusion width = 0.67mm
; top infill extrusion width = 0.67mm
; support material extrusion width = 0.40mm

M107
M190 S65 ; set bed temperature
M104 S200 ; set temperature
G28 ; home all axes
G1 Z5 F5000 ; lift nozzle

M109 S200 ; wait for temperature to be reached
G21 ; set units to millimeters
G90 ; use absolute coordinates
M82 ; use absolute distances for extrusion
G92 E0
G1 Z0.350 F7800.000
G1 E-2.00000 F2400.00000
G92 E0
G1 X90.369 Y90.369 F7800.000
G1 E2.00000 F2400.00000
G1 X90.957 Y89.812 E2.02605 F1800.000
G1 X91.352 Y89.475 E2.04279
G1 X92.205 Y88.828 E2.07721
G1 X92.662 Y88.523 E2.09490
G1 X93.585 Y87.983 E2.12931
G1 X94.049 Y87.747 E2.14606
G1 X95.028 Y87.317 E2.18047
G1 X96.039 Y86.966 E2.21489
G1 X96.568 Y86.817 E2.23258
G1 X97.613 Y86.589 E2.26700
G1 X98.132 Y86.506 E2.28394
G1 X99.190 Y86.402 E2.31814
G1 X100.266 Y86.380 E2.35277
G1 X101.327 Y86.443 E2.38698 F1800.000
G1 X101.874 Y86.507 E2.40468
G1 X102.927 Y86.696 E2.43910
G1 X103.961 Y86.966 E2.47352
G1 X104.972 Y87.317 E2.50794
G1 X105.951 Y87.747 E2.54236
G1 X106.415 Y87.983 E2.55910
G1 X107.338 Y88.523 E2.59352
G1 X108.215 Y89.134 E2.62791
G1 X109.043 Y89.812 E2.66235
G1 X109.815 Y90.553 E2.69677
G1 X110.525 Y91.352 E2.73119
G1 X111.172 Y92.205 E2.76561
G1 X111.477 Y92.662 E2.78330
G1 X112.014 Y93.579 E2.81748
G1 X112.484 Y94.548 E2.85214
G1 X112.873 Y95.544 E2.88656
G1 X113.183 Y96.568 E2.92098
G1 X113.411 Y97.613 E2.95539
G1 X113.557 Y98.672 E2.98981
G1 X113.620 Y99.740 E3.02423
G1 X113.598 Y100.809 E3.05865
G1 X113.493 Y101.874 E3.09308
G1 X113.304 Y102.927 E3.12749
G1 X113.183 Y103.432 E3.14423
G1 X112.873 Y104.456 E3.17865
G1 X112.484 Y105.452 E3.21307
G1 X112.017 Y106.415 E3.24749
G1 X111.477 Y107.338 E3.28190
G1 X110.866 Y108.216 E3.31632
G1 X110.525 Y108.648 E3.33401
G1 X109.815 Y109.447 E3.36843
G1 X109.043 Y110.188 E3.40285
G1 X108.216 Y110.866 E3.43727
G1 X107.338 Y111.477 E3.47169
G1 X106.895 Y111.749 E3.48843
G1 X105.952 Y112.253 E3.52282
G1 X104.972 Y112.683 E3.55726
G1 X103.961 Y113.034 E3.59168
G1 X102.927 Y113.304 E3.62610
G1 X101.867 Y113.494 E3.66075
G1 X100.809 Y113.598 E3.69494
G1 X100.260 Y113.620 E3.71263
G1 X99.191 Y113.598 E3.74705
G1 X98.126 Y113.493 E3.78146
G1 X97.613 Y113.411 E3.79820
G1 X96.568 Y113.183 E3.83261
G1 X95.544 Y112.873 E3.86703
G1 X94.548 Y112.484 E3.90146
G1 X93.586 Y112.018 E3.93585
G1 X92.662 Y111.477 E3.97030
G1 X91.778 Y110.861 E4.00496
G1 X90.957 Y110.188 E4.03913
G1 X90.553 Y109.815 E4.05682
G1 X89.812 Y109.043 E4.09124
G1 X89.134 Y108.215 E4.12569
G1 X88.523 Y107.338 E4.16008
G1 X87.983 Y106.415 E4.19450
G1 X87.516 Y105.452 E4.22893
G1 X87.127 Y104.456 E4.26334
G1 X86.817 Y103.432 E4.29776
G1 X86.589 Y102.387 E4.33218
G1 X86.443 Y101.327 E4.36661
G1 X86.380 Y100.259 E4.40106
G1 X86.402 Y99.198 E4.43520
G1 X86.443 Y98.672 E4.45217
G1 X86.589 Y97.613 E4.48659
G1 X86.696 Y97.073 E4.50428
G1 X86.966 Y96.039 E4.53870
G1 X87.317 Y95.028 E4.57312
G1 X87.747 Y94.049 E4.60754
G1 X88.251 Y93.105 E4.64196
G1 X88.828 Y92.205 E4.67638
G1 X89.475 Y91.352 E4.71080
G1 X89.812 Y90.957 E4.72753
G1 X90.327 Y90.412 E4.75166
G1 E2.75166 F2400.00000
G92 E0
G1 X93.501 Y99.980 F7800.000
G1 E2.00000 F2400.00000
G1 X93.522 Y99.470 E2.01645 F1800.000
G1 X93.580 Y98.983 E2.03221
G1 X93.676 Y98.502 E2.04800
G1 X93.818 Y97.991 E2.06506
G1 X93.995 Y97.513 E2.08148
G1 X94.218 Y97.031 E2.09856
G1 X94.458 Y96.604 E2.11432
G1 X94.730 Y96.196 E2.13012
G1 X95.058 Y95.779 E2.14718
G1 X95.404 Y95.404 E2.16359
G1 X95.779 Y95.058 E2.18001
G1 X96.196 Y94.730 E2.19707
G1 X96.604 Y94.458 E2.21286
G1 X97.031 Y94.218 E2.22862
G1 X97.513 Y93.995 E2.24570
G1 X98.010 Y93.813 E2.26276
G1 X98.483 Y93.680 E2.27855
G1 X98.964 Y93.584 E2.29434
G1 X99.490 Y93.520 E2.31138
G1 X100.007 Y93.501 E2.32804
G1 X100.529 Y93.522 E2.34487
G1 X101.017 Y93.580 E2.36066
G1 X101.498 Y93.676 E2.37645
G1 X102.008 Y93.819 E2.39350
G1 X102.487 Y93.995 E2.40992
G1 X102.968 Y94.218 E2.42698
G1 X103.396 Y94.458 E2.44277
G1 X103.804 Y94.730 E2.45853
G1 X104.221 Y95.058 E2.47561
G1 X104.596 Y95.404 E2.49204
G1 X104.955 Y95.795 E2.50911
G1 X105.258 Y96.180 E2.52488
G1 X105.531 Y96.587 E2.54067
G1 X105.788 Y97.043 E2.55749
G1 X106.005 Y97.513 E2.57415
G1 X106.187 Y98.010 E2.59120
G1 X106.320 Y98.483 E2.60699
G1 X106.416 Y98.964 E2.62278
G1 X106.480 Y99.490 E2.63984
G1 X106.500 Y100.000 E2.65626
G1 X106.480 Y100.510 E2.67268
G1 X106.416 Y101.036 E2.68973
G1 X106.320 Y101.517 E2.70553
G1 X106.187 Y101.990 E2.72132
G1 X106.005 Y102.487 E2.73837
G1 X105.782 Y102.968 E2.75542
G1 X105.542 Y103.396 E2.77121
G1 X105.270 Y103.804 E2.78701
G1 X104.942 Y104.221 E2.80407
G1 X104.596 Y104.596 E2.82048
G1 X104.221 Y104.942 E2.83690
G1 X103.804 Y105.270 E2.85396
G1 X103.396 Y105.542 E2.86975
G1 X102.968 Y105.782 E2.88554
G1 X102.487 Y106.005 E2.90259
G1 X101.990 Y106.187 E2.91965
G1 X101.517 Y106.320 E2.93544
G1 X101.046 Y106.414 E2.95092
G1 X100.510 Y106.480 E2.96828
G1 X100.000 Y106.500 E2.98470
G1 X99.490 Y106.480 E3.00113
G1 X98.964 Y106.416 E3.01818
G1 X98.483 Y106.320 E3.03397
G1 X98.010 Y106.187 E3.04976
G1 X97.513 Y106.005 E3.06681
G1 X97.043 Y105.788 E3.08347
G1 X96.587 Y105.531 E3.10029
G1 X96.180 Y105.258 E3.11608
G1 X95.795 Y104.955 E3.13185
G1 X95.404 Y104.596 E3.14893
G1 X95.045 Y104.205 E3.16601
G1 X94.742 Y103.820 E3.18177
G1 X94.469 Y103.413 E3.19756
G1 X94.212 Y102.957 E3.21439
G1 X93.995 Y102.487 E3.23105
G1 X93.813 Y101.989 E3.24812
G1 X93.680 Y101.517 E3.26388
G1 X93.584 Y101.036 E3.27967
G1 X93.520 Y100.510 E3.29673
G1 X93.501 Y99.980 E3.31378
G1 Z0.350 F7800.000
G1 E1.31378 F2400.00000
G92 E0
G1 X95.857 Y100.463 F7800.000
G1 E2.00000 F2400.00000
G1 X94.936 Y102.300 E2.06613 F1800.000
G1 X97.255 Y100.463 F7800.000
G1 X95.699 Y103.566 E2.17783 F1800.000
G1 X96.639 Y104.480 E2.22002
G1 X98.176 Y101.413 E2.33041
G1 X99.206 Y102.148 E2.37112
G1 X97.718 Y105.117 E2.47798
G1 X98.928 Y105.492 E2.51874
G1 X100.544 Y102.266 E2.63487
G1 X104.013 Y103.713 F7800.000
G1 X105.373 Y100.999 E2.73255 F1800.000
G1 X105.296 Y98.364 E2.81740
G1 X101.858 Y105.223 E3.06430
G1 X100.285 Y105.573 E3.11616
G1 X104.634 Y96.895 E3.42850
G1 X103.758 Y95.854 E3.47228
G1 X102.142 Y99.079 E3.58837
G1 X101.246 Y98.077 E3.63162
G1 X102.729 Y95.118 E3.73812
G1 X101.577 Y94.627 E3.77841
G1 X100.546 Y96.684 E3.85247
G1 E1.85247 F2400.00000
G92 E0
G1 X98.374 Y98.229 F7800.000
G1 E2.00000 F2400.00000
G1 X100.154 Y94.677 E2.12785 F1800.000
G1 X98.813 Y94.564 E2.17116
G1 X95.969 Y100.238 E2.37537
G1 X97.367 Y100.238 E2.42036
G1 X97.603 Y99.768 E2.43726
G1 X94.571 Y100.238 E2.53597
G1 X97.009 Y95.374 E2.71104
G1 Z0.450 F7800.000
G1 X96.500 Y96.500 F7800.000
G1 X96.500 Y95.889 E2.71444 F3600.000
G1 X96.182 Y96.182 E2.71685
G1 X95.889 Y96.500 E2.71926
G1 X96.500 Y96.500 E2.72267
G1 E0.72267 F2400.00000
G92 E0
G1 X97.341 Y101.101 F7800.000
G1 E2.00000 F2400.00000
G1 X97.315 Y101.029 E2.00043 F3600.000
G1 X95.089 Y101.029 E2.01282
G1 X95.225 Y101.551 E2.01583
G1 X95.361 Y101.921 E2.01803
G1 X95.614 Y102.436 E2.02122
G1 X95.938 Y102.951 E2.02461
G1 X96.182 Y103.261 E2.02680
G1 X96.450 Y103.550 E2.02900
G1 X96.739 Y103.818 E2.03120
G1 X97.049 Y104.062 E2.03339
G1 X97.377 Y104.281 E2.03559
G1 X97.733 Y104.479 E2.03786
G1 X98.808 Y102.617 E2.04983
G1 X98.496 Y102.454 E2.05179
G1 X98.309 Y102.328 E2.05305
G1 X97.965 Y102.035 E2.05556
G1 X97.672 Y101.691 E2.05808
G1 X97.436 Y101.306 E2.06059
G1 X97.341 Y101.101 E2.06185
G1 E0.06185 F2400.00000
G92 E0
G1 X100.845 Y94.667 F7800.000
G1 E2.00000 F2400.00000
G1 X100.650 Y94.644 E2.00109 F3600.000
G1 X100.650 Y97.589 E2.01749
G1 X100.956 Y97.691 E2.01929
G1 X101.306 Y97.869 E2.02148
G1 X101.623 Y98.100 E2.02366
G1 X101.900 Y98.377 E2.02584
G1 X102.022 Y98.531 E2.02694
G1 X102.226 Y98.866 E2.02912
G1 X102.377 Y99.228 E2.03130
G1 X102.468 Y99.609 E2.03349
G1 X102.491 Y99.804 E2.03458
G1 X102.491 Y100.196 E2.03676
G1 X102.430 Y100.583 E2.03895
G1 X102.377 Y100.772 E2.04004
G1 X102.226 Y101.134 E2.04222
G1 X102.131 Y101.306 E2.04332
G1 X102.022 Y101.469 E2.04441
G1 X101.767 Y101.767 E2.04659
G1 X101.469 Y102.022 E2.04878
G1 X101.306 Y102.131 E2.04987
G1 X101.134 Y102.226 E2.05096
G1 X100.772 Y102.377 E2.05315
G1 X100.583 Y102.430 E2.05424
G1 X100.196 Y102.491 E2.05642
G1 X99.804 Y102.491 E2.05861
G1 X99.609 Y102.468 E2.05970
G1 X99.228 Y102.377 E2.06188
G1 X98.866 Y102.226 E2.06407
G1 X98.531 Y102.022 E2.06625
G1 X98.377 Y101.900 E2.06734
G1 X98.100 Y101.623 E2.06953
G1 X97.869 Y101.306 E2.07171
G1 X97.691 Y100.956 E2.07390
G1 X97.589 Y100.650 E2.07569
G1 X94.644 Y100.650 E2.09210
G1 X94.750 Y101.260 E2.09555
G1 X94.865 Y101.669 E2.09791
G1 X95.011 Y102.066 E2.10027
G1 X95.189 Y102.451 E2.10263
G1 X95.396 Y102.821 E2.10499
G1 X95.632 Y103.174 E2.10735
G1 X95.894 Y103.507 E2.10971
G1 X96.182 Y103.818 E2.11208
G1 X96.493 Y104.106 E2.11444
G1 X96.826 Y104.368 E2.11680
G1 X97.179 Y104.604 E2.11916
G1 X97.549 Y104.811 E2.12152
G1 X97.934 Y104.989 E2.12388
G1 X98.331 Y105.135 E2.12624
G1 X98.740 Y105.250 E2.12860
G1 X99.155 Y105.333 E2.13097
G1 X99.576 Y105.383 E2.13333
G1 X100.000 Y105.400 E2.13569
G1 X100.424 Y105.383 E2.13805
G1 X100.720 Y105.348 E2.13971
G1 X101.260 Y105.250 E2.14277
G1 X101.669 Y105.135 E2.14513
G1 X102.066 Y104.989 E2.14749
G1 X102.451 Y104.811 E2.14985
G1 X102.821 Y104.604 E2.15222
G1 X103.174 Y104.368 E2.15458
G1 X103.507 Y104.106 E2.15694
G1 X103.818 Y103.818 E2.15930
G1 X104.106 Y103.507 E2.16166
G1 X104.368 Y103.174 E2.16402
G1 X104.604 Y102.821 E2.16638
G1 X104.811 Y102.451 E2.16874
G1 X104.989 Y102.066 E2.17111
G1 X105.149 Y101.621 E2.17374
G1 X105.250 Y101.260 E2.17583
G1 X105.333 Y100.845 E2.17819
G1 X105.383 Y100.424 E2.18055
G1 X105.400 Y100.000 E2.18291
G1 X105.383 Y99.576 E2.18527
G1 X105.333 Y99.155 E2.18763
G1 X105.250 Y98.740 E2.19000
G1 X105.135 Y98.331 E2.19236
G1 X104.965 Y97.882 E2.19503
G1 X104.811 Y97.549 E2.19708
G1 X104.604 Y97.179 E2.19944
G1 X104.368 Y96.826 E2.20180
G1 X104.106 Y96.493 E2.20416
G1 X103.818 Y96.182 E2.20652
G1 X103.507 Y95.894 E2.20888
G1 X103.174 Y95.632 E2.21125
G1 X102.821 Y95.396 E2.21361
G1 X102.451 Y95.189 E2.21597
G1 X102.066 Y95.011 E2.21833
G1 X101.669 Y94.865 E2.22069
G1 X101.260 Y94.750 E2.22305
G1 X100.845 Y94.667 E2.22541
G1 X102.935 Y95.927 F7800.000
G1 X102.744 Y95.800 E2.22669 F3600.000
G1 X102.558 Y96.121 E2.22876
G1 X101.029 Y96.121 E2.23728
G1 X101.029 Y96.478 E2.23927
G1 X102.558 Y96.478 E2.24778
G1 X104.002 Y98.978 E2.26386
G1 X104.912 Y98.978 E2.26893
G1 X104.775 Y98.449 E2.27197
G1 X104.639 Y98.079 E2.27417
G1 X104.473 Y97.721 E2.27637
G1 X104.281 Y97.377 E2.27856
G1 X104.062 Y97.049 E2.28076
G1 X103.818 Y96.739 E2.28295
G1 X103.550 Y96.450 E2.28515
G1 X103.261 Y96.182 E2.28734
G1 X102.935 Y95.927 E2.28965
G1 X105.005 Y99.606 F7800.000
G1 X104.973 Y99.335 E2.29117 F3600.000
G1 X104.002 Y99.335 E2.29658
G1 X102.558 Y101.835 E2.31266
G1 X102.215 Y101.835 E2.31457
G1 X101.864 Y102.192 E2.31736
G1 X102.558 Y102.192 E2.32122
G1 X103.415 Y103.675 E2.33076
G1 X103.818 Y103.261 E2.33398
G1 X104.062 Y102.951 E2.33618
G1 X104.281 Y102.623 E2.33837
G1 X104.473 Y102.279 E2.34057
G1 X104.638 Y101.921 E2.34277
G1 X104.775 Y101.551 E2.34496
G1 X104.882 Y101.172 E2.34716
G1 X104.959 Y100.785 E2.34935
G1 X105.005 Y100.394 E2.35155
G1 X105.021 Y100.000 E2.35374
G1 X105.005 Y99.606 E2.35594
G1 Z0.550 F7800.000
G1 E0.35594 F2400.00000
G92 E0
G1 X104.384 Y104.384 F7800.000
G1 E2.00000 F2400.00000
G1 X104.027 Y104.715 E2.00512 F900.000
G1 X103.644 Y105.016 E2.01023
G1 X103.240 Y105.286 E2.01535
G1 X102.815 Y105.524 E2.02046
G1 X102.373 Y105.728 E2.02558
G1 X101.916 Y105.897 E2.03069
G1 X101.472 Y106.022 E2.03554
G1 X100.970 Y106.124 E2.04092
G1 X100.486 Y106.181 E2.04604
G1 X100.000 Y106.200 E2.05115
G1 X99.514 Y106.181 E2.05627
G1 X99.030 Y106.124 E2.06138
G1 X98.577 Y106.034 E2.06623
G1 X98.084 Y105.897 E2.07161
G1 X97.627 Y105.728 E2.07673
G1 X97.185 Y105.524 E2.08184
G1 X96.757 Y105.284 E2.08701
G1 X96.356 Y105.016 E2.09208
G1 X95.973 Y104.715 E2.09719
G1 X95.616 Y104.384 E2.10231
G1 X95.285 Y104.027 E2.10742
G1 X94.984 Y103.644 E2.11254
G1 X94.716 Y103.243 E2.11761
G1 X94.476 Y102.815 E2.12277
G1 X94.272 Y102.373 E2.12788
G1 X94.103 Y101.916 E2.13300
G1 X93.971 Y101.447 E2.13811
G1 X93.876 Y100.970 E2.14323
G1 X93.819 Y100.486 E2.14834
G1 X93.800 Y100.000 E2.15346
G1 X93.819 Y99.514 E2.15858
G1 X93.876 Y99.030 E2.16369
G1 X93.978 Y98.528 E2.16907
G1 X94.103 Y98.084 E2.17392
G1 X94.272 Y97.627 E2.17904
G1 X94.476 Y97.185 E2.18416
G1 X94.728 Y96.739 E2.18953
G1 X94.984 Y96.356 E2.19438
G1 X95.285 Y95.973 E2.19950
G1 X95.616 Y95.616 E2.20461
G1 X95.973 Y95.285 E2.20973
G1 X96.356 Y94.984 E2.21484
G1 X96.739 Y94.728 E2.21969
G1 X97.185 Y94.476 E2.22507
G1 X97.627 Y94.272 E2.23019
G1 X98.084 Y94.103 E2.23530
G1 X98.553 Y93.971 E2.24042
G1 X99.030 Y93.876 E2.24553
G1 X99.514 Y93.819 E2.25065
G1 X99.975 Y93.801 E2.25550 F900.000
G1 X100.486 Y93.819 E2.26088
G1 X100.970 Y93.876 E2.26599
G1 X101.447 Y93.971 E2.27111
G1 X101.916 Y94.103 E2.27623
G1 X102.373 Y94.272 E2.28134
G1 X102.815 Y94.476 E2.28646
G1 X103.243 Y94.716 E2.29162
G1 X103.644 Y94.984 E2.29669
G1 X104.027 Y95.285 E2.30180
G1 X104.384 Y95.616 E2.30692
G1 X104.715 Y95.973 E2.31203
G1 X105.016 Y96.356 E2.31715
G1 X105.284 Y96.757 E2.32222
G1 X105.524 Y97.185 E2.32738
G1 X105.728 Y97.627 E2.33249
G1 X105.897 Y98.084 E2.33761
G1 X106.029 Y98.553 E2.34273
G1 X106.124 Y99.030 E2.34784
G1 X106.181 Y99.514 E2.35296
G1 X106.200 Y100.000 E2.35807
G1 X106.181 Y100.486 E2.36319
G1 X106.124 Y100.970 E2.36830
G1 X106.029 Y101.447 E2.37342
G1 X105.897 Y101.916 E2.37853
G1 X105.728 Y102.373 E2.38365
G1 X105.524 Y102.815 E2.38876
G1 X105.286 Y103.240 E2.39388
G1 X105.016 Y103.644 E2.39899
G1 X104.715 Y104.027 E2.40411
G1 X104.425 Y104.340 E2.40859
G1 X104.483 Y104.772 F7800.000
G1 X104.824 Y104.791 F7800.000
G1 X104.416 Y105.171 E2.41445 F900.000
G1 X103.997 Y105.501 E2.42006
G1 X103.553 Y105.798 E2.42567
G1 X103.087 Y106.059 E2.43128
G1 X102.602 Y106.282 E2.43689
G1 X102.101 Y106.467 E2.44250
G1 X101.587 Y106.612 E2.44811
G1 X101.064 Y106.716 E2.45372
G1 X100.534 Y106.779 E2.45933
G1 X100.000 Y106.800 E2.46494
G1 X99.466 Y106.779 E2.47055
G1 X98.936 Y106.716 E2.47616
G1 X98.413 Y106.612 E2.48177
G1 X97.899 Y106.467 E2.48738
G1 X97.398 Y106.282 E2.49299
G1 X96.913 Y106.059 E2.49860
G1 X96.447 Y105.798 E2.50421
G1 X96.003 Y105.501 E2.50982
G1 X95.584 Y105.171 E2.51543
G1 X95.192 Y104.808 E2.52104
G1 X94.829 Y104.416 E2.52665
G1 X94.499 Y103.997 E2.53226
G1 X94.202 Y103.553 E2.53787
G1 X93.941 Y103.087 E2.54348
G1 X93.718 Y102.602 E2.54910
G1 X93.533 Y102.101 E2.55471
G1 X93.388 Y101.587 E2.56032
G1 X93.288 Y101.082 E2.56573
G1 X93.221 Y100.533 E2.57154
G1 X93.200 Y100.000 E2.57715
G1 X93.221 Y99.466 E2.58276
G1 X93.284 Y98.936 E2.58837
G1 X93.388 Y98.413 E2.59398
G1 X93.533 Y97.899 E2.59959
G1 X93.718 Y97.398 E2.60520
G1 X93.941 Y96.913 E2.61081
G1 X94.202 Y96.447 E2.61642
G1 X94.488 Y96.019 E2.62183
G1 X94.830 Y95.584 E2.62764
G1 X95.192 Y95.192 E2.63325
G1 X95.584 Y94.830 E2.63885
G1 X96.019 Y94.488 E2.64466
G1 X96.447 Y94.202 E2.65008
G1 X96.913 Y93.941 E2.65569
G1 X97.398 Y93.718 E2.66130
G1 X97.899 Y93.533 E2.66691
G1 X98.413 Y93.388 E2.67252
G1 X98.936 Y93.284 E2.67813
G1 X99.466 Y93.221 E2.68373
G1 X100.019 Y93.201 E2.68954
G1 X100.534 Y93.221 E2.69496
G1 X101.064 Y93.284 E2.70057 F900.000
G1 X101.587 Y93.388 E2.70618
G1 X102.101 Y93.533 E2.71179
G1 X102.602 Y93.718 E2.71740
G1 X103.087 Y93.941 E2.72301
G1 X103.553 Y94.202 E2.72862
G1 X103.997 Y94.499 E2.73423
G1 X104.416 Y94.829 E2.73984
G1 X104.808 Y95.192 E2.74545
G1 X105.171 Y95.584 E2.75106
G1 X105.501 Y96.003 E2.75667
G1 X105.798 Y96.447 E2.76228
G1 X106.050 Y96.897 E2.76769
G1 X106.282 Y97.398 E2.77350
G1 X106.467 Y97.899 E2.77911
G1 X106.612 Y98.413 E2.78472
G1 X106.716 Y98.936 E2.79033
G1 X106.779 Y99.466 E2.79594
G1 X106.800 Y100.000 E2.80155
G1 X106.779 Y100.534 E2.80716
