; generated by Slic3r 1.2.9 on 2019-10-04 at 11:20:14

; external perimeters extrusion width = 0.40mm
; perimeters extrusion width = 0.48mm
; infill extrusion width = 0.48mm
; solid infill extrusion width = 0.48mm
; top infill extrusion width = 0.48mm

M107
M190 S65 ; set bed temperature
M104 S200 ; set temperature
G28 ; home all axes
G1 Z5 F5000 ; lift nozzle

M109 S200 ; wait for temperature to be reached
G21 ; set units to millimeters
G90 ; use absolute coordinates
M82 ; use absolute distances for extrusion
G92 E0
G1 Z0.350 F7800.000
G1 E-2.00000 F2400.00000
G92 E0
G1 X77.915 Y90.653 F7800.000
G1 E2.00000 F2400.00000
G1 X79.668 Y89.174 E2.07380 F1800.000
G1 X81.820 Y88.381 E2.14760
G1 X83.000 Y88.275 E2.18572
G1 X117.000 Y88.275 E3.27980
G1 X119.259 Y88.672 E3.35360
G1 X121.247 Y89.815 E3.42741 F1800.000
G1 X122.726 Y91.568 E3.50121
G1 X123.519 Y93.720 E3.57501
G1 X123.625 Y94.900 E3.61312
G1 X123.625 Y105.100 E3.94135
G1 X123.228 Y107.359 E4.01515
G1 X122.085 Y109.347 E4.08895
G1 X120.332 Y110.826 E4.16275
G1 X118.180 Y111.619 E4.23655
G1 X117.000 Y111.725 E4.27467
G1 X83.000 Y111.725 E5.36875
G1 X80.741 Y111.328 E5.44256
G1 X78.753 Y110.185 E5.51636
G1 X77.274 Y108.432 E5.59016
G1 X76.481 Y106.280 E5.66396
G1 X76.375 Y105.100 E5.70207
G1 X76.375 Y94.900 E6.03030
G1 X76.772 Y92.641 E6.10410
G1 X77.886 Y90.705 E6.17597
G1 E4.17597 F2400.00000
G92 E0
G1 X87.885 Y101.375 F7800.000
G1 E2.00000 F2400.00000
G1 X87.646 Y101.579 E2.01013 F1800.000
G1 X87.307 Y101.783 E2.02285
G1 X86.949 Y101.899 E2.03496
G1 X86.507 Y101.952 E2.04928
G1 X86.188 Y101.927 E2.05958
G1 X85.753 Y101.804 E2.07412
G1 X85.358 Y101.582 E2.08870
G1 X85.081 Y101.343 E2.10046
G1 X84.838 Y101.022 E2.11342
G1 X84.697 Y100.747 E2.12338
G1 X84.601 Y100.449 E2.13345
G1 X84.548 Y100.000 E2.14800
G1 X84.601 Y99.551 E2.16254
G1 X84.698 Y99.253 E2.17264
G1 X84.846 Y98.965 E2.18304
G1 X85.115 Y98.625 E2.19702
G1 X85.358 Y98.417 E2.20731
G1 X85.747 Y98.200 E2.22163
G1 X86.051 Y98.101 E2.23192
G1 X86.482 Y98.049 E2.24590 F1800.000
G1 X86.811 Y98.073 E2.25653
G1 X87.247 Y98.196 E2.27110
G1 X87.642 Y98.417 E2.28564
G1 X87.885 Y98.625 E2.29594
G1 X88.160 Y98.974 E2.31026
G1 X88.303 Y99.253 E2.32033
G1 X88.399 Y99.551 E2.33041
G1 X88.452 Y100.000 E2.34496
G1 X88.399 Y100.449 E2.35950
G1 X88.303 Y100.747 E2.36958
G1 X88.160 Y101.026 E2.37965
G1 X87.922 Y101.328 E2.39204
G1 X87.962 Y101.680 F7800.000
G1 X109.418 Y100.000 F7800.000
G1 X109.487 Y99.417 E2.41093 F1800.000
G1 X109.618 Y99.013 E2.42457
G1 X109.811 Y98.636 E2.43821
G1 X110.162 Y98.190 E2.45649
G1 X110.499 Y97.902 E2.47075
G1 X110.995 Y97.624 E2.48903
G1 X111.416 Y97.488 E2.50328
G1 X111.975 Y97.421 E2.52138 F1800.000
G1 X112.422 Y97.455 E2.53580
G1 X112.988 Y97.615 E2.55474
G1 X113.501 Y97.902 E2.57364
G1 X113.838 Y98.190 E2.58790
G1 X114.189 Y98.636 E2.60618
G1 X114.382 Y99.014 E2.61985
G1 X114.514 Y99.422 E2.63365
G1 X114.582 Y100.000 E2.65238
G1 X114.513 Y100.583 E2.67127
G1 X114.382 Y100.987 E2.68491
G1 X114.189 Y101.364 E2.69855
G1 X113.838 Y101.810 E2.71683
G1 X113.501 Y102.098 E2.73109
G1 X112.988 Y102.385 E2.74999
G1 X112.423 Y102.545 E2.76890
G1 X112.000 Y102.578 E2.78254
G1 X111.577 Y102.545 E2.79618
G1 X111.012 Y102.385 E2.81508
G1 X110.499 Y102.098 E2.83399
G1 X110.162 Y101.810 E2.84825
G1 X109.811 Y101.364 E2.86653
G1 X109.618 Y100.986 E2.88020
G1 X109.486 Y100.578 E2.89399
G1 X109.425 Y100.059 E2.91079
G1 X110.048 Y100.000 F7800.000
G1 X110.101 Y99.551 E2.92533 F1800.000
G1 X110.197 Y99.253 E2.93541
G1 X110.340 Y98.974 E2.94548
G1 X110.615 Y98.625 E2.95980
G1 X110.858 Y98.417 E2.97010
G1 X111.247 Y98.200 E2.98442
G1 X111.551 Y98.101 E2.99472
G1 X111.988 Y98.049 E3.00889 F1800.000
G1 X112.312 Y98.073 E3.01933
G1 X112.747 Y98.196 E3.03389
G1 X113.142 Y98.417 E3.04843
G1 X113.385 Y98.625 E3.05873
G1 X113.660 Y98.974 E3.07305
G1 X113.803 Y99.254 E3.08314
G1 X113.900 Y99.556 E3.09336
G1 X113.952 Y100.000 E3.10775
G1 X113.899 Y100.449 E3.12229
G1 X113.803 Y100.747 E3.13237
G1 X113.660 Y101.026 E3.14244
G1 X113.385 Y101.375 E3.15676
G1 X113.142 Y101.583 E3.16706
G1 X112.747 Y101.804 E3.18161
G1 X112.312 Y101.927 E3.19615
G1 X112.000 Y101.951 E3.20623
G1 X111.688 Y101.927 E3.21630
G1 X111.253 Y101.804 E3.23085
G1 X110.858 Y101.583 E3.24539
G1 X110.615 Y101.375 E3.25569
G1 X110.340 Y101.026 E3.27001
G1 X110.197 Y100.746 E3.28010
G1 X110.100 Y100.444 E3.29032
G1 X110.055 Y100.059 E3.30278
G1 X109.709 Y99.786 F7800.000
G1 X111.464 Y96.852 F7800.000
G1 X111.281 Y96.874 E3.30870 F1800.000
G1 X110.744 Y97.049 E3.32690
G1 X110.140 Y97.387 E3.34915
G1 X109.710 Y97.755 E3.36737
G1 X109.282 Y98.297 E3.38961
G1 X109.039 Y98.774 E3.40681
G1 X108.874 Y99.282 E3.42401
G1 X108.789 Y99.999 E3.44725
G1 X108.873 Y100.711 E3.47033
G1 X109.039 Y101.225 E3.48769
G1 X109.282 Y101.703 E3.50494
G1 X109.710 Y102.245 E3.52718
G1 X110.140 Y102.613 E3.54541
G1 X110.771 Y102.967 E3.56868
G1 X111.516 Y103.177 E3.59359
G1 X111.472 Y103.500 E3.60410
G1 X87.058 Y103.500 E4.38970
G1 X87.037 Y103.147 E4.40108
G1 X87.218 Y103.126 E4.40694
G1 X87.828 Y102.928 E4.42758
G1 X88.378 Y102.597 E4.44823
G1 X88.790 Y102.245 E4.46566
G1 X89.218 Y101.703 E4.48790
G1 X89.461 Y101.226 E4.50510
G1 X89.626 Y100.718 E4.52230
G1 X89.711 Y100.000 E4.54557
G1 X89.626 Y99.282 E4.56884
G1 X89.461 Y98.774 E4.58604
G1 X89.218 Y98.297 E4.60324
G1 X88.790 Y97.755 E4.62548
G1 X88.360 Y97.387 E4.64370
G1 X87.729 Y97.033 E4.66697
G1 X86.984 Y96.823 E4.69188
G1 X87.028 Y96.500 E4.70239
G1 X111.443 Y96.500 E5.48803
G1 X111.461 Y96.793 E5.49747
G1 X112.484 Y96.823 F7800.000
G1 X112.528 Y96.500 E5.50798 F1800.000
G1 X115.400 Y96.500 E5.60039
G1 X115.400 Y99.103 E5.68418
G1 X115.084 Y99.153 E5.69449
G1 X114.961 Y98.775 E5.70728
G1 X114.718 Y98.297 E5.72453
G1 X114.290 Y97.755 E5.74677
G1 X113.860 Y97.387 E5.76500
G1 X113.229 Y97.033 E5.78826
G1 X112.541 Y96.840 E5.81124
G1 X115.084 Y100.847 F7800.000
G1 X115.400 Y100.897 E5.82155 F1800.000
G1 X115.400 Y103.500 E5.90530
G1 X112.528 Y103.500 E5.99771
G1 X112.484 Y103.177 E6.00822
G1 X113.229 Y102.967 E6.03313
G1 X113.860 Y102.613 E6.05640
G1 X114.290 Y102.245 E6.07463
G1 X114.718 Y101.703 E6.09687
G1 X114.961 Y101.226 E6.11406
G1 X115.065 Y100.904 E6.12496
G1 E4.12496 F2400.00000
G92 E0
G1 X85.966 Y96.852 F7800.000
G1 E2.00000 F2400.00000
G1 X85.780 Y96.875 E2.00600 F1800.000
G1 X85.244 Y97.049 E2.02417
G1 X84.600 Y97.409 E2.04791
G1 X84.600 Y96.500 E2.07718
G1 X85.944 Y96.500 E2.12045
G1 X85.962 Y96.792 E2.12989
G1 E0.12989 F2400.00000
G92 E0
G1 X84.600 Y102.591 F7800.000
G1 E2.00000 F2400.00000
G1 X85.271 Y102.967 E2.02476 F1800.000
G1 X86.016 Y103.177 E2.04967
G1 X85.972 Y103.500 E2.06019
G1 X84.600 Y103.500 E2.10433
G1 X84.600 Y102.651 E2.13167
G1 X83.975 Y101.341 F7800.000
G1 X84.231 Y101.255 E2.14035 F1800.000
G1 X84.622 Y101.773 E2.16125
G1 X84.997 Y102.097 E2.17717
G1 X85.512 Y102.385 E2.19617
G1 X86.077 Y102.545 E2.21508
G1 X86.519 Y102.579 E2.22934
G1 X87.084 Y102.513 E2.24762
G1 X87.567 Y102.355 E2.26399
G1 X88.012 Y102.088 E2.28068
G1 X88.338 Y101.810 E2.29446
G1 X88.689 Y101.364 E2.31274
G1 X88.882 Y100.987 E2.32638
G1 X89.013 Y100.583 E2.34001
G1 X89.082 Y100.000 E2.35892
G1 X89.013 Y99.417 E2.37783
G1 X88.882 Y99.013 E2.39147
G1 X88.689 Y98.636 E2.40510
G1 X88.338 Y98.190 E2.42338
G1 X88.001 Y97.902 E2.43764
G1 X87.488 Y97.615 E2.45655
G1 X86.920 Y97.455 E2.47553
G1 X86.468 Y97.421 E2.49013
G1 X85.916 Y97.488 E2.50803
G1 X85.495 Y97.624 E2.52225
G1 X84.999 Y97.902 E2.54054
G1 X84.663 Y98.189 E2.55477
G1 X84.227 Y98.741 E2.57740
G1 X83.975 Y98.653 E2.58598
G1 X83.975 Y95.875 E2.67537
G1 X116.025 Y95.875 E3.70672
G1 X116.025 Y104.125 E3.97220
G1 X83.975 Y104.125 E5.00354
G1 X83.975 Y101.401 E5.09120
G1 X83.350 Y104.750 F7800.000
G1 X83.350 Y95.250 E5.39690 F1800.000
G1 X116.650 Y95.250 E6.46846
G1 X116.650 Y104.750 E6.77416
G1 X83.410 Y104.750 E7.84379
G1 X83.550 Y104.404 F7800.000
G1 X84.045 Y100.988 F7800.000
G1 X83.979 Y100.553 E7.87377 F1800.000
G1 X83.949 Y99.966 E7.91388
G1 X83.979 Y99.447 E7.94940
G1 X84.046 Y99.008 E7.97964
G1 X88.951 Y96.878 F7800.000
G1 X95.194 Y103.122 E8.26809 F1800.000
G1 X96.091 Y103.122 E8.29740
G1 X89.848 Y96.878 E8.58586
G1 X90.745 Y96.878 E8.61517
G1 X96.988 Y103.122 E8.90363
G1 X97.886 Y103.122 E8.93294
G1 X91.642 Y96.878 E9.22140
G1 X92.539 Y96.878 E9.25071
G1 X98.783 Y103.122 E9.53916
G1 X99.680 Y103.122 E9.56848
G1 X93.437 Y96.878 E9.85693
G1 X94.334 Y96.878 E9.88624
G1 X100.577 Y103.122 E10.17470
G1 X101.474 Y103.122 E10.20401
G1 X95.231 Y96.878 E10.49247
G1 X96.128 Y96.878 E10.52178
G1 X102.372 Y103.122 E10.81024
G1 X103.269 Y103.122 E10.83955
G1 X97.026 Y96.878 E11.12801
G1 X97.923 Y96.878 E11.15732
G1 X104.166 Y103.122 E11.44577
G1 X105.063 Y103.122 E11.47509
G1 X98.820 Y96.878 E11.76354
G1 X99.717 Y96.878 E11.79285
G1 X105.960 Y103.122 E12.08131
G1 X106.858 Y103.122 E12.11062
G1 X100.614 Y96.878 E12.39908
G1 X101.512 Y96.878 E12.42839
G1 X107.755 Y103.122 E12.71685
G1 X108.652 Y103.122 F7800.000
G1 X102.409 Y96.878 E13.00530 F1800.000
G1 X103.306 Y96.878 E13.03461
G1 X109.549 Y103.122 E13.32307
G1 X108.611 Y101.286 F7800.000
G1 X104.203 Y96.878 E13.52671 F1800.000
G1 X105.101 Y96.878 E13.55602
G1 X108.414 Y100.192 E13.70912
G1 X108.496 Y99.377 E13.73588
G1 X105.998 Y96.878 E13.85132
G1 X106.895 Y96.878 E13.88064
G1 X108.708 Y98.691 E13.96439
G1 X109.019 Y98.106 E13.98606
G1 X107.792 Y96.878 E14.04276
G1 X108.689 Y96.878 E14.07207
G1 X109.415 Y97.604 E14.10559
G1 X109.587 Y96.878 E14.12994
G1 X109.886 Y97.178 E14.14377
G1 X89.890 Y98.714 F7800.000
G1 X94.297 Y103.122 E14.34740 F1800.000
G1 X93.399 Y103.122 E14.37671
G1 X90.086 Y99.808 E14.52980
G1 X90.004 Y100.623 E14.55655
G1 X92.502 Y103.122 E14.67199
G1 X91.605 Y103.122 E14.70130
G1 X89.792 Y101.309 E14.78506
G1 X89.481 Y101.894 E14.80673
G1 X90.708 Y103.122 E14.86343
G1 X89.811 Y103.122 E14.89274
G1 X89.085 Y102.396 E14.92626
G1 X88.614 Y102.822 E14.94701
G1 X88.913 Y103.122 E14.96084
G1 X114.136 Y96.890 F7800.000
G1 X114.409 Y97.163 E14.97326 F1800.000
G1 X114.517 Y97.537 F7800.000
G1 X115.017 Y98.057 E14.99649 F1800.000
G1 X115.072 Y98.268 E15.00348
G1 X115.072 Y101.732 F7800.000
G1 X115.017 Y101.943 E15.01047 F1800.000
G1 X114.517 Y102.463 E15.03370
G1 X114.136 Y102.829 F7800.000
G1 X114.409 Y103.102 E15.04613 F1800.000
G1 Z0.650 F7800.000
G1 X85.228 Y101.770 F7800.000
G1 X84.950 Y101.533 E15.05287 F900.000
G1 X84.647 Y101.149 E15.06193
G1 X84.487 Y100.834 E15.06846
G1 X84.378 Y100.498 E15.07499
G1 X84.319 Y100.000 E15.08426
G1 X84.378 Y99.502 E15.09353
G1 X84.487 Y99.166 E15.10006
G1 X84.647 Y98.851 E15.10660
G1 X84.950 Y98.467 E15.11565
G1 X85.228 Y98.230 E15.12240
G1 X85.655 Y97.990 E15.13145
G1 X86.000 Y97.878 E15.13817
G1 X86.455 Y97.821 E15.14664 F900.000
G1 X86.849 Y97.848 E15.15393
G1 X87.335 Y97.985 E15.16327
G1 X87.772 Y98.230 E15.17254
G1 X88.050 Y98.467 E15.17928
G1 X88.353 Y98.851 E15.18834
G1 X88.517 Y99.174 E15.19504
G1 X88.649 Y99.629 E15.20379
G1 X88.680 Y100.011 E15.21087
G1 X88.622 Y100.498 E15.21994
G1 X88.513 Y100.834 E15.22647
G1 X88.353 Y101.149 E15.23301
G1 X88.050 Y101.533 E15.24206
G1 X87.772 Y101.770 E15.24881
G1 X87.335 Y102.015 E15.25808
G1 X86.852 Y102.151 E15.26734
G1 X86.500 Y102.179 E15.27388
G1 X86.148 Y102.151 E15.28041
G1 X85.665 Y102.015 E15.28968
G1 X85.280 Y101.800 E15.29784
G1 X85.445 Y101.459 F7800.000
G1 X85.224 Y101.271 E15.30214 F900.000
G1 X84.967 Y100.944 E15.30830
G1 X84.836 Y100.689 E15.31254
G1 X84.748 Y100.417 E15.31679
G1 X84.699 Y100.000 E15.32300
G1 X84.748 Y99.583 E15.32921
G1 X84.836 Y99.311 E15.33346
G1 X84.967 Y99.056 E15.33770
G1 X85.224 Y98.729 E15.34386
G1 X85.445 Y98.541 E15.34816
G1 X85.807 Y98.338 E15.35432
G1 X86.083 Y98.248 E15.35861
G1 X86.466 Y98.200 E15.36434 F900.000
G1 X86.784 Y98.222 E15.36906
G1 X87.189 Y98.336 E15.37529
G1 X87.555 Y98.541 E15.38151
G1 X87.776 Y98.729 E15.38581
G1 X88.033 Y99.056 E15.39196
G1 X88.165 Y99.314 E15.39626
G1 X88.276 Y99.697 E15.40217
G1 X88.301 Y100.004 E15.40672
G1 X88.252 Y100.417 E15.41288
G1 X88.164 Y100.689 E15.41713
G1 X88.033 Y100.944 E15.42137
G1 X87.776 Y101.271 E15.42753
G1 X87.555 Y101.459 E15.43183
G1 X87.189 Y101.664 E15.43804
G1 X86.786 Y101.778 E15.44426
G1 X86.500 Y101.801 E15.44850
G1 X86.214 Y101.778 E15.45275
G1 X85.811 Y101.664 E15.45896
G1 X85.497 Y101.489 E15.46429
G1 X85.178 Y101.574 F7800.000
G1 E13.46429 F2400.00000
G92 E0
G1 X109.409 Y100.224 F7800.000
G1 E2.00000 F2400.00000
G1 X109.409 Y99.776 E2.00827 F900.000
G1 X109.520 Y99.215 E2.01885
G1 X109.692 Y98.802 E2.02712
G1 X110.021 Y98.309 E2.03807
G1 X110.455 Y97.907 E2.04902
G1 X110.837 Y97.674 E2.05729
G1 X111.374 Y97.476 E2.06787
G1 X111.816 Y97.406 E2.07614 F900.000
G1 X112.387 Y97.428 E2.08672
G1 X112.803 Y97.528 E2.09463
G1 X113.198 Y97.692 E2.10253
G1 X113.691 Y98.021 E2.11348
G1 X114.092 Y98.455 E2.12443
G1 X114.316 Y98.820 E2.13233
G1 X114.480 Y99.215 E2.14024
G1 X114.591 Y99.776 E2.15082
G1 X114.591 Y100.224 E2.15909
G1 X114.479 Y100.788 E2.16973
G1 X114.300 Y101.213 E2.17825
G1 X113.978 Y101.691 E2.18891
G1 X113.545 Y102.092 E2.19984
G1 X113.163 Y102.326 E2.20811
G1 X112.626 Y102.524 E2.21869
G1 X112.184 Y102.594 E2.22696
G1 X111.613 Y102.572 E2.23754
G1 X111.197 Y102.472 E2.24545
G1 X110.802 Y102.308 E2.25335
G1 X110.326 Y101.990 E2.26393
G1 X110.010 Y101.674 E2.27220
G1 X109.692 Y101.198 E2.28279
G1 X109.520 Y100.785 E2.29105
G1 X109.420 Y100.283 E2.30053
G1 X109.828 Y100.182 F7800.000
G1 X109.828 Y99.818 E2.30727 F900.000
G1 X109.923 Y99.337 E2.31633
G1 X110.063 Y99.000 E2.32307
G1 X110.341 Y98.583 E2.33234
G1 X110.709 Y98.243 E2.34161
G1 X111.020 Y98.052 E2.34836
G1 X111.480 Y97.883 E2.35741
G1 X111.840 Y97.826 E2.36416 F900.000
G1 X112.330 Y97.845 E2.37321
G1 X112.673 Y97.928 E2.37974
G1 X113.000 Y98.063 E2.38628
G1 X113.417 Y98.341 E2.39555
G1 X113.757 Y98.709 E2.40481
G1 X113.942 Y99.011 E2.41135
G1 X114.077 Y99.337 E2.41788
G1 X114.172 Y99.818 E2.42694
G1 X114.172 Y100.182 E2.43368
G1 X114.076 Y100.664 E2.44277
G1 X113.930 Y101.013 E2.44976
G1 X113.658 Y101.417 E2.45876
G1 X113.291 Y101.757 E2.46802
G1 X112.980 Y101.948 E2.47476
G1 X112.520 Y102.117 E2.48382
G1 X112.160 Y102.174 E2.49056
G1 X111.670 Y102.155 E2.49962
G1 X111.327 Y102.072 E2.50615
G1 X111.000 Y101.937 E2.51269
G1 X110.593 Y101.665 E2.52174
G1 X110.335 Y101.407 E2.52849
G1 X110.063 Y101.000 E2.53754
G1 X109.923 Y100.663 E2.54429
G1 X109.839 Y100.241 E2.55223
G1 X110.205 Y100.145 F7800.000
G1 X110.205 Y99.855 E2.55654 F900.000
G1 X110.286 Y99.447 E2.56269
G1 X110.397 Y99.179 E2.56700
G1 X110.630 Y98.830 E2.57321
G1 X110.938 Y98.545 E2.57942
G1 X111.186 Y98.394 E2.58373
G1 X111.576 Y98.250 E2.58988
G1 X111.863 Y98.204 E2.59419 F900.000
G1 X112.278 Y98.221 E2.60034
G1 X112.556 Y98.288 E2.60459
G1 X112.821 Y98.397 E2.60883
G1 X113.170 Y98.630 E2.61504
G1 X113.455 Y98.938 E2.62126
G1 X113.604 Y99.183 E2.62550
G1 X113.714 Y99.447 E2.62975
G1 X113.795 Y99.855 E2.63590
G1 X113.795 Y100.145 E2.64021
G1 X113.714 Y100.553 E2.64637
G1 X113.596 Y100.833 E2.65086
G1 X113.370 Y101.170 E2.65688
G1 X113.062 Y101.455 E2.66309
G1 X112.814 Y101.606 E2.66739
G1 X112.424 Y101.750 E2.67355
G1 X112.137 Y101.796 E2.67785
G1 X111.722 Y101.779 E2.68401
G1 X111.444 Y101.712 E2.68825
G1 X111.179 Y101.603 E2.69250
G1 X110.833 Y101.372 E2.69865
G1 X110.628 Y101.167 E2.70296
G1 X110.397 Y100.821 E2.70911
G1 X110.286 Y100.553 E2.71341
G1 X110.217 Y100.204 E2.71868
G1 X109.944 Y100.017 F7800.000
G1 E0.71868 F2400.00000
G92 E0
G1 X116.004 Y104.104 F7800.000
G1 E2.00000 F2400.00000
G1 X83.996 Y104.104 E2.59179 F1800.000
G1 X83.996 Y101.218 E2.64515
G1 X84.189 Y101.172 E2.64881
G1 X84.293 Y101.376 E2.65305
G1 X84.647 Y101.825 E2.66363
G1 X84.987 Y102.116 E2.67190
G1 X85.504 Y102.405 E2.68285
G1 X86.074 Y102.566 E2.69379
G1 X86.500 Y102.599 E2.70170
G1 X86.926 Y102.566 E2.70960
G1 X87.496 Y102.405 E2.72055
G1 X88.013 Y102.116 E2.73150
G1 X88.353 Y101.825 E2.73977
G1 X88.707 Y101.376 E2.75035
G1 X88.901 Y100.995 E2.75826
G1 X89.033 Y100.588 E2.76616
G1 X89.101 Y100.018 E2.77677
G1 X89.063 Y99.553 E2.78541
G1 X88.909 Y99.020 E2.79567
G1 X88.707 Y98.624 E2.80387
