; generated by Slic3r 1.2.9 on 2019-10-04 at 11:53:03

; external perimeters extrusion width = 0.40mm
; perimeters extrusion width = 0.48mm
; infill extrusion width = 0.48mm
; solid infill extrusion width = 0.48mm
; top infill extrusion width = 0.48mm

M107
M190 S65 ; set bed temperature
M104 S200 ; set temperature
G28 ; home all axes
G1 Z5 F5000 ; lift nozzle

M109 S200 ; wait for temperature to be reached
G21 ; set units to millimeters
G90 ; use absolute coordinates
M82 ; use absolute distances for extrusion
G92 E0
G1 Z0.350 F7800.000
G1 E-2.00000 F2400.00000
G92 E0
G1 X88.739 Y81.868 F7800.000
G1 E2.00000 F2400.00000
G1 X90.531 Y80.436 E2.07380 F1800.000
G1 X93.707 Y79.625 E2.17929
G1 X99.707 Y79.625 E2.37236
G1 X101.966 Y80.022 E2.44616
G1 X103.697 Y80.961 E2.50952 F1800.000
G1 X115.297 Y89.711 E2.97708
G1 X116.861 Y91.388 E3.05089
G1 X117.760 Y93.498 E3.12469
G1 X117.932 Y95.000 E3.17333
G1 X117.932 Y105.000 E3.49512
G1 X117.535 Y107.259 E3.56892
G1 X116.392 Y109.247 E3.64272
G1 X115.297 Y110.289 E3.69136
G1 X103.697 Y119.039 E4.15892
G1 X101.655 Y120.082 E4.23272
G1 X99.707 Y120.375 E4.29608
G1 X93.707 Y120.375 E4.48916
G1 X91.449 Y119.978 E4.56296
G1 X89.461 Y118.835 E4.63676
G1 X88.418 Y117.739 E4.68542
G1 X83.403 Y111.089 E4.95344
G1 X82.360 Y109.046 E5.02724
G1 X82.068 Y107.100 E5.09058
G1 X82.068 Y98.994 E5.35142
G1 X82.528 Y96.568 E5.43087
G1 X87.543 Y83.824 E5.87158
G1 X88.708 Y81.919 E5.94345
G1 E3.94345 F2400.00000
G92 E0
G1 X98.108 Y103.400 F7800.000
G1 E2.00000 F2400.00000
G1 X98.108 Y112.150 E2.28157 F1800.000
G1 X95.307 Y112.150 E2.37168
G1 X95.307 Y105.500 E2.58567
G1 X90.292 Y105.500 E2.74705
G1 X90.292 Y100.594 E2.90493
G1 X95.307 Y100.594 E3.06631
G1 X95.307 Y87.850 E3.47640
G1 X98.108 Y87.850 E3.56652
G1 X98.108 Y96.600 E3.84808
G1 X109.708 Y96.600 E4.22136
G1 X109.708 Y103.400 E4.44019
G1 X98.168 Y103.400 E4.81153
G1 X98.733 Y104.025 F7800.000
G1 X98.733 Y112.775 E5.09310 F1800.000
G1 X94.682 Y112.775 E5.22343
G1 X94.682 Y106.125 E5.43742
G1 X89.667 Y106.125 E5.59880
G1 X89.667 Y99.969 E5.79689
G1 X94.682 Y99.969 E5.95827
G1 X94.682 Y87.225 E6.36837
G1 X98.733 Y87.225 E6.49870
G1 X98.733 Y95.975 E6.78026
G1 X110.333 Y95.975 E7.15354
G1 X110.333 Y104.025 E7.41259
G1 X98.793 Y104.025 E7.78393
G1 X99.357 Y104.650 F7800.000
G1 X99.357 Y113.400 E8.06550 F1800.000
G1 X94.057 Y113.400 E8.23605
G1 X94.057 Y106.750 E8.45004
G1 X89.042 Y106.750 E8.61142
G1 X89.042 Y99.344 E8.84973
G1 X94.057 Y99.344 E9.01110
G1 X94.057 Y86.600 E9.42120
G1 X99.357 Y86.600 E9.59175
G1 X99.357 Y95.350 E9.87331
G1 X110.957 Y95.350 E10.24659
G1 X110.957 Y104.650 E10.54585
G1 X99.417 Y104.650 E10.91720
G1 X98.957 Y104.650 F7800.000
G1 X97.729 Y103.636 F7800.000
G1 X95.066 Y100.973 E11.04031 F1800.000
G1 X94.168 Y100.973 E11.06965
G1 X97.729 Y104.534 E11.23426
G1 X97.729 Y105.431 E11.26360
G1 X93.270 Y100.973 E11.46969
G1 X92.373 Y100.973 E11.49903
G1 X97.729 Y106.329 E11.74662
G1 X97.729 Y107.226 E11.77596
G1 X91.475 Y100.973 E12.06504
G1 X90.671 Y101.066 E12.09150
G1 X94.727 Y105.122 E12.27898
G1 X93.829 Y105.122 E12.30832
G1 X90.671 Y101.963 E12.45430
G1 X90.671 Y102.861 E12.48364
G1 X92.931 Y105.122 E12.58813
G1 X92.034 Y105.122 E12.61747
G1 X90.671 Y103.759 E12.68048
G1 X90.671 Y104.656 E12.70981
G1 X91.136 Y105.122 E12.73132
G1 X95.686 Y106.081 F7800.000
G1 X97.729 Y108.124 E12.82577 F1800.000
G1 X97.729 Y109.022 E12.85511
G1 X95.686 Y106.978 E12.94956
G1 X95.686 Y107.876 E12.97890
G1 X97.729 Y109.919 E13.07335
G1 X97.729 Y110.817 E13.10269
G1 X95.686 Y108.774 E13.19713
G1 X95.686 Y109.671 E13.22647
G1 X97.729 Y111.715 E13.32092
G1 X96.889 Y111.772 E13.34846
G1 X95.686 Y110.569 E13.40405
G1 X95.686 Y111.467 E13.43339
G1 X95.991 Y111.772 E13.44749
G1 X98.012 Y103.022 F7800.000
G1 X95.686 Y100.695 E13.55504 F1800.000
G1 X95.686 Y99.797 E13.58438
G1 X98.910 Y103.022 E13.73341
G1 X99.808 Y103.022 E13.76275
G1 X95.686 Y98.900 E13.95328
G1 X95.686 Y98.002 E13.98262
G1 X100.705 Y103.022 E14.21463
G1 X101.603 Y103.022 E14.24397
G1 X95.686 Y97.105 E14.51748
G1 X95.686 Y96.207 E14.54682
G1 X102.501 Y103.022 E14.86182
G1 X103.398 Y103.022 E14.89116
G1 X95.686 Y95.309 E15.24765
G1 X97.729 Y96.455 F7800.000
G1 X95.686 Y94.412 E15.34210 F1800.000
G1 X95.686 Y93.514 E15.37144
G1 X97.729 Y95.557 E15.46589
G1 X97.729 Y94.660 E15.49523
G1 X95.686 Y92.616 E15.58968
G1 X95.686 Y91.719 E15.61901
G1 X97.729 Y93.762 E15.71346
G1 X97.729 Y92.864 E15.74280
G1 X95.686 Y90.821 E15.83725
G1 X95.686 Y89.924 E15.86659
G1 X97.729 Y91.967 E15.96104
G1 X97.729 Y91.069 E15.99038
G1 X95.686 Y89.026 E16.08482
G1 X95.786 Y88.228 E16.11110
G1 X97.729 Y90.172 E16.20092
G1 X97.729 Y89.274 E16.23026
G1 X96.684 Y88.228 E16.27859
G1 X98.253 Y96.978 F7800.000
G1 X104.296 Y103.022 E16.55793 F1800.000
G1 X105.193 Y103.022 E16.58727
G1 X99.150 Y96.978 E16.86662
G1 X100.048 Y96.978 E16.89595
G1 X106.091 Y103.022 E17.17530
G1 X106.989 Y103.022 E17.20464
G1 X100.945 Y96.978 E17.48398
G1 X101.843 Y96.978 E17.51332
G1 X107.886 Y103.022 E17.79266
G1 X108.784 Y103.022 E17.82200
G1 X102.741 Y96.978 E18.10134
G1 X103.638 Y96.978 E18.13068
G1 X109.329 Y102.669 E18.39373
G1 X109.329 Y101.772 E18.42307
G1 X104.536 Y96.978 E18.64463
G1 X105.434 Y96.978 E18.67397
G1 X109.329 Y100.874 E18.85404
G1 X109.329 Y99.976 E18.88338
G1 X106.331 Y96.978 E19.02196
G1 X107.229 Y96.978 E19.05130
G1 X109.329 Y99.079 E19.14838
G1 X109.329 Y98.181 E19.17772
G1 X108.126 Y96.978 E19.23332
G1 X109.024 Y96.978 E19.26266
G1 X109.329 Y97.283 E19.27676
G1 Z0.650 F7800.000
G1 X98.711 Y104.004 F7800.000
G1 X98.711 Y112.754 E19.43854 F1800.000
G1 X94.704 Y112.754 E19.51264
G1 X94.704 Y106.104 E19.63559
G1 X89.689 Y106.104 E19.72831
G1 X89.689 Y98.794 E19.86346
G1 X89.689 Y98.660 E19.86594 F3600.000
G1 X93.507 Y98.660 E19.93655
G1 X94.704 Y98.660 E19.95866 F1800.000
G1 X94.704 Y87.246 E20.16969
G1 X98.711 Y87.246 E20.24379
G1 X98.711 Y95.996 E20.40557
G1 X110.311 Y95.996 E20.62004
G1 X110.311 Y104.004 E20.76809
G1 X98.771 Y104.004 E20.98145
G1 X99.130 Y104.423 F7800.000
G1 X99.130 Y113.173 E21.14323 F1800.000
G1 X94.285 Y113.173 E21.23282
G1 X94.285 Y106.523 E21.35577
G1 X89.270 Y106.523 E21.44849
G1 X89.270 Y98.794 E21.59138
G1 X89.270 Y98.241 E21.60161 F3600.000
G1 X93.507 Y98.241 E21.67997
G1 X94.285 Y98.241 E21.69434 F1800.000
G1 X94.285 Y86.827 E21.90536
G1 X99.130 Y86.827 E21.99495
G1 X99.130 Y95.577 E22.15673
G1 X110.730 Y95.577 E22.37120
G1 X110.730 Y104.423 E22.53474
G1 X99.190 Y104.423 E22.74810
G1 X99.507 Y104.800 F7800.000
G1 X99.507 Y113.550 E22.87773 F900.000
G1 X93.907 Y113.550 E22.96068
G1 X93.907 Y106.900 E23.05920
G1 X88.892 Y106.900 E23.13349
G1 X88.892 Y98.794 E23.25357
G1 X88.892 Y97.864 E23.27077 F3600.000
G1 X93.507 Y97.864 E23.35610
G1 X93.907 Y97.864 E23.36202 F900.000
G1 X93.907 Y86.450 E23.53110
G1 X99.507 Y86.450 E23.61406
G1 X99.507 Y95.200 E23.74368
G1 X111.107 Y95.200 E23.91552
G1 X111.107 Y104.800 E24.05774
G1 X99.567 Y104.800 E24.22869
G1 X99.107 Y104.800 F7800.000
G1 X96.119 Y99.701 F7800.000
G1 X96.637 Y99.656 E24.25101 F3600.000
G1 X96.637 Y98.993 E24.27946
G1 X89.917 Y99.581 E24.56928
G1 E22.56928 F2400.00000
G92 E0
G1 X94.921 Y98.481 F7800.000
G1 E2.00000 F2400.00000
G1 X95.438 Y98.436 E2.02232 F3600.000
G1 X96.420 Y98.142 F7800.000
G1 X98.464 Y96.098 E2.07600 F1200.000
G1 X98.464 Y95.503 E2.08706
G1 X95.825 Y98.142 E2.15637
G1 X95.230 Y98.142 E2.16742
G1 X98.464 Y94.908 E2.25235
G1 X98.464 Y94.313 E2.26341
G1 X94.951 Y97.826 E2.35568
G1 X94.951 Y97.231 E2.36673
G1 X98.464 Y93.718 E2.45901
G1 X98.464 Y93.123 E2.47006
G1 X94.951 Y96.636 E2.56233
G1 X94.951 Y96.041 E2.57338
G1 X98.464 Y92.528 E2.66566
G1 X98.464 Y91.933 E2.67671
G1 X94.951 Y95.446 E2.76898
G1 X94.951 Y94.851 E2.78004
G1 X98.464 Y91.338 E2.87231
G1 X98.464 Y90.743 E2.88336
G1 X94.951 Y94.256 E2.97564
G1 X94.951 Y93.661 E2.98669
G1 X98.464 Y90.148 E3.07896
G1 X98.464 Y89.553 E3.09001
G1 X94.951 Y93.066 E3.18229
G1 X94.951 Y92.471 E3.19334
G1 X98.464 Y88.958 E3.28561
G1 X98.464 Y88.363 E3.29667
G1 X94.951 Y91.876 E3.38894
G1 X94.951 Y91.281 E3.39999
G1 X98.464 Y87.768 E3.49227
G1 X98.144 Y87.493 E3.50010
G1 X94.951 Y90.686 E3.58396
G1 X94.951 Y90.091 E3.59501
G1 X97.549 Y87.493 E3.66324
G1 X96.954 Y87.493 E3.67429
G1 X94.951 Y89.496 E3.72689
G1 X94.951 Y88.901 E3.73794
G1 X96.359 Y87.493 E3.77491
G1 X95.764 Y87.493 E3.78597
G1 X94.951 Y88.306 E3.80731
G1 X94.951 Y87.711 E3.81836
G1 X95.169 Y87.493 E3.82408
G1 X96.808 Y98.349 F7800.000
G1 X98.914 Y96.243 E3.87939 F1200.000
G1 X99.509 Y96.243 E3.89044
G1 X96.808 Y98.944 E3.96138
G1 X96.808 Y99.539 E3.97243
G1 X100.104 Y96.243 E4.05900
G1 X100.699 Y96.243 E4.07005
G1 X91.086 Y105.857 E4.32253
G1 X91.681 Y105.857 E4.33358
G1 X101.294 Y96.243 E4.58607
G1 X101.889 Y96.243 E4.59712
G1 X92.276 Y105.857 E4.84961
G1 X92.871 Y105.857 E4.86066
G1 X102.484 Y96.243 E5.11314
G1 X103.079 Y96.243 E5.12419
G1 X93.466 Y105.857 E5.37668
G1 X94.061 Y105.857 E5.38773
G1 X103.674 Y96.243 E5.64021
G1 X104.269 Y96.243 E5.65126
G1 X94.656 Y105.857 E5.90375
G1 X94.951 Y106.157 F7800.000
G1 X104.864 Y96.243 E6.16412 F1200.000
G1 X105.459 Y96.243 E6.17517
G1 X94.951 Y106.752 E6.45116
G1 X94.951 Y107.347 E6.46221
G1 X106.054 Y96.243 E6.75383
G1 X106.649 Y96.243 E6.76489
G1 X99.136 Y103.757 E6.96222
G1 X99.731 Y103.757 E6.97327
G1 X107.244 Y96.243 E7.17060
G1 X107.839 Y96.243 E7.18165
G1 X100.326 Y103.757 E7.37898
G1 X100.921 Y103.757 E7.39003
G1 X108.434 Y96.243 E7.58736
G1 X109.030 Y96.243 E7.59841
G1 X101.516 Y103.757 E7.79574
G1 X102.111 Y103.757 E7.80679
G1 X109.625 Y96.243 E8.00412
G1 X110.064 Y96.399 E8.01278
G1 X102.706 Y103.757 E8.20603
G1 X103.301 Y103.757 E8.21708
G1 X110.064 Y96.994 E8.39471
G1 X110.064 Y97.589 E8.40576
G1 X103.896 Y103.757 E8.56775
G1 X104.491 Y103.757 E8.57880
G1 X110.064 Y98.184 E8.72517
G1 X110.064 Y98.779 E8.73622
G1 X105.086 Y103.757 E8.86696
G1 X105.681 Y103.757 E8.87801
G1 X110.064 Y99.374 E8.99312
G1 X110.064 Y99.969 E9.00417
G1 X106.276 Y103.757 E9.10366
G1 X106.871 Y103.757 E9.11471
G1 X110.064 Y100.564 E9.19856
G1 X110.064 Y101.159 E9.20961
G1 X107.466 Y103.757 E9.27784
G1 X108.061 Y103.757 E9.28889
G1 X110.064 Y101.754 E9.34150
G1 X110.064 Y102.349 E9.35255
G1 X108.656 Y103.757 E9.38952
G1 X109.251 Y103.757 E9.40057
G1 X110.064 Y102.944 E9.42192
G1 X110.064 Y103.539 E9.43297
G1 X109.846 Y103.757 E9.43868
G1 E7.43868 F2400.00000
G92 E0
G1 X98.121 Y112.507 F7800.000
G1 E2.00000 F2400.00000
G1 X98.464 Y112.164 E2.00900 F1200.000
G1 X98.464 Y111.569 E2.02005
G1 X97.526 Y112.507 E2.04469
G1 X96.931 Y112.507 E2.05574
G1 X98.464 Y110.974 E2.09600
G1 X98.464 Y110.379 E2.10705
G1 X96.336 Y112.507 E2.16294
G1 X95.741 Y112.507 E2.17399
G1 X98.464 Y109.784 E2.24550
G1 X98.464 Y109.189 E2.25655
G1 X95.146 Y112.507 E2.34369
G1 X94.951 Y112.107 E2.35196
G1 X98.464 Y108.594 E2.44423
G1 X98.464 Y107.999 E2.45528
G1 X94.951 Y111.512 E2.54756
G1 X94.951 Y110.917 E2.55861
G1 X98.464 Y107.404 E2.65088
G1 X98.464 Y106.809 E2.66193
G1 X94.951 Y110.322 E2.75421
G1 X94.951 Y109.727 E2.76526
G1 X98.464 Y106.214 E2.85754
G1 X98.464 Y105.619 E2.86859
G1 X94.951 Y109.132 E2.96086
G1 X94.951 Y108.537 E2.97191
G1 X98.464 Y105.024 E3.06419
G1 X98.464 Y104.429 E3.07524
G1 X94.951 Y107.942 E3.16751
G1 E1.16751 F2400.00000
G92 E0
G1 X90.491 Y105.857 F7800.000
G1 E2.00000 F2400.00000
G1 X96.353 Y99.995 E2.15396 F1200.000
G1 X95.758 Y99.995 E2.16501
G1 X89.936 Y105.817 E2.31791
G1 X89.936 Y105.222 E2.32896
G1 X95.163 Y99.995 E2.46624
G1 X89.936 Y100.461 F7800.000
G1 X90.402 Y99.995 E2.47849 F1200.000
G1 X90.997 Y99.995 E2.48955
G1 X89.936 Y101.056 E2.51743
G1 X89.936 Y101.651 E2.52848
G1 X91.592 Y99.995 E2.57199
G1 X92.187 Y99.995 E2.58304
G1 X89.936 Y102.246 E2.64218
G1 X89.936 Y102.841 E2.65323
G1 X92.783 Y99.995 E2.72799
G1 X93.378 Y99.995 E2.73904
G1 X89.936 Y103.436 E2.82944
G1 X89.936 Y104.032 E2.84049
G1 X93.973 Y99.995 E2.94651
G1 X94.568 Y99.995 E2.95756
G1 X89.936 Y104.627 E3.07921
G1 Z0.950 F7800.000
G1 X98.711 Y104.004 F7800.000
G1 X98.711 Y112.754 E3.24099 F1800.000
G1 X94.704 Y112.754 E3.31509
G1 X94.704 Y106.104 E3.43804
G1 X89.689 Y106.104 E3.53076
G1 X89.689 Y97.933 E3.68183
G1 X94.704 Y97.933 E3.77455
G1 X94.704 Y87.246 E3.97214
G1 X98.711 Y87.246 E4.04624
G1 X98.711 Y95.996 E4.20802
G1 X110.311 Y95.996 E4.42249
G1 X110.311 Y104.004 E4.57054
G1 X98.771 Y104.004 E4.78390
G1 X99.130 Y104.423 F7800.000
G1 X99.130 Y113.173 E4.94568 F1800.000
G1 X94.285 Y113.173 E5.03527
G1 X94.285 Y106.523 E5.15822
G1 X89.270 Y106.523 E5.25094
G1 X89.270 Y97.514 E5.41750
G1 X94.285 Y97.514 E5.51022
G1 X94.285 Y86.827 E5.70781
G1 X99.130 Y86.827 E5.79740
G1 X99.130 Y95.577 E5.95918
G1 X110.730 Y95.577 E6.17365
G1 X110.730 Y104.423 E6.33719
G1 X99.190 Y104.423 E6.55055
G1 X99.507 Y104.800 F7800.000
G1 X99.507 Y113.550 E6.68017 F900.000
G1 X93.907 Y113.550 E6.76313
G1 X93.907 Y106.900 E6.86164
G1 X88.892 Y106.900 E6.93594
G1 X88.892 Y97.464 E7.07573
G1 X88.892 Y97.137 E7.08177 F3600.000
G1 X93.507 Y97.137 E7.16709
G1 X93.907 Y97.137 E7.17302 F900.000
G1 X93.907 Y86.450 E7.33133
G1 X99.507 Y86.450 E7.41429
G1 X99.507 Y95.200 E7.54391
G1 X111.107 Y95.200 E7.71575
G1 X111.107 Y104.800 E7.85797
G1 X99.567 Y104.800 E8.02892
G1 X99.107 Y104.800 F7800.000
G1 X98.914 Y103.757 F7800.000
G1 X93.338 Y98.180 E8.17538 F1200.000
G1 X93.933 Y98.180 E8.18643
G1 X99.509 Y103.757 E8.33289
G1 X100.104 Y103.757 E8.34394
G1 X94.528 Y98.180 E8.49040
G1 X94.951 Y98.008 F7800.000
G1 X100.699 Y103.757 E8.64138 F1200.000
G1 X101.294 Y103.757 E8.65243
G1 X94.951 Y97.413 E8.81903
G1 X94.951 Y96.818 E8.83008
G1 X101.889 Y103.757 E9.01231
G1 X102.484 Y103.757 E9.02336
G1 X94.951 Y96.223 E9.22122
G1 X94.951 Y95.628 E9.23227
G1 X103.079 Y103.757 E9.44575
G1 X103.674 Y103.757 E9.45680
G1 X94.951 Y95.033 E9.68592
G1 X94.951 Y94.438 E9.69697
G1 X104.269 Y103.757 E9.94171
G1 X104.864 Y103.757 E9.95276
G1 X94.951 Y93.843 E10.21312
G1 X94.951 Y93.248 E10.22417
G1 X105.459 Y103.757 E10.50017
G1 X106.054 Y103.757 E10.51122
G1 X98.541 Y96.243 E10.70855
G1 X99.136 Y96.243 E10.71960
G1 X106.649 Y103.757 E10.91693
G1 X107.244 Y103.757 E10.92798
G1 X99.731 Y96.243 E11.12531
G1 X100.326 Y96.243 E11.13636
G1 X107.839 Y103.757 E11.33370
G1 X108.434 Y103.757 E11.34475
G1 X100.921 Y96.243 E11.54208
G1 X101.516 Y96.243 E11.55313
G1 X109.030 Y103.757 E11.75046
G1 X109.625 Y103.757 E11.76151
G1 X102.111 Y96.243 E11.95884
G1 X102.706 Y96.243 E11.96989
G1 X110.064 Y103.601 E12.16314
G1 X110.064 Y103.006 E12.17419
G1 X103.301 Y96.243 E12.35181
G1 X103.896 Y96.243 E12.36286
G1 X110.064 Y102.411 E12.52486
G1 X110.064 Y101.816 E12.53591
G1 X104.491 Y96.243 E12.68228
G1 X105.086 Y96.243 E12.69333
G1 X110.064 Y101.221 E12.82407
G1 X110.064 Y100.626 E12.83512
G1 X105.681 Y96.243 E12.95023
G1 X106.276 Y96.243 E12.96128
G1 X110.064 Y100.031 E13.06076
G1 X110.064 Y99.436 E13.07181
G1 X106.871 Y96.243 E13.15567
G1 X107.466 Y96.243 E13.16672
G1 X110.064 Y98.841 E13.23495
G1 X110.064 Y98.246 E13.24600
G1 X108.061 Y96.243 E13.29860
G1 X108.656 Y96.243 E13.30965
G1 X110.064 Y97.651 E13.34663
G1 X110.064 Y97.056 E13.35768
G1 X109.251 Y96.243 E13.37902
G1 X109.846 Y96.243 E13.39007
G1 X110.064 Y96.461 E13.39579
G1 X98.464 Y96.167 F7800.000
G1 X94.951 Y92.653 E13.48807 F1200.000
G1 X94.951 Y92.058 E13.49912
G1 X98.464 Y95.571 E13.59139
G1 X98.464 Y94.976 E13.60244
G1 X94.951 Y91.463 E13.69472
G1 X94.951 Y90.868 E13.70577
G1 X98.464 Y94.381 E13.79804
G1 X98.464 Y93.786 E13.80909
G1 X94.951 Y90.273 E13.90137
G1 X94.951 Y89.678 E13.91242
G1 X98.464 Y93.191 E14.00470
G1 X98.464 Y92.596 E14.01575
G1 X94.951 Y89.083 E14.10802
G1 X94.951 Y88.488 E14.11907
G1 X98.464 Y92.001 E14.21135
G1 X98.464 Y91.406 E14.22240
G1 X94.951 Y87.893 E14.31467
G1 X95.146 Y87.493 E14.32294
G1 X98.464 Y90.811 E14.41008
G1 X98.464 Y90.216 E14.42113
G1 X95.741 Y87.493 E14.49264
G1 X96.336 Y87.493 E14.50369
G1 X98.464 Y89.621 E14.55958
G1 X98.464 Y89.026 E14.57063
G1 X96.931 Y87.493 E14.61089
G1 X97.526 Y87.493 E14.62194
G1 X98.464 Y88.431 E14.64657
G1 X98.464 Y87.836 E14.65763
G1 X98.121 Y87.493 E14.66663
G1 X98.464 Y103.902 F7800.000
