; generated by Slic3r 1.2.9 on 2019-08-02 at 20:18:42

; external perimeters extrusion width = 0.40mm
; perimeters extrusion width = 0.67mm
; infill extrusion width = 0.67mm
; solid infill extrusion width = 0.67mm
; top infill extrusion width = 0.67mm
; support material extrusion width = 0.40mm

M107
M190 S65 ; set bed temperature
M104 S200 ; set temperature
G28 ; home all axes
G1 Z5 F5000 ; lift nozzle

M109 S200 ; wait for temperature to be reached
G21 ; set units to millimeters
G90 ; use absolute coordinates
M82 ; use absolute distances for extrusion
G92 E0
G1 Z0.350 F7800.000
G1 E-2.00000 F2400.00000
G92 E0
G1 X94.014 Y79.752 F7800.000
G1 E2.00000 F2400.00000
G1 X95.927 Y78.487 E2.07380 F1800.000
G1 X98.570 Y77.938 E2.16066
G1 X108.355 Y77.938 E2.47555
G1 X110.614 Y78.334 E2.54936
G1 X112.602 Y79.478 E2.62316 F1800.000
G1 X114.081 Y81.231 E2.69696
G1 X114.920 Y83.668 E2.77991
G1 X115.218 Y85.862 E2.85114
G1 X115.279 Y86.756 E2.87997
G1 X115.279 Y114.648 E3.77752
G1 X114.577 Y117.616 E3.87568
G1 X114.181 Y118.406 E3.90410
G1 X112.814 Y120.248 E3.97790
G1 X110.901 Y121.513 E4.05170
G1 X108.258 Y122.062 E4.13856
G1 X98.472 Y122.062 E4.45346
G1 X96.214 Y121.666 E4.52726
G1 X94.594 Y120.808 E4.58623
G1 X93.567 Y120.067 E4.62697
G1 X91.969 Y118.423 E4.70077
G1 X91.173 Y116.828 E4.75812
G1 X86.925 Y104.326 E5.18302
G1 X86.670 Y103.456 E5.21220
G1 X86.440 Y102.403 E5.24687
G1 X86.293 Y101.335 E5.28155
G1 X86.230 Y100.260 E5.31622
G1 X86.252 Y99.182 E5.35090
G1 X86.358 Y98.111 E5.38555
G1 X86.549 Y97.050 E5.42022
G1 X86.821 Y96.008 E5.45490
G1 X87.212 Y94.892 E5.49294
G1 X91.268 Y84.413 E5.85451
G1 X91.523 Y83.836 E5.87483
G1 X92.647 Y81.594 E5.95552
G1 X93.978 Y79.801 E6.02739
G1 E4.02739 F2400.00000
G92 E0
G1 X105.450 Y105.500 F7800.000
G1 E2.00000 F2400.00000
G1 X99.981 Y105.500 E2.17598 F1800.000
G1 X99.519 Y105.482 E2.19089
G1 X99.090 Y105.431 E2.20478
G1 X98.666 Y105.347 E2.21867
G1 X98.251 Y105.230 E2.23257
G1 X97.848 Y105.081 E2.24640
G1 X97.439 Y104.892 E2.26089
G1 X97.077 Y104.689 E2.27425
G1 X96.718 Y104.449 E2.28814
G1 X96.379 Y104.181 E2.30204
G1 X96.062 Y103.888 E2.31593
G1 X95.769 Y103.571 E2.32983
G1 X95.501 Y103.232 E2.34372
G1 X95.261 Y102.873 E2.35762
G1 X95.050 Y102.496 E2.37151
G1 X94.870 Y102.104 E2.38540
G1 X94.726 Y101.715 E2.39876
G1 X94.603 Y101.282 E2.41326
G1 X94.519 Y100.860 E2.42708
G1 X94.468 Y100.431 E2.44098
G1 X94.451 Y100.000 E2.45487
G1 X94.468 Y99.569 E2.46877
G1 X94.517 Y99.156 E2.48213
G1 X94.603 Y98.714 E2.49662
G1 X94.720 Y98.301 E2.51045
G1 X94.870 Y97.896 E2.52434
G1 X95.050 Y97.504 E2.53824
G1 X95.261 Y97.127 E2.55213
G1 X95.501 Y96.768 E2.56602
G1 X95.769 Y96.429 E2.57992
G1 X96.062 Y96.112 E2.59381
G1 X96.379 Y95.819 E2.60771
G1 X96.718 Y95.551 E2.62160
G1 X97.077 Y95.311 E2.63550
G1 X97.454 Y95.100 E2.64939
G1 X97.846 Y94.920 E2.66328
G1 X98.251 Y94.770 E2.67718
G1 X98.666 Y94.653 E2.69107
G1 X99.090 Y94.569 E2.70497
G1 X99.516 Y94.518 E2.71879
G1 X99.967 Y94.502 E2.73330
G1 X100.381 Y94.518 E2.74665
G1 X100.810 Y94.569 E2.76054
G1 X101.234 Y94.653 E2.77443
G1 X101.649 Y94.770 E2.78833
G1 X102.054 Y94.920 E2.80222
G1 X102.446 Y95.100 E2.81612
G1 X102.823 Y95.311 E2.83001
G1 X103.182 Y95.551 E2.84391
G1 X103.521 Y95.819 E2.85780
G1 X103.838 Y96.112 E2.87169
G1 X104.131 Y96.429 E2.88559
G1 X104.399 Y96.768 E2.89948
G1 X104.639 Y97.127 E2.91338
G1 X104.850 Y97.504 E2.92727
G1 X105.030 Y97.896 E2.94117
G1 X105.180 Y98.301 E2.95506
G1 X105.292 Y98.700 E2.96841
G1 X105.382 Y99.142 E2.98291
G1 X105.432 Y99.569 E2.99674
G1 X105.450 Y100.031 E3.01165
G1 X105.450 Y105.440 E3.18570
G1 X106.075 Y106.125 F7800.000
G1 X99.969 Y106.125 E3.38218 F1800.000
G1 X99.469 Y106.105 E3.39827
G1 X98.992 Y106.049 E3.41374
G1 X98.520 Y105.955 E3.42922
G1 X98.057 Y105.825 E3.44469
G1 X97.607 Y105.659 E3.46013
G1 X97.154 Y105.448 E3.47620
G1 X96.750 Y105.222 E3.49111
G1 X96.350 Y104.955 E3.50659
G1 X95.973 Y104.657 E3.52206
G1 X95.619 Y104.331 E3.53754
G1 X95.293 Y103.977 E3.55301
G1 X94.995 Y103.600 E3.56849
G1 X94.728 Y103.200 E3.58396
G1 X94.493 Y102.780 E3.59943
G1 X94.292 Y102.344 E3.61491
G1 X94.131 Y101.909 E3.62982
G1 X93.995 Y101.428 E3.64590
G1 X93.901 Y100.958 E3.66133
G1 X93.845 Y100.481 E3.67680
G1 X93.826 Y100.000 E3.69228
G1 X93.845 Y99.519 E3.70775
G1 X93.899 Y99.059 E3.72267
G1 X93.995 Y98.569 E3.73874
G1 X94.125 Y98.107 E3.75417
G1 X94.292 Y97.656 E3.76965
G1 X94.493 Y97.220 E3.78512
G1 X94.728 Y96.800 E3.80060
G1 X94.995 Y96.400 E3.81607
G1 X95.293 Y96.023 E3.83155
G1 X95.619 Y95.669 E3.84702
G1 X95.973 Y95.343 E3.86249
G1 X96.350 Y95.045 E3.87797
G1 X96.750 Y94.778 E3.89344
G1 X97.170 Y94.543 E3.90892
G1 X97.606 Y94.342 E3.92439
G1 X98.057 Y94.175 E3.93987
G1 X98.520 Y94.045 E3.95534
G1 X98.992 Y93.951 E3.97081
G1 X99.468 Y93.895 E3.98625
G1 X99.968 Y93.876 E4.00233
G1 X100.431 Y93.895 E4.01723
G1 X100.908 Y93.951 E4.03271
G1 X101.380 Y94.045 E4.04818
G1 X101.843 Y94.175 E4.06366
G1 X102.294 Y94.342 E4.07913
G1 X102.730 Y94.543 E4.09461
G1 X103.150 Y94.778 E4.11008
G1 X103.550 Y95.045 E4.12555
G1 X103.927 Y95.343 E4.14103
G1 X104.281 Y95.669 E4.15650
G1 X104.607 Y96.023 E4.17198
G1 X104.905 Y96.400 E4.18745
G1 X105.172 Y96.800 E4.20293
G1 X105.407 Y97.220 E4.21840
G1 X105.608 Y97.656 E4.23388
G1 X105.775 Y98.107 E4.24935
G1 X105.900 Y98.553 E4.26425
G1 X105.999 Y99.043 E4.28034
G1 X106.055 Y99.519 E4.29577
G1 X106.075 Y100.019 E4.31186
G1 X106.075 Y106.065 E4.50641
G1 X106.700 Y106.750 F7800.000
G1 X99.957 Y106.750 E4.72340 F1800.000
G1 X99.420 Y106.729 E4.74068
G1 X98.894 Y106.667 E4.75773
G1 X98.374 Y106.563 E4.77479
G1 X97.864 Y106.419 E4.79184
G1 X97.367 Y106.236 E4.80888
G1 X96.870 Y106.005 E4.82653
G1 X96.423 Y105.755 E4.84300
G1 X95.983 Y105.461 E4.86006
G1 X95.566 Y105.133 E4.87711
G1 X95.177 Y104.773 E4.89416
G1 X94.817 Y104.384 E4.91122
G1 X94.489 Y103.967 E4.92827
G1 X94.195 Y103.527 E4.94533
G1 X93.936 Y103.064 E4.96238
G1 X93.714 Y102.583 E4.97944
G1 X93.537 Y102.103 E4.99591
G1 X93.387 Y101.575 E5.01356
G1 X93.283 Y101.056 E5.03060
G1 X93.221 Y100.530 E5.04765
G1 X93.200 Y100.000 E5.06471
G1 X93.221 Y99.470 E5.08176
G1 X93.281 Y98.962 E5.09823
G1 X93.387 Y98.424 E5.11588
G1 X93.531 Y97.914 E5.13292
G1 X93.714 Y97.417 E5.14998
G1 X93.936 Y96.936 E5.16703
G1 X94.195 Y96.473 E5.18409
G1 X94.489 Y96.033 E5.20114
G1 X94.817 Y95.616 E5.21820
G1 X95.177 Y95.227 E5.23525
G1 X95.566 Y94.867 E5.25230
G1 X95.983 Y94.539 E5.26936
G1 X96.423 Y94.245 E5.28641
G1 X96.886 Y93.986 E5.30347
G1 X97.367 Y93.764 E5.32052
G1 X97.864 Y93.581 E5.33758
G1 X98.374 Y93.437 E5.35463
G1 X98.894 Y93.333 E5.37168
G1 X99.420 Y93.271 E5.38872
G1 X99.969 Y93.251 E5.40639
G1 X100.480 Y93.271 E5.42285
G1 X101.006 Y93.333 E5.43990
G1 X101.526 Y93.437 E5.45695
G1 X102.036 Y93.581 E5.47401
G1 X102.533 Y93.764 E5.49106
G1 X103.014 Y93.986 E5.50812
G1 X103.477 Y94.245 E5.52517
G1 X103.917 Y94.539 E5.54223
G1 X104.334 Y94.867 E5.55928
G1 X104.723 Y95.227 E5.57634
G1 X105.083 Y95.616 E5.59339
G1 X105.411 Y96.033 E5.61044
G1 X105.705 Y96.473 E5.62750
G1 X105.964 Y96.936 E5.64455
G1 X106.186 Y97.417 E5.66161
G1 X106.369 Y97.914 E5.67866
G1 X106.508 Y98.406 E5.69512
G1 X106.617 Y98.945 E5.71278
G1 X106.679 Y99.470 E5.72982
G1 X106.700 Y100.007 E5.74710
G1 X106.700 Y106.690 E5.96216
G1 X106.354 Y106.550 F7800.000
G1 X103.899 Y96.924 F7800.000
G1 X103.026 Y96.051 E6.00431 F1800.000
G1 X101.085 Y95.047 F7800.000
G1 X104.903 Y98.865 E6.18845 F1800.000
G1 X105.063 Y99.962 E6.22626
G1 X99.988 Y94.887 E6.47104
G1 X99.099 Y94.934 E6.50142
G1 X105.072 Y100.907 E6.78950
G1 X105.072 Y101.843 E6.82145
G1 X98.336 Y95.107 E7.14635
G1 X97.664 Y95.372 E7.17098
G1 X105.072 Y102.780 E7.52827
G1 X105.072 Y103.717 E7.56022
G1 X97.067 Y95.712 E7.94633
G1 X96.539 Y96.121 E7.96910
G1 X105.072 Y104.653 E8.38067
G1 X104.603 Y105.122 E8.40326
G1 X96.071 Y96.589 E8.81482
G1 X95.662 Y97.117 E8.83759
G1 X103.667 Y105.122 E9.22370
G1 X102.730 Y105.122 E9.25565
G1 X95.322 Y97.714 E9.61295
G1 X95.057 Y98.386 E9.63757
G1 X101.793 Y105.122 E9.96247
G1 X100.857 Y105.122 E9.99442
G1 X94.884 Y99.149 E10.28250
G1 X94.837 Y100.038 E10.31288
G1 X99.912 Y105.113 E10.55766
G1 X98.815 Y104.953 E10.59547
G1 X94.998 Y101.136 E10.77958
G1 X96.001 Y103.076 F7800.000
G1 X96.874 Y103.949 E10.82173 F1800.000
G1 Z0.350 F7800.000
G1 E8.82173 F2400.00000
G92 E0
G1 X98.346 Y107.322 F7800.000
G1 E2.00000 F2400.00000
G1 X97.446 Y109.118 E2.06466 F1800.000
G1 X98.107 Y110.588 E2.11652
G1 X99.656 Y107.498 E2.22773
G1 X101.047 Y107.512 E2.27248
G1 X99.505 Y110.588 E2.38317
G1 X101.103 Y110.190 E2.43614
G1 X100.903 Y110.588 E2.45045
G1 X101.715 Y108.967 F7800.000
G1 X102.445 Y107.512 E2.50282 F1800.000
G1 X106.638 Y107.512 F7800.000
G1 X102.666 Y115.438 E2.78808 F1800.000
G1 X101.268 Y115.438 E2.83307
G1 X105.241 Y107.512 E3.11833
G1 X103.843 Y107.512 E3.16332
G1 X99.870 Y115.438 E3.44858
G1 X98.472 Y115.438 E3.49356
G1 X100.791 Y110.812 E3.66005
G1 X99.393 Y110.812 E3.70503
G1 X97.446 Y114.696 E3.84483
G1 X97.446 Y111.907 E3.93458
G1 X97.995 Y110.812 E3.97399
G1 X108.258 Y115.438 F7800.000
G1 X108.654 Y114.648 E4.00241 F1800.000
G1 X106.860 Y115.438 E4.06548
G1 X108.654 Y111.859 E4.19430
G1 X108.654 Y109.069 E4.28405
G1 X105.462 Y115.438 E4.51327
G1 X104.064 Y115.438 E4.55825
G1 X108.654 Y106.280 E4.88787
G1 E2.88787 F2400.00000
G92 E0
G1 X107.223 Y97.979 F7800.000
G1 E2.00000 F2400.00000
G1 X108.654 Y95.123 E2.10279 F1800.000
G1 X106.586 Y96.460 E2.18204
G1 X108.654 Y92.334 E2.33056
G1 X108.654 Y89.545 E2.42031
G1 X105.782 Y95.275 E2.62658
G1 X104.857 Y94.331 E2.66912
G1 X108.654 Y86.756 E2.94177
G1 X108.355 Y84.562 E3.01300
G1 X103.830 Y93.591 E3.33799
G1 X102.710 Y93.037 E3.37821
G1 X106.957 Y84.562 E3.68324
G1 X105.559 Y84.562 E3.72822
G1 X103.696 Y88.280 E3.86204
G1 X103.696 Y85.491 E3.95180
G1 X104.161 Y84.562 E3.98522
G1 E1.98522 F2400.00000
G92 E0
G1 X98.570 Y84.562 F7800.000
G1 E2.00000 F2400.00000
G1 X97.446 Y86.804 E2.08069 F1800.000
G1 X97.446 Y89.593 E2.17044
G1 X99.968 Y84.562 E2.35153
G1 X101.365 Y84.562 E2.39651
G1 X98.346 Y90.588 E2.61339
G1 X99.744 Y90.588 E2.65837
G1 X102.763 Y84.562 E2.87524
G1 X103.304 Y86.273 E2.93298
G1 X101.142 Y90.588 E3.08827
G1 X103.304 Y89.062 E3.17343
G1 X102.540 Y90.588 E3.22833
G1 X102.427 Y90.812 F7800.000
G1 X101.497 Y92.667 E3.29509 F1800.000
G1 X100.183 Y92.500 E3.33772
G1 X101.029 Y90.812 E3.39845
G1 X99.631 Y90.812 E3.44343
G1 X98.749 Y92.572 E3.50675
G1 X97.446 Y92.383 E3.54913
G1 X98.233 Y90.812 E3.60564
G1 Z0.550 F7800.000
G1 E1.60564 F2400.00000
G92 E0
G1 X105.729 Y105.779 F7800.000
G1 E2.00000 F2400.00000
G1 X99.976 Y105.779 E2.10637 F900.000
G1 X99.497 Y105.760 E2.11524
G1 X99.046 Y105.707 E2.12362
G1 X98.601 Y105.618 E2.13201
G1 X98.165 Y105.495 E2.14040
G1 X97.739 Y105.338 E2.14879
G1 X97.327 Y105.148 E2.15718
G1 X96.931 Y104.927 E2.16556
G1 X96.554 Y104.674 E2.17395
G1 X96.198 Y104.394 E2.18234
G1 X95.864 Y104.086 E2.19073
G1 X95.556 Y103.752 E2.19912
G1 X95.276 Y103.396 E2.20750
G1 X95.023 Y103.019 E2.21589
G1 X94.802 Y102.623 E2.22428
G1 X94.612 Y102.211 E2.23267
G1 X94.470 Y101.827 E2.24025
G1 X94.331 Y101.345 E2.24952
G1 X94.243 Y100.904 E2.25783
G1 X94.190 Y100.453 E2.26622
G1 X94.172 Y100.000 E2.27461
G1 X94.190 Y99.547 E2.28300
G1 X94.238 Y99.140 E2.29057
G1 X94.333 Y98.647 E2.29984
G1 X94.455 Y98.215 E2.30816
G1 X94.612 Y97.789 E2.31654
G1 X94.802 Y97.377 E2.32493
G1 X95.023 Y96.981 E2.33332
G1 X95.276 Y96.604 E2.34171
G1 X95.556 Y96.248 E2.35010
G1 X95.864 Y95.914 E2.35849
G1 X96.198 Y95.606 E2.36687
G1 X96.554 Y95.326 E2.37526
G1 X96.931 Y95.073 E2.38365
G1 X97.327 Y94.852 E2.39204
G1 X97.739 Y94.662 E2.40043
G1 X98.165 Y94.505 E2.40881
G1 X98.601 Y94.382 E2.41720
G1 X99.046 Y94.293 E2.42559
G1 X99.492 Y94.240 E2.43390
G1 X99.995 Y94.224 E2.44319
G1 X100.403 Y94.240 E2.45075
G1 X100.854 Y94.293 E2.45914
G1 X101.299 Y94.382 E2.46753
G1 X101.735 Y94.505 E2.47592
G1 X102.161 Y94.662 E2.48430
G1 X102.573 Y94.852 E2.49269
G1 X102.969 Y95.073 E2.50108
G1 X103.346 Y95.326 E2.50947
G1 X103.702 Y95.606 E2.51786
G1 X104.036 Y95.914 E2.52624
G1 X104.344 Y96.248 E2.53463
G1 X104.624 Y96.604 E2.54302
G1 X104.877 Y96.981 E2.55141
G1 X105.098 Y97.377 E2.55980
G1 X105.288 Y97.789 E2.56819
G1 X105.445 Y98.215 E2.57657
G1 X105.568 Y98.651 E2.58496
G1 X105.657 Y99.096 E2.59335
G1 X105.710 Y99.547 E2.60174
G1 X105.729 Y100.026 E2.61061
G1 X105.729 Y105.719 E2.71586
G1 X106.357 Y106.407 F7800.000
G1 X99.964 Y106.407 E2.83408 F1800.000
G1 X99.447 Y106.387 E2.84363
G1 X98.948 Y106.328 E2.85293
G1 X98.454 Y106.230 E2.86223
G1 X97.970 Y106.093 E2.87153
G1 X97.498 Y105.919 E2.88083
G1 X97.041 Y105.708 E2.89013
G1 X96.602 Y105.463 E2.89943
G1 X96.184 Y105.183 E2.90874
G1 X95.789 Y104.872 E2.91804
G1 X95.420 Y104.530 E2.92734
G1 X95.078 Y104.161 E2.93664
G1 X94.767 Y103.766 E2.94594
G1 X94.487 Y103.348 E2.95524
G1 X94.242 Y102.909 E2.96454
G1 X94.031 Y102.452 E2.97384
G1 X93.873 Y102.023 E2.98230
G1 X93.720 Y101.494 E2.99248
G1 X93.622 Y101.002 E3.00174
G1 X93.563 Y100.503 E3.01104
G1 X93.543 Y100.000 E3.02034
G1 X93.563 Y99.497 E3.02965
G1 X93.617 Y99.043 E3.03810
G1 X93.721 Y98.502 E3.04828
G1 X93.857 Y98.020 E3.05755
G1 X94.031 Y97.548 E3.06685
G1 X94.242 Y97.091 E3.07615
G1 X94.487 Y96.652 E3.08545
G1 X94.767 Y96.234 E3.09475
G1 X95.078 Y95.839 E3.10405
G1 X95.420 Y95.470 E3.11335
G1 X95.789 Y95.128 E3.12265
G1 X96.184 Y94.817 E3.13195
G1 X96.602 Y94.537 E3.14125
G1 X97.041 Y94.292 E3.15056
G1 X97.498 Y94.081 E3.15986
G1 X97.970 Y93.907 E3.16916
G1 X98.454 Y93.770 E3.17846
G1 X98.948 Y93.672 E3.18776
G1 X99.445 Y93.613 E3.19702
G1 X99.997 Y93.595 E3.20723
G1 X100.453 Y93.613 E3.21566
G1 X100.952 Y93.672 E3.22496
G1 X101.446 Y93.770 E3.23426
G1 X101.930 Y93.907 E3.24356
G1 X102.402 Y94.081 E3.25286
G1 X102.859 Y94.292 E3.26216
G1 X103.298 Y94.537 E3.27147
G1 X103.716 Y94.817 E3.28077
G1 X104.111 Y95.128 E3.29007
G1 X104.480 Y95.470 E3.29937
G1 X104.822 Y95.839 E3.30867
G1 X105.133 Y96.234 E3.31797
G1 X105.413 Y96.652 E3.32727
G1 X105.658 Y97.091 E3.33657
G1 X105.869 Y97.548 E3.34587
G1 X106.043 Y98.020 E3.35517
G1 X106.180 Y98.504 E3.36448
G1 X106.278 Y98.998 E3.37378
G1 X106.337 Y99.497 E3.38308
G1 X106.357 Y100.014 E3.39263
G1 X106.357 Y106.347 E3.50973
G1 X106.850 Y106.900 F7800.000
G1 X99.954 Y106.900 E3.58219 F900.000
G1 X99.409 Y106.879 E3.58793
G1 X98.871 Y106.815 E3.59362
G1 X98.339 Y106.709 E3.59931
G1 X97.818 Y106.562 E3.60500
G1 X97.310 Y106.375 E3.61070
G1 X96.818 Y106.148 E3.61639
G1 X96.345 Y105.883 E3.62208
G1 X95.894 Y105.582 E3.62778
G1 X95.469 Y105.247 E3.63347
G1 X95.071 Y104.879 E3.63916
G1 X94.703 Y104.481 E3.64485
G1 X94.368 Y104.056 E3.65055
G1 X94.067 Y103.605 E3.65624
G1 X93.802 Y103.132 E3.66193
G1 X93.575 Y102.640 E3.66762
G1 X93.404 Y102.177 E3.67282
G1 X93.241 Y101.610 E3.67901
G1 X93.135 Y101.079 E3.68470
G1 X93.071 Y100.541 E3.69039
G1 X93.050 Y100.000 E3.69609
G1 X93.071 Y99.459 E3.70178
G1 X93.130 Y98.968 E3.70697
G1 X93.241 Y98.389 E3.71317
G1 X93.388 Y97.868 E3.71885
G1 X93.575 Y97.360 E3.72455
G1 X93.802 Y96.868 E3.73024
G1 X94.067 Y96.395 E3.73593
G1 X94.368 Y95.944 E3.74163
G1 X94.703 Y95.519 E3.74732
G1 X95.071 Y95.121 E3.75301
G1 X95.469 Y94.753 E3.75870
G1 X95.894 Y94.418 E3.76440
G1 X96.345 Y94.117 E3.77009
G1 X96.818 Y93.852 E3.77578
G1 X97.310 Y93.625 E3.78147
G1 X97.818 Y93.438 E3.78717
G1 X98.339 Y93.291 E3.79286
G1 X98.871 Y93.185 E3.79855
G1 X99.408 Y93.122 E3.80424
G1 X99.998 Y93.102 E3.81044
G1 X100.491 Y93.121 E3.81563
G1 X101.029 Y93.185 E3.82132
G1 X101.561 Y93.291 E3.82701
G1 X102.082 Y93.438 E3.83271
G1 X102.590 Y93.625 E3.83840
G1 X103.082 Y93.852 E3.84409
G1 X103.555 Y94.117 E3.84978
G1 X104.006 Y94.418 E3.85548
G1 X104.431 Y94.753 E3.86117
G1 X104.829 Y95.121 E3.86686
G1 X105.197 Y95.519 E3.87255
G1 X105.532 Y95.944 E3.87825
G1 X105.833 Y96.395 E3.88394
G1 X106.098 Y96.868 E3.88963
G1 X106.325 Y97.360 E3.89532
G1 X106.512 Y97.868 E3.90102
G1 X106.659 Y98.389 E3.90671
G1 X106.765 Y98.921 E3.91240
G1 X106.829 Y99.459 E3.91810
G1 X106.850 Y100.004 E3.92383
G1 X106.850 Y106.840 E3.99566
G1 X106.504 Y106.700 F7800.000
G1 X105.042 Y105.398 F7800.000
