; generated by Slic3r 1.2.9 on 2019-08-28 at 09:31:55

; external perimeters extrusion width = 0.40mm
; perimeters extrusion width = 0.56mm
; infill extrusion width = 0.56mm
; solid infill extrusion width = 0.56mm
; top infill extrusion width = 0.56mm

M107
M190 S65 ; set bed temperature
M104 S200 ; set temperature
G28 ; home all axes
G1 Z5 F5000 ; lift nozzle

M109 S200 ; wait for temperature to be reached
G21 ; set units to millimeters
G90 ; use absolute coordinates
M82 ; use absolute distances for extrusion
G92 E0
G1 Z0.350 F7800.000
G1 E-2.00000 F2400.00000
G92 E0
G1 X69.915 Y45.753 F7800.000
G1 E2.00000 F2400.00000
G1 X71.668 Y44.274 E2.07380 F1800.000
G1 X73.820 Y43.481 E2.14760
G1 X75.000 Y43.375 E2.18572
G1 X125.000 Y43.375 E3.79467
G1 X127.259 Y43.772 E3.86847
G1 X129.247 Y44.915 E3.94227 F1800.000
G1 X130.726 Y46.668 E4.01607
G1 X131.519 Y48.820 E4.08987
G1 X131.625 Y50.000 E4.12799
G1 X131.625 Y150.000 E7.34588
G1 X131.228 Y152.259 E7.41968
G1 X130.085 Y154.247 E7.49349
G1 X128.332 Y155.726 E7.56729
G1 X126.180 Y156.519 E7.64109
G1 X125.000 Y156.625 E7.67920
G1 X75.000 Y156.625 E9.28815
G1 X72.741 Y156.228 E9.36195
G1 X70.753 Y155.085 E9.43575
G1 X69.274 Y153.332 E9.50956
G1 X68.481 Y151.180 E9.58336
G1 X68.375 Y150.000 E9.62147
G1 X68.375 Y50.000 E12.83937
G1 X68.772 Y47.741 E12.91317
G1 X69.886 Y45.805 E12.98504
G1 E10.98504 F2400.00000
G92 E0
G1 X102.316 Y137.639 F7800.000
G1 E2.00000 F2400.00000
G1 X102.694 Y138.082 E2.01872 F1800.000
G1 X103.044 Y138.707 E2.04178
G1 X103.225 Y139.267 E2.06073
G1 X103.311 Y140.001 E2.08450
G1 X103.223 Y140.741 E2.10849
G1 X103.043 Y141.295 E2.12722
G1 X102.694 Y141.918 E2.15021
G1 X102.316 Y142.361 E2.16894
G1 X101.755 Y142.803 E2.19194
G1 X101.236 Y143.068 E2.21067
G1 X100.548 Y143.262 E2.23367
G1 X100.000 Y143.305 E2.25137
G1 X99.452 Y143.262 E2.26908
G1 X98.764 Y143.068 E2.29208
G1 X98.245 Y142.803 E2.31080
G1 X97.682 Y142.360 E2.33387
G1 X97.301 Y141.911 E2.35281
G1 X96.955 Y141.292 E2.37562
G1 X96.775 Y140.733 E2.39453
G1 X96.689 Y139.999 E2.41830
G1 X96.777 Y139.259 E2.44230
G1 X96.957 Y138.705 E2.46103
G1 X97.306 Y138.082 E2.48402
G1 X97.684 Y137.639 E2.50274
G1 X98.245 Y137.197 E2.52575
G1 X98.735 Y136.947 E2.54346
G1 X99.258 Y136.777 E2.56113
G1 X99.959 Y136.693 E2.58387 F1800.000
G1 X100.547 Y136.738 E2.60282
G1 X101.236 Y136.932 E2.62588
G1 X101.755 Y137.197 E2.64461
G1 X102.269 Y137.602 E2.66568
G1 X101.881 Y138.092 F7800.000
G1 X102.179 Y138.441 E2.68044 F1800.000
G1 X102.469 Y138.958 E2.69952
G1 X102.611 Y139.401 E2.71449
G1 X102.682 Y140.001 E2.73392
G1 X102.610 Y140.607 E2.75357
G1 X102.468 Y141.043 E2.76833
G1 X102.179 Y141.559 E2.78737
G1 X101.881 Y141.908 E2.80213
G1 X101.416 Y142.275 E2.82117
G1 X101.008 Y142.483 E2.83594
G1 X100.438 Y142.643 E2.85498
G1 X100.000 Y142.678 E2.86912
G1 X99.562 Y142.643 E2.88326
G1 X98.992 Y142.483 E2.90230
G1 X98.584 Y142.275 E2.91706
G1 X98.118 Y141.907 E2.93615
G1 X97.817 Y141.553 E2.95111
G1 X97.531 Y141.042 E2.96996
G1 X97.389 Y140.599 E2.98491
G1 X97.318 Y139.999 E3.00435
G1 X97.390 Y139.393 E3.02399
G1 X97.532 Y138.957 E3.03876
G1 X97.821 Y138.441 E3.05779
G1 X98.119 Y138.092 E3.07256
G1 X98.584 Y137.725 E3.09160
G1 X98.975 Y137.526 E3.10575
G1 X99.393 Y137.390 E3.11987
G1 X99.973 Y137.321 E3.13868 F1800.000
G1 X100.437 Y137.356 E3.15365
G1 X101.008 Y137.517 E3.17273
G1 X101.416 Y137.725 E3.18749
G1 X101.834 Y138.055 E3.20460
G1 X101.446 Y138.544 F7800.000
G1 X101.664 Y138.800 E3.21540 F1800.000
G1 X101.893 Y139.209 E3.23049
G1 X101.998 Y139.534 E3.24149
G1 X102.052 Y140.000 E3.25659
G1 X101.997 Y140.472 E3.27189
G1 X101.893 Y140.792 E3.28269
G1 X101.664 Y141.200 E3.29777
G1 X101.446 Y141.456 E3.30857
G1 X101.078 Y141.746 E3.32365
G1 X100.779 Y141.898 E3.33445
G1 X100.328 Y142.025 E3.34953
G1 X100.000 Y142.051 E3.36011
G1 X99.672 Y142.025 E3.37069
G1 X99.221 Y141.898 E3.38577
G1 X98.922 Y141.746 E3.39657
G1 X98.554 Y141.455 E3.41166
G1 X98.333 Y141.195 E3.42266
G1 X98.107 Y140.791 E3.43755
G1 X98.002 Y140.466 E3.44854
G1 X97.948 Y140.000 E3.46364
G1 X98.003 Y139.528 E3.47893
G1 X98.107 Y139.208 E3.48974
G1 X98.336 Y138.800 E3.50481
G1 X98.554 Y138.544 E3.51562
G1 X98.922 Y138.254 E3.53070
G1 X99.215 Y138.105 E3.54128
G1 X99.528 Y138.004 E3.55185
G1 X99.987 Y137.949 E3.56672 F1800.000
G1 X100.327 Y137.975 E3.57772
G1 X100.779 Y138.102 E3.59281
G1 X101.078 Y138.254 E3.60362
G1 X101.399 Y138.507 E3.61676
G1 X101.771 Y138.462 F7800.000
G1 X99.772 Y63.300 F7800.000
G1 X99.228 Y63.213 E3.63447 F1800.000
G1 X98.705 Y63.043 E3.65217
G1 X98.054 Y62.679 E3.67619
G1 X97.506 Y62.172 E3.70022
G1 X97.181 Y61.725 E3.71799
G1 X96.929 Y61.228 E3.73591
G1 X96.730 Y60.517 E3.75968
G1 X96.701 Y59.772 E3.78367
G1 X96.792 Y59.197 E3.80240
G1 X97.039 Y58.527 E3.82540
G1 X97.326 Y58.058 E3.84310
G1 X97.684 Y57.639 E3.86080
G1 X98.245 Y57.197 E3.88381
G1 X98.764 Y56.932 E3.90253
G1 X99.421 Y56.747 E3.92451
G1 X99.844 Y56.697 E3.93822 F1800.000
G1 X100.281 Y56.709 E3.95229
G1 X100.772 Y56.787 E3.96827
G1 X101.295 Y56.957 E3.98597
G1 X101.946 Y57.321 E4.01000
G1 X102.494 Y57.828 E4.03402
G1 X102.819 Y58.275 E4.05179
G1 X103.071 Y58.772 E4.06971
G1 X103.270 Y59.483 E4.09348
G1 X103.299 Y60.228 E4.11748
G1 X103.208 Y60.803 E4.13620
G1 X102.961 Y61.473 E4.15920
G1 X102.674 Y61.942 E4.17690
G1 X102.316 Y62.361 E4.19461
G1 X101.755 Y62.803 E4.21761
G1 X101.236 Y63.068 E4.23634
G1 X100.518 Y63.270 E4.26036
G1 X99.832 Y63.297 E4.28246
G1 X99.809 Y62.673 F7800.000
G1 X99.375 Y62.604 E4.29660 F1800.000
G1 X98.957 Y62.468 E4.31074
G1 X98.424 Y62.170 E4.33040
G1 X97.975 Y61.755 E4.35006
G1 X97.716 Y61.398 E4.36425
G1 X97.515 Y61.000 E4.37859
G1 X97.351 Y60.419 E4.39803
G1 X97.327 Y59.809 E4.41767
G1 X97.399 Y59.356 E4.43244
G1 X97.604 Y58.801 E4.45148
G1 X97.834 Y58.426 E4.46562
G1 X98.119 Y58.092 E4.47976
G1 X98.584 Y57.725 E4.49880
G1 X98.992 Y57.517 E4.51356
G1 X99.543 Y57.362 E4.53198
G1 X99.872 Y57.323 E4.54265 F1800.000
G1 X100.223 Y57.332 E4.55395
G1 X100.625 Y57.396 E4.56704
G1 X101.043 Y57.532 E4.58118
G1 X101.576 Y57.830 E4.60084
G1 X102.025 Y58.245 E4.62050
G1 X102.284 Y58.602 E4.63469
G1 X102.485 Y59.000 E4.64903
G1 X102.649 Y59.581 E4.66847
G1 X102.673 Y60.191 E4.68811
G1 X102.601 Y60.644 E4.70288
G1 X102.396 Y61.199 E4.72192
G1 X102.166 Y61.574 E4.73606
G1 X101.881 Y61.908 E4.75020
G1 X101.416 Y62.275 E4.76924
G1 X101.008 Y62.483 E4.78400
G1 X100.420 Y62.649 E4.80366
G1 X99.869 Y62.670 E4.82140
G1 X99.846 Y62.046 F7800.000
G1 X99.521 Y61.994 E4.83198 F1800.000
G1 X99.209 Y61.893 E4.84256
G1 X98.794 Y61.660 E4.85786
G1 X98.444 Y61.338 E4.87316
G1 X98.251 Y61.071 E4.88376
G1 X98.100 Y60.773 E4.89453
G1 X97.973 Y60.321 E4.90963
G1 X97.954 Y59.846 E4.92493
G1 X98.007 Y59.514 E4.93573
G1 X98.169 Y59.075 E4.95081
G1 X98.341 Y58.794 E4.96139
G1 X98.554 Y58.544 E4.97197
G1 X98.922 Y58.254 E4.98705
G1 X99.221 Y58.102 E4.99785
G1 X99.666 Y57.977 E5.01270
G1 X99.901 Y57.949 E5.02032 F1800.000
G1 X100.166 Y57.956 E5.02885
G1 X100.479 Y58.006 E5.03906
G1 X100.791 Y58.107 E5.04963
G1 X101.206 Y58.340 E5.06494
G1 X101.556 Y58.662 E5.08024
G1 X101.749 Y58.929 E5.09083
G1 X101.900 Y59.227 E5.10160
G1 X102.027 Y59.679 E5.11671
G1 X102.046 Y60.154 E5.13200
G1 X101.993 Y60.486 E5.14280
G1 X101.831 Y60.925 E5.15788
G1 X101.659 Y61.206 E5.16846
G1 X101.446 Y61.456 E5.17904
G1 X101.078 Y61.746 E5.19412
G1 X100.779 Y61.898 E5.20492
G1 X100.321 Y62.027 E5.22022
G1 X99.906 Y62.044 E5.23360
G1 X99.656 Y62.314 F7800.000
G1 X76.600 Y51.600 F7800.000
G1 X123.400 Y51.600 E6.73959 F1800.000
G1 X123.400 Y148.400 E9.85452
G1 X76.600 Y148.400 E11.36051
G1 X76.600 Y51.660 E14.47352
G1 X75.975 Y50.975 F7800.000
G1 X124.025 Y50.975 E16.01973 F1800.000
G1 X124.025 Y149.025 E19.17488
G1 X75.975 Y149.025 E20.72109
G1 X75.975 Y51.035 E23.87431
G1 X75.350 Y50.350 F7800.000
G1 X124.650 Y50.350 E25.46074 F1800.000
G1 X124.650 Y149.650 E28.65611
G1 X75.350 Y149.650 E30.24253
G1 X75.350 Y50.410 E33.43597
G1 X75.696 Y50.550 F7800.000
G1 X123.022 Y52.283 F7800.000
G1 X122.717 Y51.978 E33.44987 F1800.000
G1 X121.832 Y51.978 E33.47833
G1 X123.022 Y53.168 E33.53249
G1 X123.022 Y54.052 E33.56096
G1 X120.948 Y51.978 E33.65538
G1 X120.064 Y51.978 E33.68385
G1 X123.022 Y54.936 E33.81853
G1 X123.022 Y55.820 E33.84700
G1 X119.180 Y51.978 E34.02194
G1 X118.295 Y51.978 E34.05041
G1 X123.022 Y56.705 E34.26561
G1 X123.022 Y57.589 E34.29408
G1 X117.411 Y51.978 E34.54955
G1 X116.527 Y51.978 E34.57802
G1 X123.022 Y58.473 E34.87375
G1 X123.022 Y59.357 E34.90222
G1 X115.643 Y51.978 E35.23821
G1 X114.758 Y51.978 E35.26668
G1 X123.022 Y60.242 E35.64293
G1 X123.022 Y61.126 E35.67140
G1 X113.874 Y51.978 E36.08791
G1 X112.990 Y51.978 E36.11638
G1 X123.022 Y62.010 E36.57316
G1 X123.022 Y62.894 E36.60163
G1 X112.106 Y51.978 E37.09867
G1 X111.222 Y51.978 E37.12714
G1 X123.022 Y63.778 E37.66444
G1 X123.022 Y64.663 E37.69291
G1 X110.337 Y51.978 E38.27047
G1 X109.453 Y51.978 E38.29894
G1 X123.022 Y65.547 E38.91677
G1 X123.022 Y66.431 E38.94524
G1 X108.569 Y51.978 E39.60333
G1 X107.685 Y51.978 E39.63180
G1 X123.022 Y67.315 E40.33015
G1 X123.022 Y68.200 E40.35861
G1 X106.800 Y51.978 E41.09723
G1 X105.916 Y51.978 E41.12570
G1 X123.022 Y69.084 E41.90457
G1 X123.022 Y69.968 E41.93304
G1 X105.032 Y51.978 E42.75218
G1 X104.148 Y51.978 E42.78065
G1 X123.022 Y70.852 E43.64005
G1 X123.022 Y71.736 E43.66852
G1 X103.264 Y51.978 E44.56818
G1 X102.379 Y51.978 E44.59665
G1 X123.022 Y72.621 E45.53657
G1 X123.022 Y73.505 E45.56504
G1 X101.495 Y51.978 E46.54522
G1 X100.611 Y51.978 E46.57369
G1 X123.022 Y74.389 E47.59414
G1 X123.022 Y75.273 E47.62261
G1 X99.727 Y51.978 E48.68332
G1 X98.842 Y51.978 E48.71179
G1 X123.022 Y76.158 E49.81276
G1 X123.022 Y77.042 E49.84123
G1 X97.958 Y51.978 E50.98247
G1 X97.074 Y51.978 E51.01094
G1 X101.817 Y56.722 E51.22692
G1 X100.558 Y56.347 E51.26922
G1 X96.190 Y51.978 E51.46813
G1 X95.305 Y51.978 E51.49660
G1 X99.677 Y56.350 E51.69567
G1 X98.959 Y56.516 E51.71940
G1 X94.421 Y51.978 E51.92603
G1 X93.537 Y51.978 E51.95450
G1 X98.336 Y56.777 E52.17299
G1 X97.805 Y57.130 E52.19353
G1 X92.653 Y51.978 E52.42811
G1 X91.769 Y51.978 E52.45658
G1 X97.337 Y57.546 E52.71011
G1 X96.949 Y58.043 E52.73039
G1 X90.884 Y51.978 E53.00656
G1 X90.000 Y51.978 E53.03503
G1 X96.641 Y58.620 E53.33743
G1 X96.415 Y59.277 E53.35983
G1 X89.116 Y51.978 E53.69218
G1 X88.232 Y51.978 E53.72065
G1 X96.328 Y60.075 E54.08932
G1 X96.454 Y61.084 E54.12207
G1 X87.347 Y51.978 E54.53671
G1 X86.463 Y51.978 E54.56518
G1 X123.022 Y88.537 E56.22982
G1 X123.022 Y87.653 E56.25829
G1 X98.935 Y63.566 E57.35504
G1 X99.921 Y63.667 E57.38695
G1 X123.022 Y86.768 E58.43882
G1 X123.022 Y85.884 E58.46729
G1 X100.714 Y63.576 E59.48305
G1 X101.386 Y63.365 E59.50576
G1 X123.022 Y85.000 E60.49089
G1 X123.022 Y84.116 E60.51936
G1 X101.961 Y63.055 E61.47834
G1 X102.455 Y62.665 E61.49861
G1 X123.022 Y83.231 E62.43507
G1 X123.022 Y82.347 E62.46354
G1 X102.877 Y62.203 E63.38078
G1 X103.227 Y61.669 E63.40135
G1 X123.022 Y81.463 E64.30266
G1 X123.022 Y80.579 E64.33113
G1 X103.484 Y61.041 E65.22076
G1 X103.649 Y60.322 E65.24452
G1 X123.022 Y79.695 E66.12665
G1 X123.022 Y78.810 E66.15512
G1 X103.653 Y59.441 E67.03706
G1 X103.281 Y58.186 E67.07922
G1 X123.022 Y77.926 E67.97808
G1 X123.022 Y89.421 F7800.000
G1 X85.579 Y51.978 E69.68298 F1800.000
G1 X84.695 Y51.978 E69.71145
G1 X123.022 Y90.305 E71.45662
G1 X123.022 Y91.189 E71.48509
G1 X83.811 Y51.978 E73.27052
G1 X82.926 Y51.978 E73.29899
G1 X123.022 Y92.074 E75.12468
G1 X123.022 Y92.958 E75.15315
G1 X82.042 Y51.978 E77.01910
G1 X81.158 Y51.978 E77.04757
G1 X123.022 Y93.842 E78.95378
G1 X123.022 Y94.726 E78.98225
G1 X80.274 Y51.978 E80.92873
G1 X79.389 Y51.978 E80.95720
G1 X123.022 Y95.611 E82.94394
G1 X123.022 Y96.495 E82.97241
G1 X78.505 Y51.978 E84.99941
G1 X77.621 Y51.978 E85.02788
G1 X123.022 Y97.379 E87.09515
G1 X123.022 Y98.263 E87.12362
G1 X76.978 Y52.220 E89.22014
G1 X76.978 Y53.104 E89.24861
G1 X123.022 Y99.148 E91.34513
G1 X123.022 Y100.032 E91.37360
G1 X76.978 Y53.988 E93.47012
G1 X76.978 Y54.873 E93.49859
G1 X123.022 Y100.916 E95.59511
G1 X123.022 Y101.800 E95.62358
G1 X76.978 Y55.757 E97.72010
G1 X76.978 Y56.641 E97.74857
G1 X123.022 Y102.684 E99.84510
G1 X123.022 Y103.569 E99.87357
G1 X76.978 Y57.525 E101.97009
G1 X76.978 Y58.410 E101.99856
G1 X123.022 Y104.453 E104.09508
G1 X123.022 Y105.337 E104.12355
G1 X76.978 Y59.294 E106.22007
G1 X76.978 Y60.178 E106.24854
G1 X123.022 Y106.221 E108.34506
G1 X123.022 Y107.106 E108.37353
G1 X76.978 Y61.062 E110.47005
G1 X76.978 Y61.947 E110.49852
G1 X123.022 Y107.990 E112.59505
G1 X123.022 Y108.874 E112.62352
G1 X76.978 Y62.831 E114.72004
G1 X76.978 Y63.715 E114.74851
G1 X123.022 Y109.758 E116.84503
G1 X123.022 Y110.642 E116.87350
G1 X76.978 Y64.599 E118.97002
G1 X76.978 Y65.483 E118.99849
G1 X123.022 Y111.527 E121.09501
G1 X123.022 Y112.411 E121.12348
G1 X76.978 Y66.368 E123.22000
G1 X76.978 Y67.252 E123.24847
G1 X123.022 Y113.295 E125.34500
G1 X123.022 Y114.179 E125.37347
G1 X76.978 Y68.136 E127.46999
G1 X76.978 Y69.020 E127.49846
G1 X123.022 Y115.064 E129.59498
G1 X123.022 Y115.948 E129.62345
G1 X76.978 Y69.905 E131.71997
G1 X76.978 Y70.789 E131.74844
G1 X123.022 Y116.832 E133.84496
G1 X123.022 Y117.716 E133.87343
G1 X76.978 Y71.673 E135.96995
G1 X76.978 Y72.557 E135.99842
G1 X123.022 Y118.601 E138.09495
G1 X123.022 Y119.485 E138.12342
G1 X76.978 Y73.441 E140.21994
G1 X76.978 Y74.326 E140.24841
G1 X123.022 Y120.369 E142.34493
G1 X123.022 Y121.253 E142.37340
G1 X76.978 Y75.210 E144.46992
G1 X76.978 Y76.094 E144.49839
G1 X123.022 Y122.137 E146.59491
G1 X123.022 Y123.022 E146.62338
G1 X76.978 Y76.978 E148.71991
G1 X76.978 Y77.863 E148.74837
G1 X123.022 Y123.906 E150.84490
G1 X123.022 Y124.790 E150.87337
G1 X76.978 Y78.747 E152.96989
G1 X76.978 Y79.631 E152.99836
G1 X123.022 Y125.674 E155.09488
G1 X123.022 Y126.559 E155.12335
G1 X76.978 Y80.515 E157.21987
G1 X76.978 Y81.400 E157.24834
G1 X123.022 Y127.443 E159.34486
G1 X123.022 Y128.327 E159.37333
G1 X76.978 Y82.284 E161.46986
G1 X76.978 Y83.168 E161.49833
G1 X123.022 Y129.211 E163.59485
G1 X123.022 Y130.096 E163.62332
G1 X76.978 Y84.052 E165.71984
G1 X76.978 Y84.936 E165.74831
G1 X123.022 Y130.980 E167.84483
G1 X123.022 Y131.864 E167.87330
G1 X76.978 Y85.821 E169.96982
G1 X76.978 Y86.705 E169.99829
G1 X123.022 Y132.748 E172.09481
G1 X123.022 Y133.632 E172.12328
G1 X76.978 Y87.589 E174.21981
G1 X76.978 Y88.473 E174.24828
G1 X123.022 Y134.517 E176.34480
G1 X123.022 Y135.401 E176.37327
G1 X76.978 Y89.358 E178.46979
G1 X76.978 Y90.242 E178.49826
G1 X123.022 Y136.285 E180.59478
G1 X123.022 Y137.169 E180.62325
G1 X76.978 Y91.126 E182.71977
G1 X76.978 Y92.010 E182.74824
G1 X123.022 Y138.054 E184.84476
G1 X123.022 Y138.938 E184.87323
G1 X76.978 Y92.894 E186.96976
G1 X76.978 Y93.779 E186.99823
G1 X123.022 Y139.822 E189.09475
G1 X123.022 Y140.706 E189.12322
G1 X76.978 Y94.663 E191.21974
G1 X76.978 Y95.547 E191.24821
G1 X123.022 Y141.590 E193.34473
G1 X123.022 Y142.475 E193.37320
G1 X76.978 Y96.431 E195.46972
G1 X76.978 Y97.316 E195.49819
G1 X123.022 Y143.359 E197.59472
G1 X123.022 Y144.243 E197.62318
G1 X76.978 Y98.200 E199.71971
G1 X76.978 Y99.084 E199.74818
G1 X123.022 Y145.127 E201.84470
G1 X123.022 Y146.012 E201.87317
G1 X76.978 Y99.968 E203.96969
G1 X76.978 Y100.853 E203.99816
G1 X123.022 Y146.896 E206.09468
G1 X123.022 Y147.780 E206.12315
G1 X76.978 Y101.737 E208.21967
G1 X76.978 Y102.621 E208.24814
G1 X122.379 Y148.022 E210.31540
G1 X121.495 Y148.022 E210.34387
G1 X76.978 Y103.505 E212.37087
G1 X76.978 Y104.389 E212.39934
G1 X120.611 Y148.022 E214.38608
G1 X119.726 Y148.022 E214.41455
G1 X76.978 Y105.274 E216.36102
G1 X76.978 Y106.158 E216.38949
G1 X118.842 Y148.022 E218.29570
G1 X117.958 Y148.022 E218.32417
G1 X76.978 Y107.042 E220.19012
G1 X76.978 Y107.926 E220.21859
G1 X117.074 Y148.022 E222.04428
G1 X116.189 Y148.022 E222.07275
G1 X76.978 Y108.811 E223.85817
G1 X76.978 Y109.695 E223.88664
G1 X115.305 Y148.022 E225.63180
G1 X114.421 Y148.022 E225.66027
G1 X76.978 Y110.579 E227.36517
G1 X76.978 Y111.463 E227.39364
G1 X113.537 Y148.022 E229.05828
G1 X112.652 Y148.022 E229.08675
