; generated by Slic3r 1.2.9 on 2019-08-29 at 20:09:16

; external perimeters extrusion width = 0.40mm
; perimeters extrusion width = 0.56mm
; infill extrusion width = 0.56mm
; solid infill extrusion width = 0.56mm
; top infill extrusion width = 0.56mm

M107
M190 S65 ; set bed temperature
M104 S200 ; set temperature
G28 ; home all axes
G1 Z5 F5000 ; lift nozzle

M109 S200 ; wait for temperature to be reached
G21 ; set units to millimeters
G90 ; use absolute coordinates
M82 ; use absolute distances for extrusion
G92 E0
G1 Z0.350 F7800.000
G1 E-2.00000 F2400.00000
G92 E0
G1 X91.076 Y91.076 F7800.000
G1 E2.00000 F2400.00000
G1 X91.606 Y90.573 E2.02352 F1800.000
G1 X92.002 Y90.235 E2.04027
G1 X92.372 Y89.943 E2.05543
G1 X93.184 Y89.376 E2.08732
G1 X93.628 Y89.104 E2.10405
G1 X94.502 Y88.638 E2.13593
G1 X95.411 Y88.241 E2.16784
G1 X96.348 Y87.918 E2.19973
G1 X97.306 Y87.668 E2.23161
G1 X97.769 Y87.576 E2.24679
G1 X98.296 Y87.493 E2.26396
G1 X99.269 Y87.399 E2.29542
G1 X100.273 Y87.381 E2.32773
G1 X101.249 Y87.440 E2.35920 F1800.000
G1 X101.717 Y87.495 E2.37436
G1 X102.693 Y87.668 E2.40626
G1 X103.652 Y87.918 E2.43815
G1 X104.589 Y88.241 E2.47004
G1 X105.498 Y88.638 E2.50194
G1 X106.372 Y89.104 E2.53383
G1 X106.816 Y89.376 E2.55057
G1 X107.628 Y89.943 E2.58245
G1 X108.394 Y90.573 E2.61435
G1 X109.107 Y91.260 E2.64625
G1 X109.765 Y92.002 E2.67814
G1 X110.362 Y92.793 E2.71003
G1 X110.896 Y93.628 E2.74193
G1 X111.362 Y94.502 E2.77382
G1 X111.759 Y95.411 E2.80571
G1 X112.083 Y96.348 E2.83761
G1 X112.210 Y96.801 E2.85277
G1 X112.424 Y97.769 E2.88466
G1 X112.560 Y98.751 E2.91655
G1 X112.620 Y99.740 E2.94844
G1 X112.601 Y100.731 E2.98034
G1 X112.505 Y101.718 E3.01224
G1 X112.334 Y102.680 E3.04368
G1 X112.210 Y103.199 E3.06086
G1 X111.922 Y104.147 E3.09275
G1 X111.560 Y105.070 E3.12465
G1 X111.126 Y105.961 E3.15654
G1 X110.624 Y106.816 E3.18843
G1 X110.362 Y107.207 E3.20360
G1 X109.774 Y107.987 E3.23504
G1 X109.107 Y108.740 E3.26738
G1 X108.394 Y109.427 E3.29927
G1 X107.628 Y110.057 E3.33117
G1 X107.196 Y110.370 E3.34834
G1 X106.372 Y110.896 E3.37979
G1 X105.498 Y111.362 E3.41168
G1 X104.589 Y111.759 E3.44358
G1 X103.652 Y112.083 E3.47548
G1 X102.680 Y112.334 E3.50781
G1 X101.718 Y112.505 E3.53925
G1 X101.249 Y112.560 E3.55442
G1 X100.260 Y112.620 E3.58631
G1 X99.269 Y112.601 E3.61821
G1 X98.283 Y112.505 E3.65010
G1 X97.307 Y112.332 E3.68199
G1 X96.801 Y112.210 E3.69873
G1 X95.853 Y111.922 E3.73062
G1 X94.930 Y111.560 E3.76252
G1 X94.027 Y111.120 E3.79485
G1 X93.185 Y110.624 E3.82630
G1 X92.793 Y110.362 E3.84146
G1 X92.002 Y109.765 E3.87335
G1 X91.260 Y109.107 E3.90525
G1 X90.573 Y108.394 E3.93714
G1 X89.943 Y107.628 E3.96904
G1 X89.376 Y106.816 E4.00093
G1 X88.874 Y105.961 E4.03282
G1 X88.440 Y105.069 E4.06472
G1 X88.078 Y104.147 E4.09661
G1 X87.789 Y103.198 E4.12852
G1 X87.579 Y102.245 E4.15995
G1 X87.495 Y101.717 E4.17713
G1 X87.399 Y100.731 E4.20902
G1 X87.380 Y99.740 E4.24092
G1 X87.440 Y98.751 E4.27281
G1 X87.576 Y97.769 E4.30470
G1 X87.668 Y97.306 E4.31988
G1 X87.914 Y96.361 E4.35131
G1 X88.241 Y95.411 E4.38365
G1 X88.638 Y94.502 E4.41556
G1 X89.104 Y93.628 E4.44744
G1 X89.638 Y92.793 E4.47933
G1 X90.235 Y92.002 E4.51122
G1 X90.573 Y91.606 E4.52796
G1 X91.034 Y91.119 E4.54955
G1 E2.54955 F2400.00000
G92 E0
G1 X103.077 Y103.077 F7800.000
G1 E2.00000 F2400.00000
G1 X102.557 Y103.520 E2.02197 F1800.000
G1 X101.981 Y103.873 E2.04372
G1 X101.659 Y104.022 E2.05515
G1 X101.016 Y104.231 E2.07690
G1 X100.348 Y104.337 E2.09865
G1 X100.000 Y104.350 E2.10986
G1 X99.652 Y104.337 E2.12108
G1 X98.984 Y104.231 E2.14283
G1 X98.341 Y104.022 E2.16457
G1 X98.019 Y103.873 E2.17601
G1 X97.442 Y103.520 E2.19776
G1 X96.929 Y103.081 E2.21951
G1 X96.692 Y102.825 E2.23073
G1 X96.473 Y102.547 E2.24211
G1 X96.127 Y101.981 E2.26346
G1 X95.981 Y101.665 E2.27467
G1 X95.863 Y101.344 E2.28567
G1 X95.767 Y101.004 E2.29706
G1 X95.663 Y100.348 E2.31841
G1 X95.650 Y100.000 E2.32962
G1 X95.664 Y99.646 E2.34101
G1 X95.769 Y98.984 E2.36258
G1 X95.978 Y98.341 E2.38433
G1 X96.129 Y98.014 E2.39594
G1 X96.480 Y97.442 E2.41751
G1 X96.923 Y96.923 E2.43948
G1 X97.442 Y96.480 E2.46145
G1 X98.014 Y96.129 E2.48302
G1 X98.341 Y95.978 E2.49463
G1 X98.978 Y95.771 E2.51616
G1 X99.326 Y95.702 E2.52759
G1 X99.988 Y95.650 E2.54895 F1800.000
G1 X100.341 Y95.663 E2.56033
G1 X100.687 Y95.704 E2.57155
G1 X101.333 Y95.859 E2.59290
G1 X101.665 Y95.981 E2.60428
G1 X101.981 Y96.127 E2.61550
G1 X102.547 Y96.473 E2.63685
G1 X102.825 Y96.692 E2.64823
G1 X103.076 Y96.924 E2.65923
G1 X103.308 Y97.175 E2.67023
G1 X103.527 Y97.453 E2.68161
G1 X103.873 Y98.019 E2.70297
G1 X104.019 Y98.335 E2.71418
G1 X104.137 Y98.656 E2.72518
G1 X104.233 Y98.996 E2.73656
G1 X104.337 Y99.652 E2.75791
G1 X104.350 Y100.000 E2.76913
G1 X104.336 Y100.354 E2.78051
G1 X104.231 Y101.016 E2.80208
G1 X104.022 Y101.659 E2.82383
G1 X103.873 Y101.981 E2.83527
G1 X103.520 Y102.557 E2.85701
G1 X103.116 Y103.031 E2.87705
G1 X103.170 Y103.466 F7800.000
G1 X104.030 Y103.958 F7800.000
G1 X103.669 Y104.296 E2.89295 F1800.000
G1 X103.310 Y104.578 E2.90767
G1 X102.952 Y104.817 E2.92151
G1 X102.565 Y105.034 E2.93579
G1 X102.162 Y105.220 E2.95006
G1 X101.746 Y105.373 E2.96434
G1 X101.319 Y105.494 E2.97860
G1 X100.871 Y105.582 E2.99332
G1 X100.443 Y105.632 E3.00716
G1 X100.000 Y105.650 E3.02144
G1 X99.557 Y105.632 E3.03571
G1 X99.116 Y105.580 E3.04999
G1 X98.681 Y105.494 E3.06426
G1 X98.254 Y105.373 E3.07854
G1 X97.838 Y105.220 E3.09281
G1 X97.435 Y105.034 E3.10709
G1 X97.048 Y104.817 E3.12136
G1 X96.679 Y104.571 E3.13564
G1 X96.331 Y104.296 E3.14991
G1 X96.005 Y103.995 E3.16419
G1 X95.704 Y103.669 E3.17846
G1 X95.429 Y103.321 E3.19274
G1 X95.183 Y102.952 E3.20701
G1 X94.966 Y102.565 E3.22129
G1 X94.780 Y102.162 E3.23556
G1 X94.627 Y101.746 E3.24984
G1 X94.506 Y101.319 E3.26411
G1 X94.422 Y100.897 E3.27796
G1 X94.368 Y100.443 E3.29268
G1 X94.350 Y100.000 E3.30694
G1 X94.368 Y99.557 E3.32121
G1 X94.420 Y99.116 E3.33549
G1 X94.506 Y98.681 E3.34976
G1 X94.627 Y98.254 E3.36404
G1 X94.780 Y97.838 E3.37831
G1 X94.966 Y97.435 E3.39259
G1 X95.183 Y97.048 E3.40686
G1 X95.422 Y96.690 E3.42071
G1 X95.704 Y96.331 E3.43543
G1 X96.005 Y96.005 E3.44969
G1 X96.331 Y95.704 E3.46396
G1 X96.679 Y95.430 E3.47823
G1 X97.060 Y95.176 E3.49294
G1 X97.435 Y94.966 E3.50679
G1 X97.838 Y94.780 E3.52106
G1 X98.254 Y94.627 E3.53534
G1 X98.681 Y94.506 E3.54961
G1 X99.116 Y94.420 E3.56389
G1 X99.556 Y94.368 E3.57815
G1 X100.013 Y94.351 E3.59287
G1 X100.443 Y94.368 E3.60671
G1 X100.884 Y94.420 E3.62099 F1800.000
G1 X101.319 Y94.506 E3.63526
G1 X101.746 Y94.627 E3.64954
G1 X102.162 Y94.780 E3.66381
G1 X102.565 Y94.966 E3.67809
G1 X102.952 Y95.183 E3.69236
G1 X103.321 Y95.429 E3.70664
G1 X103.669 Y95.704 E3.72091
G1 X103.995 Y96.005 E3.73519
G1 X104.296 Y96.331 E3.74946
G1 X104.571 Y96.679 E3.76374
G1 X104.810 Y97.037 E3.77758
G1 X105.034 Y97.435 E3.79230
G1 X105.220 Y97.838 E3.80656
G1 X105.373 Y98.254 E3.82084
G1 X105.494 Y98.681 E3.83511
G1 X105.580 Y99.116 E3.84939
G1 X105.632 Y99.557 E3.86366
G1 X105.650 Y100.000 E3.87794
G1 X105.632 Y100.443 E3.89221
G1 X105.580 Y100.884 E3.90649
G1 X105.496 Y101.306 E3.92033
G1 X105.373 Y101.746 E3.93505
G1 X105.220 Y102.162 E3.94931
G1 X105.034 Y102.565 E3.96358
G1 X104.817 Y102.952 E3.97786
G1 X104.578 Y103.310 E3.99171
G1 X104.296 Y103.669 E4.00642
G1 X104.070 Y103.913 E4.01711
G1 X103.644 Y103.851 F7800.000
G1 X103.553 Y103.517 F7800.000
G1 X102.929 Y104.053 E4.07323 F1800.000
G1 X102.305 Y104.436 E4.12322
G1 X101.877 Y104.633 E4.15537
G1 X101.168 Y104.862 E4.20614
G1 X100.392 Y104.985 E4.25975
G1 X100.000 Y105.000 E4.28653
G1 X99.608 Y104.985 E4.31332
G1 X98.833 Y104.862 E4.36685
G1 X98.087 Y104.619 E4.42039
G1 X97.695 Y104.436 E4.44986
G1 X97.040 Y104.029 E4.50249
G1 X96.464 Y103.536 E4.55422
G1 X96.198 Y103.247 E4.58101
G1 X95.929 Y102.901 E4.61088
G1 X95.545 Y102.270 E4.66132
G1 X95.381 Y101.913 E4.68810
G1 X95.245 Y101.545 E4.71489
G1 X95.137 Y101.161 E4.74208
G1 X95.070 Y100.794 E4.76758
G1 X95.015 Y100.392 E4.79524
G1 X95.001 Y99.986 E4.82296
G1 X95.020 Y99.563 E4.85187 F1800.000
G1 X95.138 Y98.833 E4.90231
G1 X95.367 Y98.123 E4.95319
G1 X95.548 Y97.725 E4.98304
G1 X95.947 Y97.071 E5.03530
G1 X96.204 Y96.756 E5.06301
G1 X96.464 Y96.464 E5.08970
G1 X97.083 Y95.940 E5.14501
G1 X97.690 Y95.567 E5.19367
G1 X98.087 Y95.381 E5.22354
G1 X98.795 Y95.148 E5.27439
G1 X99.257 Y95.057 E5.30653
G1 X100.013 Y95.001 E5.35824
G1 X100.392 Y95.016 E5.38416
G1 X100.782 Y95.062 E5.41094
G1 X101.502 Y95.232 E5.46139
G1 X101.913 Y95.381 E5.49126
G1 X102.304 Y95.564 E5.52071
G1 X102.939 Y95.955 E5.57157
G1 X103.257 Y96.207 E5.59922
G1 X103.535 Y96.465 E5.62513
G1 X103.802 Y96.753 E5.65192
G1 X104.071 Y97.099 E5.68179
G1 X104.456 Y97.731 E5.73230
G1 X104.619 Y98.087 E5.75901
G1 X104.751 Y98.443 E5.78492
G1 X104.871 Y98.877 E5.81567
G1 X104.980 Y99.569 E5.86343
G1 X105.000 Y100.000 E5.89289
G1 X104.980 Y100.437 E5.92276
G1 X104.855 Y101.193 E5.97499
G1 X104.633 Y101.877 E6.02403
G1 X104.436 Y102.305 E6.05619
G1 X104.053 Y102.929 E6.10617
G1 X103.593 Y103.472 E6.15473
G1 Z0.600 F7800.000
G1 X103.271 Y103.271 F7800.000
G1 X102.719 Y103.743 E6.16816 F900.000
G1 X102.111 Y104.116 E6.18135
G1 X101.759 Y104.278 E6.18852
G1 X101.080 Y104.499 E6.20171
G1 X100.375 Y104.610 E6.21491
G1 X100.000 Y104.625 E6.22185
G1 X99.625 Y104.610 E6.22879
G1 X98.947 Y104.504 E6.24147
G1 X98.572 Y104.399 E6.24868
G1 X98.230 Y104.273 E6.25541
G1 X97.889 Y104.116 E6.26236
G1 X97.281 Y103.743 E6.27555
G1 X96.738 Y103.279 E6.28875
G1 X96.482 Y103.003 E6.29571
G1 X96.242 Y102.696 E6.30291
G1 X95.884 Y102.111 E6.31560
G1 X95.727 Y101.770 E6.32254
G1 X95.601 Y101.428 E6.32927
G1 X95.496 Y101.053 E6.33648
G1 X95.390 Y100.375 E6.34916
G1 X95.375 Y99.999 E6.35612
G1 X95.392 Y99.609 E6.36333
G1 X95.501 Y98.920 E6.37624
G1 X95.722 Y98.240 E6.38945
G1 X95.892 Y97.876 E6.39689
G1 X96.257 Y97.280 E6.40980
G1 X96.729 Y96.729 E6.42321
G1 X97.280 Y96.257 E6.43663
G1 X97.876 Y95.892 E6.44954
G1 X98.240 Y95.722 E6.45698
G1 X98.908 Y95.505 E6.46997
G1 X99.288 Y95.430 E6.47713
G1 X99.972 Y95.375 E6.48982 F900.000
G1 X100.362 Y95.389 E6.49702
G1 X100.735 Y95.433 E6.50398
G1 X101.403 Y95.593 E6.51666
G1 X101.769 Y95.727 E6.52387
G1 X102.111 Y95.884 E6.53083
G1 X102.719 Y96.257 E6.54403
G1 X103.262 Y96.721 E6.55722
G1 X103.518 Y96.997 E6.56418
G1 X103.758 Y97.304 E6.57139
G1 X104.116 Y97.889 E6.58408
G1 X104.273 Y98.230 E6.59101
G1 X104.399 Y98.572 E6.59775
G1 X104.504 Y98.947 E6.60496
G1 X104.610 Y99.625 E6.61764
G1 X104.625 Y100.001 E6.62460
G1 X104.608 Y100.391 E6.63181
G1 X104.499 Y101.080 E6.64472
G1 X104.278 Y101.759 E6.65791
G1 X104.116 Y102.111 E6.66508
G1 X103.743 Y102.719 E6.67827
G1 X103.310 Y103.226 E6.69058
G1 X102.970 Y102.970 F7800.000
G1 X102.469 Y103.398 E6.69898 F900.000
G1 X101.910 Y103.741 E6.70733
G1 X101.604 Y103.882 E6.71163
G1 X100.981 Y104.085 E6.71998
G1 X100.333 Y104.187 E6.72832
G1 X100.000 Y104.200 E6.73258
G1 X99.667 Y104.187 E6.73683
G1 X99.038 Y104.088 E6.74494
G1 X98.702 Y103.995 E6.74937
G1 X98.393 Y103.880 E6.75358
G1 X98.090 Y103.741 E6.75783
G1 X97.531 Y103.398 E6.76618
G1 X97.033 Y102.973 E6.77452
G1 X96.806 Y102.728 E6.77878
G1 X96.591 Y102.454 E6.78321
G1 X96.259 Y101.910 E6.79132
G1 X96.120 Y101.607 E6.79557
G1 X96.005 Y101.298 E6.79978
G1 X95.912 Y100.962 E6.80421
G1 X95.813 Y100.333 E6.81233
G1 X95.800 Y100.000 E6.81658
G1 X95.815 Y99.652 E6.82101
G1 X95.915 Y99.019 E6.82917
G1 X96.118 Y98.396 E6.83753
G1 X96.266 Y98.077 E6.84201
G1 X96.602 Y97.531 E6.85017
G1 X97.030 Y97.030 E6.85857
G1 X97.531 Y96.602 E6.86696
G1 X98.077 Y96.266 E6.87512
G1 X98.396 Y96.118 E6.87961
G1 X99.016 Y95.917 E6.88791
G1 X99.347 Y95.851 E6.89221
G1 X99.981 Y95.800 E6.90032 F900.000
G1 X100.329 Y95.813 E6.90475
G1 X100.661 Y95.852 E6.90901
G1 X101.280 Y96.000 E6.91712
G1 X101.607 Y96.119 E6.92155
G1 X101.910 Y96.259 E6.92581
G1 X102.469 Y96.602 E6.93416
G1 X102.967 Y97.027 E6.94250
G1 X103.194 Y97.272 E6.94676
G1 X103.409 Y97.546 E6.95119
G1 X103.741 Y98.090 E6.95931
G1 X103.880 Y98.393 E6.96356
G1 X103.995 Y98.702 E6.96776
G1 X104.088 Y99.038 E6.97219
G1 X104.187 Y99.667 E6.98031
G1 X104.200 Y100.000 E6.98456
G1 X104.185 Y100.348 E6.98899
G1 X104.085 Y100.981 E6.99716
G1 X103.882 Y101.604 E7.00550
G1 X103.741 Y101.910 E7.00980
G1 X103.398 Y102.469 E7.01815
G1 X103.009 Y102.925 E7.02578
G1 X103.064 Y103.359 F7800.000
G1 X103.832 Y103.767 F7800.000
G1 X103.492 Y104.086 E7.03440 F900.000
G1 X103.130 Y104.368 E7.04289
G1 X102.808 Y104.583 E7.05004
G1 X102.440 Y104.789 E7.05784
G1 X102.057 Y104.966 E7.06565
G1 X101.661 Y105.112 E7.07345
G1 X101.255 Y105.227 E7.08125
G1 X100.841 Y105.309 E7.08906
G1 X100.422 Y105.358 E7.09686
G1 X100.000 Y105.375 E7.10466
G1 X99.578 Y105.358 E7.11247
G1 X99.159 Y105.309 E7.12027
G1 X98.745 Y105.227 E7.12807
G1 X98.339 Y105.112 E7.13588
G1 X97.943 Y104.966 E7.14368
G1 X97.561 Y104.790 E7.15145
G1 X97.162 Y104.563 E7.15994
G1 X96.841 Y104.348 E7.16709
G1 X96.509 Y104.087 E7.17489
G1 X96.199 Y103.801 E7.18269
G1 X95.913 Y103.491 E7.19050
G1 X95.652 Y103.159 E7.19830
G1 X95.417 Y102.808 E7.20610
G1 X95.211 Y102.440 E7.21391
G1 X95.034 Y102.057 E7.22171
G1 X94.888 Y101.661 E7.22951
G1 X94.773 Y101.255 E7.23731
G1 X94.698 Y100.876 E7.24446
G1 X94.641 Y100.420 E7.25295
G1 X94.625 Y100.000 E7.26072
G1 X94.642 Y99.578 E7.26852
G1 X94.691 Y99.159 E7.27633
G1 X94.773 Y98.745 E7.28413
G1 X94.878 Y98.373 E7.29128
G1 X95.035 Y97.941 E7.29977
G1 X95.211 Y97.560 E7.30754
G1 X95.417 Y97.192 E7.31534
G1 X95.632 Y96.870 E7.32249
G1 X95.914 Y96.508 E7.33098
G1 X96.199 Y96.199 E7.33875
G1 X96.509 Y95.913 E7.34655
G1 X96.839 Y95.653 E7.35432
G1 X97.223 Y95.400 E7.36281
G1 X97.560 Y95.211 E7.36996
G1 X97.943 Y95.034 E7.37776
G1 X98.339 Y94.888 E7.38557
G1 X98.745 Y94.773 E7.39337
G1 X99.159 Y94.691 E7.40117
G1 X99.576 Y94.642 E7.40894
G1 X100.035 Y94.626 E7.41743
G1 X100.422 Y94.642 E7.42458
G1 X100.841 Y94.691 E7.43238 F900.000
G1 X101.255 Y94.773 E7.44019
G1 X101.661 Y94.888 E7.44799
G1 X102.057 Y95.034 E7.45579
G1 X102.440 Y95.211 E7.46360
G1 X102.808 Y95.417 E7.47140
G1 X103.159 Y95.652 E7.47920
G1 X103.491 Y95.913 E7.48700
G1 X103.801 Y96.199 E7.49481
G1 X104.087 Y96.509 E7.50261
G1 X104.348 Y96.841 E7.51041
G1 X104.563 Y97.162 E7.51756
G1 X104.790 Y97.561 E7.52605
G1 X104.966 Y97.943 E7.53382
G1 X105.112 Y98.339 E7.54162
G1 X105.227 Y98.745 E7.54943
G1 X105.309 Y99.159 E7.55723
G1 X105.358 Y99.578 E7.56503
G1 X105.375 Y100.000 E7.57284
G1 X105.358 Y100.422 E7.58064
G1 X105.309 Y100.841 E7.58844
G1 X105.227 Y101.255 E7.59625
G1 X105.112 Y101.661 E7.60405
G1 X104.966 Y102.057 E7.61185
G1 X104.789 Y102.440 E7.61966
G1 X104.583 Y102.808 E7.62746
G1 X104.368 Y103.130 E7.63461
G1 X104.086 Y103.492 E7.64310
G1 X103.873 Y103.723 E7.64890
G1 X104.144 Y104.055 F7800.000
G1 X103.767 Y104.410 E7.65550 F900.000
G1 X103.379 Y104.713 E7.66177
G1 X103.030 Y104.945 E7.66711
G1 X102.633 Y105.168 E7.67291
G1 X102.220 Y105.358 E7.67871
G1 X101.792 Y105.516 E7.68451
G1 X101.354 Y105.640 E7.69031
G1 X100.907 Y105.728 E7.69611
G1 X100.455 Y105.782 E7.70192
G1 X100.000 Y105.800 E7.70772
G1 X99.545 Y105.782 E7.71352
G1 X99.093 Y105.728 E7.71932
G1 X98.646 Y105.640 E7.72512
G1 X98.208 Y105.516 E7.73092
G1 X97.780 Y105.358 E7.73673
G1 X97.367 Y105.168 E7.74252
G1 X96.939 Y104.925 E7.74880
G1 X96.591 Y104.692 E7.75413
G1 X96.233 Y104.410 E7.75993
G1 X95.899 Y104.101 E7.76573
G1 X95.590 Y103.767 E7.77153
G1 X95.308 Y103.409 E7.77734
G1 X95.055 Y103.030 E7.78314
G1 X94.832 Y102.633 E7.78894
G1 X94.642 Y102.220 E7.79474
G1 X94.484 Y101.792 E7.80054
G1 X94.360 Y101.354 E7.80634
G1 X94.279 Y100.943 E7.81168
G1 X94.218 Y100.454 E7.81795
G1 X94.200 Y100.000 E7.82375
G1 X94.218 Y99.545 E7.82955
G1 X94.272 Y99.093 E7.83535
G1 X94.360 Y98.646 E7.84115
G1 X94.474 Y98.243 E7.84649
G1 X94.642 Y97.780 E7.85276
G1 X94.832 Y97.367 E7.85856
G1 X95.055 Y96.970 E7.86436
G1 X95.287 Y96.621 E7.86969
G1 X95.590 Y96.233 E7.87597
G1 X95.899 Y95.899 E7.88176
G1 X96.233 Y95.590 E7.88756
G1 X96.590 Y95.308 E7.89336
G1 X97.002 Y95.037 E7.89963
G1 X97.367 Y94.832 E7.90497
