; generated by Slic3r 1.2.9 on 2019-07-28 at 15:07:44

; external perimeters extrusion width = 0.40mm
; perimeters extrusion width = 0.56mm
; infill extrusion width = 0.56mm
; solid infill extrusion width = 0.56mm
; top infill extrusion width = 0.56mm

M107
M190 S65 ; set bed temperature
M104 S200 ; set temperature
G28 ; home all axes
G1 Z5 F5000 ; lift nozzle

M109 S200 ; wait for temperature to be reached
G21 ; set units to millimeters
G90 ; use absolute coordinates
M82 ; use absolute distances for extrusion
G92 E0
G1 Z0.350 F7800.000
G1 E-2.00000 F2400.00000
G92 E0
G1 X70.206 Y83.191 F7800.000
G1 E2.00000 F2400.00000
G1 X70.748 Y82.734 E2.02283 F1800.000
G1 X72.900 Y81.941 E2.09663
G1 X74.080 Y81.835 E2.13474
G1 X125.920 Y81.835 E3.80290
G1 X128.179 Y82.232 E3.87670
G1 X130.167 Y83.375 E3.95050 F1800.000
G1 X131.646 Y85.128 E4.02430
G1 X132.439 Y87.280 E4.09811
G1 X132.545 Y88.460 E4.13622
G1 X132.545 Y111.540 E4.87891
G1 X132.148 Y113.799 E4.95271
G1 X131.005 Y115.787 E5.02651
G1 X129.252 Y117.266 E5.10032
G1 X127.100 Y118.059 E5.17412
G1 X125.920 Y118.165 E5.21223
G1 X74.080 Y118.165 E6.88039
G1 X71.821 Y117.768 E6.95419
G1 X69.833 Y116.625 E7.02799
G1 X68.354 Y114.872 E7.10179
G1 X67.561 Y112.720 E7.17559
G1 X67.455 Y111.540 E7.21371
G1 X67.455 Y88.460 E7.95640
G1 X67.852 Y86.201 E8.03020
G1 X68.995 Y84.213 E8.10400
G1 X70.160 Y83.230 E8.15305
G1 E6.15305 F2400.00000
G92 E0
G1 X80.838 Y101.810 F7800.000
G1 E2.00000 F2400.00000
G1 X80.501 Y102.098 E2.01426 F1800.000
G1 X79.988 Y102.385 E2.03317
G1 X79.423 Y102.545 E2.05207
G1 X79.000 Y102.578 E2.06571
G1 X78.577 Y102.545 E2.07935
G1 X78.012 Y102.385 E2.09825
G1 X77.499 Y102.098 E2.11716
G1 X77.162 Y101.810 E2.13142
G1 X76.811 Y101.364 E2.14970
G1 X76.618 Y100.987 E2.16334
G1 X76.487 Y100.583 E2.17698
G1 X76.418 Y100.000 E2.19588
G1 X76.487 Y99.417 E2.21479
G1 X76.618 Y99.013 E2.22843
G1 X76.811 Y98.636 E2.24207
G1 X77.162 Y98.190 E2.26035
G1 X77.499 Y97.902 E2.27461
G1 X77.995 Y97.624 E2.29289
G1 X78.416 Y97.488 E2.30713
G1 X78.971 Y97.421 E2.32512 F1800.000
G1 X79.421 Y97.455 E2.33964
G1 X79.988 Y97.615 E2.35859
G1 X80.501 Y97.902 E2.37750
G1 X80.838 Y98.190 E2.39176
G1 X81.189 Y98.636 E2.41004
G1 X81.382 Y99.013 E2.42368
G1 X81.513 Y99.417 E2.43732
G1 X81.582 Y100.000 E2.45622
G1 X81.513 Y100.583 E2.47513
G1 X81.382 Y100.987 E2.48877
G1 X81.189 Y101.364 E2.50241
G1 X80.875 Y101.763 E2.51875
G1 X80.385 Y101.375 F7800.000
G1 X80.142 Y101.583 E2.52905 F1800.000
G1 X79.747 Y101.804 E2.54360
G1 X79.312 Y101.927 E2.55815
G1 X79.000 Y101.951 E2.56822
G1 X78.688 Y101.927 E2.57830
G1 X78.253 Y101.804 E2.59284
G1 X77.858 Y101.583 E2.60739
G1 X77.615 Y101.375 E2.61769
G1 X77.340 Y101.026 E2.63201
G1 X77.197 Y100.747 E2.64208
G1 X77.101 Y100.449 E2.65215
G1 X77.048 Y100.000 E2.66670
G1 X77.101 Y99.551 E2.68125
G1 X77.197 Y99.253 E2.69132
G1 X77.340 Y98.974 E2.70140
G1 X77.615 Y98.625 E2.71572
G1 X77.858 Y98.417 E2.72601
G1 X78.247 Y98.200 E2.74034
G1 X78.551 Y98.101 E2.75063
G1 X78.985 Y98.049 E2.76469 F1800.000
G1 X79.312 Y98.073 E2.77523
G1 X79.747 Y98.196 E2.78980
G1 X80.142 Y98.417 E2.80435
G1 X80.385 Y98.625 E2.81464
G1 X80.660 Y98.974 E2.82896
G1 X80.803 Y99.253 E2.83904
G1 X80.899 Y99.551 E2.84911
G1 X80.952 Y100.000 E2.86366
G1 X80.899 Y100.449 E2.87820
G1 X80.803 Y100.747 E2.88828
G1 X80.660 Y101.026 E2.89835
G1 X80.422 Y101.328 E2.91074
G1 X80.464 Y101.685 F7800.000
G1 X118.418 Y100.000 F7800.000
G1 X118.487 Y99.417 E2.92965 F1800.000
G1 X118.619 Y99.012 E2.94334
G1 X118.816 Y98.628 E2.95724
G1 X119.163 Y98.189 E2.97523
G1 X119.499 Y97.902 E2.98946
G1 X119.995 Y97.624 E3.00775
G1 X120.416 Y97.488 E3.02198
G1 X120.971 Y97.421 E3.03998 F1800.000
G1 X121.421 Y97.455 E3.05449
G1 X121.988 Y97.615 E3.07345
G1 X122.501 Y97.902 E3.09236
G1 X122.838 Y98.190 E3.10662
G1 X123.189 Y98.636 E3.12490
G1 X123.382 Y99.013 E3.13854
G1 X123.513 Y99.417 E3.15218
G1 X123.582 Y100.000 E3.17108
G1 X123.513 Y100.583 E3.18999
G1 X123.382 Y100.987 E3.20363
G1 X123.189 Y101.364 E3.21726
G1 X122.838 Y101.810 E3.23554
G1 X122.501 Y102.098 E3.24980
G1 X121.988 Y102.385 E3.26871
G1 X121.423 Y102.545 E3.28762
G1 X121.000 Y102.578 E3.30125
G1 X120.577 Y102.545 E3.31489
G1 X120.012 Y102.385 E3.33380
G1 X119.499 Y102.098 E3.35271
G1 X119.162 Y101.810 E3.36697
G1 X118.811 Y101.364 E3.38525
G1 X118.618 Y100.987 E3.39888
G1 X118.487 Y100.583 E3.41252
G1 X118.425 Y100.060 E3.42950
G1 X119.048 Y100.000 F7800.000
G1 X119.101 Y99.551 E3.44404 F1800.000
G1 X119.198 Y99.253 E3.45414
G1 X119.344 Y98.968 E3.46445
G1 X119.615 Y98.625 E3.47852
G1 X119.858 Y98.417 E3.48881
G1 X120.247 Y98.200 E3.50313
G1 X120.551 Y98.101 E3.51342
G1 X120.985 Y98.049 E3.52749 F1800.000
G1 X121.312 Y98.073 E3.53803
G1 X121.747 Y98.196 E3.55259
G1 X122.142 Y98.417 E3.56714
G1 X122.385 Y98.625 E3.57744
G1 X122.660 Y98.974 E3.59176
G1 X122.803 Y99.253 E3.60183
G1 X122.899 Y99.551 E3.61191
G1 X122.952 Y100.000 E3.62645
G1 X122.899 Y100.449 E3.64100
G1 X122.803 Y100.747 E3.65107
G1 X122.660 Y101.026 E3.66115
G1 X122.385 Y101.375 E3.67547
G1 X122.142 Y101.583 E3.68577
G1 X121.747 Y101.804 E3.70031
G1 X121.312 Y101.927 E3.71486
G1 X121.000 Y101.951 E3.72493
G1 X120.688 Y101.927 E3.73501
G1 X120.253 Y101.804 E3.74955
G1 X119.858 Y101.583 E3.76410
G1 X119.615 Y101.375 E3.77440
G1 X119.340 Y101.026 E3.78872
G1 X119.197 Y100.747 E3.79879
G1 X119.101 Y100.449 E3.80887
G1 X119.055 Y100.060 E3.82148
G1 X118.709 Y99.787 F7800.000
G1 E1.82148 F2400.00000
G92 E0
G1 X124.033 Y101.085 F7800.000
G1 E2.00000 F2400.00000
G1 X124.320 Y101.154 E2.00951 F1800.000
G1 X124.320 Y109.940 E2.29224
G1 X75.680 Y109.940 E3.85744
G1 X75.680 Y101.154 E4.14017
G1 X75.967 Y101.085 E4.14968
G1 X76.282 Y101.703 E4.17199
G1 X76.710 Y102.245 E4.19423
G1 X77.140 Y102.613 E4.21245
G1 X77.771 Y102.967 E4.23572
G1 X78.467 Y103.163 E4.25899
G1 X79.000 Y103.205 E4.27619
G1 X79.533 Y103.163 E4.29339
G1 X80.229 Y102.967 E4.31665
G1 X80.860 Y102.613 E4.33992
G1 X81.290 Y102.245 E4.35815
G1 X81.718 Y101.703 E4.38039
G1 X81.961 Y101.226 E4.39758
G1 X82.126 Y100.718 E4.41479
G1 X82.211 Y100.000 E4.43805
G1 X82.126 Y99.282 E4.46132
G1 X81.961 Y98.774 E4.47852
G1 X81.718 Y98.297 E4.49572
G1 X81.290 Y97.755 E4.51796
G1 X80.860 Y97.387 E4.53618
G1 X80.229 Y97.033 E4.55945
G1 X79.530 Y96.836 E4.58280
G1 X78.957 Y96.793 E4.60130
G1 X78.281 Y96.874 E4.62322
G1 X77.744 Y97.049 E4.64140
G1 X77.140 Y97.387 E4.66364
G1 X76.710 Y97.755 E4.68187
G1 X76.282 Y98.297 E4.70411
G1 X75.967 Y98.915 E4.72641
G1 X75.680 Y98.846 E4.73592
G1 X75.680 Y90.060 E5.01865
G1 X124.320 Y90.060 E6.58385
G1 X124.320 Y98.846 E6.86659
G1 X124.033 Y98.915 E6.87610
G1 X123.718 Y98.297 E6.89840
G1 X123.290 Y97.755 E6.92064
G1 X122.860 Y97.387 E6.93887
G1 X122.229 Y97.033 E6.96213
G1 X121.530 Y96.836 E6.98549
G1 X120.957 Y96.793 E7.00398
G1 X120.281 Y96.874 E7.02590
G1 X119.744 Y97.049 E7.04408
G1 X119.140 Y97.387 E7.06633
G1 X118.711 Y97.754 E7.08451
G1 X118.288 Y98.288 E7.10643
G1 X118.040 Y98.771 E7.12390
G1 X117.874 Y99.282 E7.14119
G1 X117.789 Y100.000 E7.16446
G1 X117.874 Y100.718 E7.18772
G1 X118.039 Y101.226 E7.20493
G1 X118.282 Y101.703 E7.22212
G1 X118.710 Y102.245 E7.24436
G1 X119.140 Y102.613 E7.26259
G1 X119.771 Y102.967 E7.28586
G1 X120.467 Y103.163 E7.30912
G1 X121.000 Y103.205 E7.32632
G1 X121.533 Y103.163 E7.34352
G1 X122.229 Y102.967 E7.36679
G1 X122.860 Y102.613 E7.39006
G1 X123.290 Y102.245 E7.40828
G1 X123.718 Y101.703 E7.43052
G1 X124.006 Y101.138 E7.45089
G1 X124.945 Y110.565 F7800.000
G1 X75.055 Y110.565 E9.05631 F1800.000
G1 X75.055 Y89.435 E9.73626
G1 X124.945 Y89.435 E11.34167
G1 X124.945 Y110.505 E12.01969
G1 X125.570 Y111.190 F7800.000
G1 X74.430 Y111.190 E13.66533 F1800.000
G1 X74.430 Y88.810 E14.38549
G1 X125.570 Y88.810 E16.03112
G1 X125.570 Y111.130 E16.74936
G1 X125.224 Y110.990 F7800.000
G1 X123.942 Y103.137 F7800.000
G1 X123.390 Y102.586 E16.77448 F1800.000
G1 X122.893 Y102.974 E16.79482
G1 X123.942 Y104.023 E16.84264
G1 X123.942 Y104.908 E16.87118
G1 X122.325 Y103.292 E16.94487
G1 X121.642 Y103.493 E16.96785
G1 X123.942 Y105.793 E17.07270
G1 X123.942 Y106.679 E17.10124
G1 X120.846 Y103.583 E17.24235
G1 X119.784 Y103.406 F7800.000
G1 X123.942 Y107.564 E17.43190 F1800.000
G1 X123.942 Y108.449 E17.46044
G1 X105.931 Y90.438 E18.28152
G1 X105.046 Y90.438 E18.31006
G1 X123.942 Y109.334 E19.17150
G1 X123.284 Y109.562 E19.19394
G1 X104.160 Y90.438 E20.06574
G1 X103.275 Y90.438 E20.09428
G1 X122.398 Y109.562 E20.96607
G1 X121.513 Y109.562 E20.99461
G1 X102.390 Y90.438 E21.86641
G1 X101.504 Y90.438 E21.89494
G1 X120.628 Y109.562 E22.76674
G1 X119.742 Y109.562 E22.79528
G1 X100.619 Y90.438 E23.66707
G1 X99.734 Y90.438 E23.69561
G1 X118.857 Y109.562 E24.56741
G1 X117.972 Y109.562 E24.59594
G1 X98.849 Y90.438 E25.46774
G1 X97.963 Y90.438 E25.49628
G1 X117.087 Y109.562 E26.36807
G1 X116.201 Y109.562 E26.39661
G1 X97.078 Y90.438 E27.26841
G1 X96.193 Y90.438 E27.29694
G1 X115.316 Y109.562 E28.16874
G1 X114.431 Y109.562 E28.19728
G1 X95.307 Y90.438 E29.06907
G1 X94.422 Y90.438 E29.09761
G1 X113.545 Y109.562 E29.96941
G1 X112.660 Y109.562 E29.99794
G1 X93.537 Y90.438 E30.86974
G1 X92.652 Y90.438 E30.89828
G1 X111.775 Y109.562 E31.77007
G1 X110.890 Y109.562 E31.79861
G1 X91.766 Y90.438 E32.67041
G1 X90.881 Y90.438 E32.69894
G1 X110.004 Y109.562 E33.57074
G1 X109.119 Y109.562 E33.59928
G1 X89.996 Y90.438 E34.47107
G1 X89.110 Y90.438 E34.49961
G1 X108.234 Y109.562 E35.37141
G1 X107.348 Y109.562 E35.39995
G1 X88.225 Y90.438 E36.27174
G1 X87.340 Y90.438 E36.30028
G1 X106.463 Y109.562 E37.17207
G1 X105.578 Y109.562 E37.20061
G1 X86.455 Y90.438 E38.07241
G1 X85.569 Y90.438 E38.10095
G1 X104.693 Y109.562 E38.97274
G1 X103.807 Y109.562 E39.00128
G1 X84.684 Y90.438 E39.87308
G1 X83.799 Y90.438 E39.90161
G1 X102.922 Y109.562 E40.77341
G1 X102.037 Y109.562 E40.80195
G1 X82.913 Y90.438 E41.67374
G1 X82.028 Y90.438 E41.70228
G1 X101.151 Y109.562 E42.57408
G1 X100.266 Y109.562 E42.60261
G1 X81.143 Y90.438 E43.47441
G1 X80.258 Y90.438 E43.50295
G1 X99.381 Y109.562 E44.37474
G1 X98.496 Y109.562 E44.40328
G1 X79.372 Y90.438 E45.27508
G1 X78.487 Y90.438 E45.30361
G1 X97.610 Y109.562 E46.17541
G1 X96.725 Y109.562 E46.20395
G1 X77.602 Y90.438 E47.07574
G1 X76.716 Y90.438 E47.10428
G1 X95.840 Y109.562 E47.97608
G1 X94.954 Y109.562 E48.00462
G1 X76.058 Y90.666 E48.86605
G1 X76.058 Y91.551 E48.89459
G1 X94.069 Y109.562 E49.71567
G1 X93.184 Y109.562 E49.74421
G1 X82.415 Y98.793 E50.23514
G1 X82.592 Y99.855 E50.26984
G1 X92.299 Y109.562 E50.71237
G1 X91.413 Y109.562 E50.74090
G1 X82.501 Y100.649 E51.14722
G1 X82.287 Y101.320 E51.16993
G1 X90.528 Y109.562 E51.54564
G1 X89.643 Y109.562 E51.57418
G1 X81.978 Y101.897 E51.92358
G1 X81.588 Y102.392 E51.94390
G1 X88.757 Y109.562 E52.27073
G1 X87.872 Y109.562 E52.29927
G1 X81.124 Y102.814 E52.60690
G1 X80.576 Y103.151 E52.62764
G1 X86.987 Y109.562 E52.91989
G1 X86.102 Y109.562 E52.94843
G1 X79.947 Y103.407 E53.22900
G1 X79.212 Y103.558 E53.25317
G1 X85.216 Y109.562 E53.52688
G1 X84.331 Y109.562 E53.55542
G1 X78.310 Y103.541 E53.82989
G1 X76.878 Y102.994 F7800.000
G1 X83.446 Y109.562 E54.12931 F1800.000
G1 X82.560 Y109.562 E54.15785
G1 X76.058 Y103.060 E54.45426
G1 X76.058 Y103.945 E54.48280
G1 X81.675 Y109.562 E54.73886
G1 X80.790 Y109.562 E54.76740
G1 X76.058 Y104.830 E54.98310
G1 X76.058 Y105.715 E55.01164
G1 X79.905 Y109.562 E55.18698
G1 X79.019 Y109.562 E55.21552
G1 X76.058 Y106.601 E55.35050
G1 X76.058 Y107.486 E55.37904
G1 X78.134 Y109.562 E55.47366
G1 X77.249 Y109.562 E55.50220
G1 X76.058 Y108.371 E55.55647
G1 X76.058 Y109.257 E55.58501
G1 X76.363 Y109.562 E55.59891
G1 X76.610 Y97.414 F7800.000
G1 X76.058 Y96.863 E55.62404 F1800.000
G1 X76.058 Y95.977 E55.65258
G1 X77.107 Y97.026 E55.70040
G1 X77.676 Y96.709 E55.72137
G1 X76.058 Y95.092 E55.79510
G1 X76.058 Y94.207 E55.82364
G1 X78.351 Y96.500 E55.92817
G1 X79.155 Y96.418 E55.95421
G1 X76.058 Y93.321 E56.09539
G1 X76.058 Y92.436 E56.12393
G1 X80.216 Y96.594 E56.31348
G1 X117.585 Y101.207 F7800.000
G1 X106.816 Y90.438 E56.80441 F1800.000
G1 X107.701 Y90.438 E56.83295
G1 X117.408 Y100.145 E57.27548
G1 X117.499 Y99.351 E57.30125
G1 X108.587 Y90.438 E57.70756
G1 X109.472 Y90.438 E57.73610
G1 X117.713 Y98.679 E58.11180
G1 X118.021 Y98.102 E58.13289
G1 X110.357 Y90.438 E58.48227
G1 X111.243 Y90.438 E58.51081
G1 X118.412 Y97.608 E58.83765
G1 X118.876 Y97.186 E58.85785
G1 X112.128 Y90.438 E59.16548
G1 X113.013 Y90.438 E59.19401
G1 X119.424 Y96.849 E59.48626
G1 X120.048 Y96.588 E59.50808
G1 X113.898 Y90.438 E59.78844
G1 X114.784 Y90.438 E59.81698
G1 X120.792 Y96.447 E60.09089
G1 X121.689 Y96.458 E60.11980
G1 X115.669 Y90.438 E60.39425
G1 X116.554 Y90.438 E60.42279
G1 X123.122 Y97.006 E60.72220
G1 X123.942 Y96.940 E60.74871
G1 X117.440 Y90.438 E61.04513
G1 X118.325 Y90.438 E61.07366
G1 X123.942 Y96.055 E61.32972
G1 X123.942 Y95.170 E61.35826
G1 X119.210 Y90.438 E61.57397
G1 X120.095 Y90.438 E61.60250
G1 X123.942 Y94.285 E61.77785
G1 X123.942 Y93.399 E61.80638
G1 X120.981 Y90.438 E61.94137
G1 X121.866 Y90.438 E61.96991
G1 X123.942 Y92.514 E62.06453
G1 X123.942 Y91.629 E62.09307
G1 X122.751 Y90.438 E62.14734
G1 X123.637 Y90.438 E62.17588
G1 X123.942 Y90.743 E62.18979
G1 X124.218 Y99.192 F7800.000
G1 X124.263 Y99.957 E62.24205 F1800.000
G1 X124.218 Y100.808 E62.30024
G1 E60.30024 F2400.00000
G92 E0
G1 X75.782 Y100.808 F7800.000
G1 E2.00000 F2400.00000
G1 X75.737 Y100.043 E2.05227 F1800.000
G1 X75.782 Y99.192 E2.11045
G1 Z0.600 F7800.000
G1 E0.11045 F2400.00000
G92 E0
G1 X81.662 Y100.616 F7800.000
G1 E2.00000 F2400.00000
G1 X81.523 Y101.045 E2.00834 F900.000
G1 X81.318 Y101.447 E2.01667
G1 X80.948 Y101.916 E2.02773
G1 X80.588 Y102.224 E2.03647
G1 X80.047 Y102.527 E2.04795
G1 X79.449 Y102.695 E2.05942
G1 X79.000 Y102.731 E2.06776
G1 X78.551 Y102.695 E2.07609
G1 X77.953 Y102.527 E2.08756
G1 X77.412 Y102.224 E2.09904
G1 X77.052 Y101.916 E2.10779
G1 X76.682 Y101.447 E2.11884
G1 X76.477 Y101.045 E2.12718
G1 X76.338 Y100.616 E2.13551
G1 X76.265 Y100.000 E2.14699
G1 X76.338 Y99.384 E2.15846
G1 X76.477 Y98.955 E2.16680
G1 X76.682 Y98.553 E2.17513
G1 X77.052 Y98.084 E2.18619
G1 X77.412 Y97.776 E2.19493
G1 X77.934 Y97.484 E2.20599
G1 X78.381 Y97.339 E2.21470
G1 X78.951 Y97.269 E2.22530 F900.000
G1 X79.445 Y97.303 E2.23446
G1 X80.047 Y97.473 E2.24602
G1 X80.588 Y97.776 E2.25749
G1 X80.948 Y98.084 E2.26624
G1 X81.318 Y98.553 E2.27730
G1 X81.523 Y98.955 E2.28563
G1 X81.662 Y99.384 E2.29397
G1 X81.735 Y100.000 E2.30544
G1 X81.669 Y100.557 E2.31581
G1 X81.169 Y100.508 F7800.000
G1 X81.057 Y100.852 E2.32249 F900.000
G1 X80.893 Y101.174 E2.32918
G1 X80.584 Y101.566 E2.33841
G1 X80.299 Y101.809 E2.34533
G1 X79.853 Y102.059 E2.35478
G1 X79.361 Y102.198 E2.36424
G1 X79.000 Y102.226 E2.37093
G1 X78.639 Y102.198 E2.37762
G1 X78.147 Y102.059 E2.38708
G1 X77.701 Y101.809 E2.39653
G1 X77.416 Y101.566 E2.40345
G1 X77.107 Y101.174 E2.41268
G1 X76.943 Y100.852 E2.41937
G1 X76.831 Y100.508 E2.42605
G1 X76.771 Y100.000 E2.43551
G1 X76.831 Y99.492 E2.44497
G1 X76.943 Y99.148 E2.45166
G1 X77.107 Y98.826 E2.45835
G1 X77.416 Y98.434 E2.46757
G1 X77.701 Y98.191 E2.47449
G1 X78.136 Y97.947 E2.48372
G1 X78.491 Y97.832 E2.49061
G1 X78.964 Y97.774 E2.49942 F900.000
G1 X79.358 Y97.801 E2.50673
G1 X79.853 Y97.941 E2.51624
G1 X80.299 Y98.191 E2.52570
G1 X80.584 Y98.434 E2.53261
G1 X80.893 Y98.826 E2.54184
G1 X81.057 Y99.148 E2.54853
G1 X81.169 Y99.492 E2.55522
G1 X81.229 Y100.000 E2.56467
G1 X81.176 Y100.448 E2.57302
G1 X80.752 Y100.417 F7800.000
G1 X80.664 Y100.689 E2.57667 F900.000
G1 X80.533 Y100.944 E2.58032
G1 X80.276 Y101.271 E2.58562
G1 X80.055 Y101.459 E2.58932
G1 X79.689 Y101.664 E2.59466
G1 X79.286 Y101.778 E2.60000
G1 X79.000 Y101.801 E2.60365
G1 X78.714 Y101.778 E2.60730
G1 X78.311 Y101.664 E2.61265
G1 X77.945 Y101.459 E2.61799
G1 X77.724 Y101.271 E2.62169
G1 X77.467 Y100.944 E2.62699
G1 X77.336 Y100.689 E2.63064
G1 X77.248 Y100.417 E2.63429
G1 X77.199 Y100.000 E2.63963
G1 X77.248 Y99.583 E2.64498
G1 X77.336 Y99.311 E2.64863
G1 X77.467 Y99.056 E2.65228
G1 X77.724 Y98.729 E2.65757
G1 X77.945 Y98.541 E2.66127
G1 X78.307 Y98.338 E2.66656
