; generated by Slic3r 1.2.9 on 2019-09-30 at 14:48:57

; external perimeters extrusion width = 0.40mm
; perimeters extrusion width = 0.48mm
; infill extrusion width = 0.48mm
; solid infill extrusion width = 0.48mm
; top infill extrusion width = 0.48mm

M107
M190 S65 ; set bed temperature
M104 S200 ; set temperature
G28 ; home all axes
G1 Z5 F5000 ; lift nozzle

M109 S200 ; wait for temperature to be reached
G21 ; set units to millimeters
G90 ; use absolute coordinates
M82 ; use absolute distances for extrusion
G92 E0
G1 Z0.350 F7800.000
G1 E-2.00000 F2400.00000
G92 E0
G1 X76.933 Y81.233 F7800.000
G1 E2.00000 F2400.00000
G1 X78.691 Y79.761 E2.07380 F1800.000
G1 X80.846 Y78.976 E2.14760
G1 X82.000 Y78.875 E2.18487
G1 X126.000 Y78.875 E3.60074
G1 X128.259 Y79.272 E3.67454
G1 X130.247 Y80.415 E3.74834 F1800.000
G1 X131.726 Y82.168 E3.82214
G1 X132.519 Y84.320 E3.89594
G1 X132.625 Y85.500 E3.93406
G1 X132.625 Y114.500 E4.86725
G1 X132.228 Y116.759 E4.94105
G1 X131.085 Y118.747 E5.01485
G1 X129.332 Y120.226 E5.08865
G1 X127.180 Y121.019 E5.16245
G1 X126.000 Y121.125 E5.20057
G1 X82.000 Y121.125 E6.61645
G1 X79.741 Y120.728 E6.69025
G1 X77.753 Y119.585 E6.76405
G1 X76.933 Y118.767 E6.80131
G1 X68.933 Y109.267 E7.20097
G1 X67.781 Y107.284 E7.27477
G1 X67.375 Y105.000 E7.34941
G1 X67.375 Y95.000 E7.67120
G1 X67.772 Y92.741 E7.74500
G1 X68.933 Y90.733 E7.81965
G1 X76.894 Y81.279 E8.21737
G1 E6.21737 F2400.00000
G92 E0
G1 X79.838 Y101.810 F7800.000
G1 E2.00000 F2400.00000
G1 X79.501 Y102.098 E2.01426 F1800.000
G1 X78.988 Y102.385 E2.03317
G1 X78.423 Y102.545 E2.05207
G1 X78.000 Y102.578 E2.06571
G1 X77.577 Y102.545 E2.07935
G1 X77.012 Y102.385 E2.09825
G1 X76.499 Y102.098 E2.11716
G1 X76.162 Y101.810 E2.13142
G1 X75.811 Y101.364 E2.14970
G1 X75.618 Y100.987 E2.16334
G1 X75.487 Y100.583 E2.17698
G1 X75.418 Y100.000 E2.19588
G1 X75.487 Y99.417 E2.21479
G1 X75.619 Y99.012 E2.22846
G1 X75.814 Y98.631 E2.24225
G1 X76.163 Y98.189 E2.26036
G1 X76.499 Y97.902 E2.27461
G1 X76.995 Y97.624 E2.29289
G1 X77.416 Y97.488 E2.30713
G1 X77.975 Y97.421 E2.32524 F1800.000
G1 X78.422 Y97.455 E2.33966
G1 X78.988 Y97.615 E2.35859
G1 X79.501 Y97.902 E2.37750
G1 X79.838 Y98.190 E2.39176
G1 X80.189 Y98.636 E2.41004
G1 X80.382 Y99.014 E2.42371
G1 X80.514 Y99.422 E2.43750
G1 X80.582 Y100.000 E2.45624
G1 X80.513 Y100.583 E2.47513
G1 X80.382 Y100.987 E2.48877
G1 X80.189 Y101.364 E2.50240
G1 X79.875 Y101.763 E2.51875
G1 X79.385 Y101.375 F7800.000
G1 X79.142 Y101.583 E2.52905 F1800.000
G1 X78.747 Y101.804 E2.54360
G1 X78.312 Y101.927 E2.55814
G1 X78.000 Y101.951 E2.56822
G1 X77.688 Y101.927 E2.57829
G1 X77.253 Y101.804 E2.59284
G1 X76.858 Y101.583 E2.60739
G1 X76.615 Y101.375 E2.61768
G1 X76.340 Y101.026 E2.63200
G1 X76.197 Y100.747 E2.64208
G1 X76.101 Y100.449 E2.65215
G1 X76.048 Y100.000 E2.66670
G1 X76.101 Y99.551 E2.68124
G1 X76.198 Y99.253 E2.69133
G1 X76.342 Y98.970 E2.70155
G1 X76.615 Y98.625 E2.71572
G1 X76.858 Y98.417 E2.72601
G1 X77.247 Y98.200 E2.74034
G1 X77.551 Y98.101 E2.75063
G1 X77.988 Y98.049 E2.76480 F1800.000
G1 X78.312 Y98.073 E2.77524
G1 X78.747 Y98.196 E2.78980
G1 X79.142 Y98.417 E2.80434
G1 X79.385 Y98.625 E2.81464
G1 X79.660 Y98.974 E2.82896
G1 X79.803 Y99.254 E2.83905
G1 X79.900 Y99.556 E2.84927
G1 X79.952 Y100.000 E2.86366
G1 X79.899 Y100.449 E2.87820
G1 X79.803 Y100.747 E2.88828
G1 X79.660 Y101.026 E2.89835
G1 X79.422 Y101.328 E2.91074
G1 X79.464 Y101.685 F7800.000
G1 E0.91074 F2400.00000
G92 E0
G1 X77.153 Y96.916 F7800.000
G1 E2.00000 F2400.00000
G1 X76.744 Y97.049 E2.01384 F1800.000
G1 X76.140 Y97.387 E2.03609
G1 X75.600 Y97.848 E2.05897
G1 X75.600 Y96.600 E2.09915
G1 X77.103 Y96.600 E2.14751
G1 X77.143 Y96.857 E2.15588
G1 X75.600 Y102.152 F7800.000
G1 X76.140 Y102.613 E2.17876 F1800.000
G1 X76.771 Y102.967 E2.20202
G1 X77.162 Y103.077 E2.21508
G1 X77.117 Y103.400 E2.22559
G1 X75.600 Y103.400 E2.27441
G1 X75.600 Y102.212 E2.31266
G1 X83.600 Y103.400 F7800.000
G1 X78.883 Y103.400 E2.46444 F1800.000
G1 X78.838 Y103.077 E2.47495
G1 X79.229 Y102.967 E2.48801
G1 X79.860 Y102.613 E2.51128
G1 X80.290 Y102.245 E2.52950
G1 X80.718 Y101.703 E2.55174
G1 X80.961 Y101.226 E2.56894
G1 X81.126 Y100.718 E2.58614
G1 X81.211 Y100.001 E2.60938
G1 X81.127 Y99.289 E2.63246
G1 X80.961 Y98.775 E2.64983
G1 X80.718 Y98.297 E2.66707
G1 X80.290 Y97.755 E2.68931
G1 X79.860 Y97.387 E2.70754
G1 X79.229 Y97.033 E2.73081
G1 X78.838 Y96.923 E2.74386
G1 X78.883 Y96.600 E2.75437
G1 X83.600 Y96.600 E2.90615
G1 X83.600 Y87.100 E3.21185
G1 X124.400 Y87.100 E4.52477
G1 X124.400 Y112.900 E5.35500
G1 X83.600 Y112.900 E6.66792
G1 X83.600 Y103.460 E6.97169
G1 X82.975 Y104.025 F7800.000
G1 X74.975 Y104.025 E7.22912 F1800.000
G1 X74.975 Y95.975 E7.48817
G1 X82.975 Y95.975 E7.74560
G1 X82.975 Y86.475 E8.05130
G1 X125.025 Y86.475 E9.40443
G1 X125.025 Y113.525 E10.27488
G1 X82.975 Y113.525 E11.62801
G1 X82.975 Y104.085 E11.93178
G1 X82.350 Y104.650 F7800.000
G1 X74.350 Y104.650 E12.18921 F1800.000
G1 X74.350 Y95.350 E12.48848
G1 X82.350 Y95.350 E12.74591
G1 X82.350 Y85.850 E13.05161
G1 X125.650 Y85.850 E14.44496
G1 X125.650 Y114.150 E15.35562
G1 X82.350 Y114.150 E16.74897
G1 X82.350 Y104.710 E17.05274
G1 X82.350 Y104.250 F7800.000
G1 X83.978 Y104.157 F7800.000
G1 X92.343 Y112.522 E17.43847 F1800.000
G1 X91.447 Y112.522 E17.46767
G1 X83.978 Y105.053 E17.81211
G1 X83.978 Y105.948 E17.84131
G1 X90.552 Y112.522 E18.14445
G1 X89.656 Y112.522 E18.17365
G1 X83.978 Y106.844 E18.43549
G1 X83.978 Y107.739 E18.46469
G1 X88.761 Y112.522 E18.68524
G1 X87.865 Y112.522 E18.71444
G1 X83.978 Y108.635 E18.89369
G1 X83.978 Y109.530 E18.92289
G1 X86.970 Y112.522 E19.06085
G1 X86.074 Y112.522 E19.09005
G1 X83.978 Y110.426 E19.18671
G1 X83.978 Y111.321 E19.21591
G1 X85.179 Y112.522 E19.27127
G1 X84.283 Y112.522 E19.30047
G1 X83.978 Y112.217 E19.31454
G1 E17.31454 F2400.00000
G92 E0
G1 X81.052 Y103.022 F7800.000
G1 E2.00000 F2400.00000
G1 X80.512 Y102.482 E2.02488 F1800.000
G1 X80.910 Y101.984 E2.04566
G1 X81.947 Y103.022 E2.09350
G1 X82.843 Y103.022 E2.12270
G1 X81.238 Y101.416 E2.19673
G1 X81.475 Y100.758 E2.21955
G1 X93.238 Y112.522 E2.76203
G1 X94.134 Y112.522 E2.79123
G1 X81.581 Y99.969 E3.37010
G1 X81.469 Y98.961 E3.40316
G1 X95.029 Y112.522 E4.02850
G1 X95.925 Y112.522 E4.05770
G1 X80.382 Y96.978 E4.77448
G1 X81.277 Y96.978 E4.80368
G1 X96.821 Y112.522 E5.52045
G1 X97.716 Y112.522 E5.54965
G1 X82.173 Y96.978 E6.26642
G1 X83.068 Y96.978 E6.29562
G1 X98.612 Y112.522 E7.01239
G1 X99.507 Y112.522 E7.04159
G1 X83.964 Y96.978 E7.75836
G1 X83.978 Y96.097 E7.78709
G1 X100.403 Y112.522 E8.54448
G1 X101.298 Y112.522 E8.57368
G1 X83.978 Y95.202 E9.37237
G1 X83.978 Y94.306 E9.40157
G1 X102.194 Y112.522 E10.24155
G1 X103.089 Y112.522 E10.27075
G1 X83.978 Y93.411 E11.15203
G1 X83.978 Y92.515 E11.18123
G1 X103.985 Y112.522 E12.10381
G1 X104.880 Y112.522 E12.13301
G1 X83.978 Y91.620 E13.09688
G1 X83.978 Y90.724 E13.12608
G1 X105.776 Y112.522 E14.13124
G1 X106.671 Y112.522 E14.16045
G1 X83.978 Y89.829 E15.20691
G1 X83.978 Y88.933 E15.23611
G1 X107.567 Y112.522 E16.32387
G1 X108.462 Y112.522 E16.35307
G1 X83.978 Y88.038 E17.48212
G1 X84.314 Y87.478 E17.50340
G1 X109.358 Y112.522 E18.65826
G1 X110.253 Y112.522 E18.68746
G1 X85.210 Y87.478 E19.84232
G1 X86.105 Y87.478 E19.87152
G1 X111.149 Y112.522 E21.02638
G1 X112.044 Y112.522 E21.05558
G1 X87.001 Y87.478 E22.21044
G1 X87.896 Y87.478 E22.23964
G1 X112.940 Y112.522 E23.39449
G1 X113.835 Y112.522 E23.42369
G1 X88.792 Y87.478 E24.57855
G1 X89.687 Y87.478 E24.60775
G1 X114.731 Y112.522 E25.76261
G1 X115.626 Y112.522 E25.79181
G1 X90.583 Y87.478 E26.94667
G1 X91.478 Y87.478 E26.97587
G1 X116.522 Y112.522 E28.13073
G1 X117.417 Y112.522 E28.15993
G1 X92.374 Y87.478 E29.31479
G1 X93.269 Y87.478 E29.34399
G1 X118.313 Y112.522 E30.49884
G1 X119.208 Y112.522 E30.52804
G1 X94.165 Y87.478 E31.68290
G1 X95.060 Y87.478 E31.71210
G1 X120.104 Y112.522 E32.86696
G1 X120.999 Y112.522 E32.89616
G1 X95.956 Y87.478 E34.05102
G1 X96.851 Y87.478 E34.08022
G1 X121.895 Y112.522 E35.23508
G1 X122.790 Y112.522 E35.26428
G1 X97.747 Y87.478 E36.41914
G1 X98.642 Y87.478 E36.44834
G1 X123.686 Y112.522 E37.60319
G1 X124.022 Y111.962 E37.62448
G1 X99.538 Y87.478 E38.75353
G1 X100.433 Y87.478 E38.78273
G1 X124.022 Y111.067 E39.87049
G1 X124.022 Y110.171 E39.89969
G1 X101.329 Y87.478 E40.94616
G1 X102.224 Y87.478 E40.97536
G1 X124.022 Y109.276 E41.98053
G1 X124.022 Y108.380 E42.00973
G1 X103.120 Y87.478 E42.97360
G1 X104.015 Y87.478 E43.00280
G1 X124.022 Y107.485 E43.92538
G1 X124.022 Y106.589 E43.95458
G1 X104.911 Y87.478 E44.83586
G1 X105.806 Y87.478 E44.86506
G1 X124.022 Y105.694 E45.70504
G1 X124.022 Y104.798 E45.73424
G1 X106.702 Y87.478 E46.53293
G1 X107.597 Y87.478 E46.56213
G1 X124.022 Y103.903 E47.31953
G1 X124.022 Y103.007 E47.34873
G1 X108.493 Y87.478 E48.06483
G1 X109.388 Y87.478 E48.09403
G1 X124.022 Y102.112 E48.76883
G1 X124.022 Y101.216 E48.79803
G1 X110.284 Y87.478 E49.43154
G1 X111.179 Y87.478 E49.46074
G1 X124.022 Y100.321 E50.05295
G1 X124.022 Y99.425 E50.08215
G1 X112.075 Y87.478 E50.63306
G1 X112.970 Y87.478 E50.66226
G1 X124.022 Y98.530 E51.17188
G1 X124.022 Y97.634 E51.20108
G1 X113.866 Y87.478 E51.66941
G1 X114.761 Y87.478 E51.69861
G1 X124.022 Y96.739 E52.12564
G1 X124.022 Y95.843 E52.15484
G1 X115.657 Y87.478 E52.54057
G1 X116.552 Y87.478 E52.56977
G1 X124.022 Y94.948 E52.91421
G1 X124.022 Y94.052 E52.94341
G1 X117.448 Y87.478 E53.24655
G1 X118.343 Y87.478 E53.27575
G1 X124.022 Y93.157 E53.53759
G1 X124.022 Y92.261 E53.56679
G1 X119.239 Y87.478 E53.78734
G1 X120.135 Y87.478 E53.81654
G1 X124.022 Y91.365 E53.99580
G1 X124.022 Y90.470 E54.02500
G1 X121.030 Y87.478 E54.16295
G1 X121.926 Y87.478 E54.19215
G1 X124.022 Y89.574 E54.28882
G1 X124.022 Y88.679 E54.31802
G1 X122.821 Y87.478 E54.37338
G1 X123.717 Y87.478 E54.40258
G1 X124.022 Y87.783 E54.41665
G1 Z0.650 F7800.000
G1 X79.783 Y101.873 F7800.000
G1 X79.545 Y102.093 E54.42265 F900.000
G1 X79.163 Y102.326 E54.43092
G1 X78.626 Y102.524 E54.44150
G1 X78.184 Y102.594 E54.44977
G1 X77.613 Y102.572 E54.46035
G1 X77.197 Y102.472 E54.46825
G1 X76.802 Y102.308 E54.47616
G1 X76.309 Y101.979 E54.48711
G1 X75.908 Y101.545 E54.49806
G1 X75.683 Y101.178 E54.50601
G1 X75.516 Y100.769 E54.51417
G1 X75.409 Y100.222 E54.52447
G1 X75.409 Y99.776 E54.53272
G1 X75.521 Y99.212 E54.54335
G1 X75.700 Y98.787 E54.55188
G1 X76.022 Y98.309 E54.56254
G1 X76.455 Y97.908 E54.57346
G1 X76.837 Y97.674 E54.58173
G1 X77.374 Y97.476 E54.59232
G1 X77.816 Y97.406 E54.60059 F900.000
G1 X78.387 Y97.428 E54.61117
G1 X78.803 Y97.528 E54.61907
G1 X79.198 Y97.692 E54.62698
G1 X79.674 Y98.010 E54.63756
G1 X79.990 Y98.326 E54.64583
G1 X80.310 Y98.804 E54.65646
G1 X80.484 Y99.231 E54.66499
G1 X80.591 Y99.778 E54.67529
G1 X80.591 Y100.224 E54.68353
G1 X80.480 Y100.785 E54.69412
G1 X80.308 Y101.198 E54.70238
G1 X79.979 Y101.691 E54.71333
G1 X79.827 Y101.832 E54.71718
G1 X79.498 Y101.565 F7800.000
G1 X79.291 Y101.757 E54.72241 F900.000
G1 X78.980 Y101.948 E54.72915
G1 X78.520 Y102.117 E54.73821
G1 X78.160 Y102.174 E54.74495
G1 X77.670 Y102.155 E54.75401
G1 X77.327 Y102.072 E54.76054
G1 X77.000 Y101.937 E54.76708
G1 X76.583 Y101.659 E54.77635
G1 X76.243 Y101.291 E54.78561
G1 X76.058 Y100.988 E54.79218
G1 X75.919 Y100.648 E54.79895
G1 X75.828 Y100.182 E54.80775
G1 X75.828 Y99.818 E54.81448
G1 X75.924 Y99.336 E54.82357
G1 X76.070 Y98.987 E54.83056
G1 X76.342 Y98.583 E54.83956
G1 X76.709 Y98.243 E54.84881
G1 X77.020 Y98.052 E54.85556
G1 X77.480 Y97.883 E54.86462
G1 X77.840 Y97.826 E54.87136 F900.000
G1 X78.330 Y97.845 E54.88042
G1 X78.673 Y97.928 E54.88695
G1 X79.000 Y98.063 E54.89348
G1 X79.407 Y98.335 E54.90254
G1 X79.665 Y98.593 E54.90928
G1 X79.938 Y99.002 E54.91837
G1 X80.081 Y99.352 E54.92536
G1 X80.172 Y99.818 E54.93416
G1 X80.172 Y100.182 E54.94089
G1 X80.077 Y100.663 E54.94994
G1 X79.937 Y101.000 E54.95669
G1 X79.659 Y101.417 E54.96595
G1 X79.542 Y101.524 E54.96888
G1 X79.242 Y101.288 F7800.000
G1 X79.062 Y101.455 E54.97252 F900.000
G1 X78.814 Y101.606 E54.97683
G1 X78.424 Y101.750 E54.98298
G1 X78.137 Y101.796 E54.98729
G1 X77.722 Y101.779 E54.99344
G1 X77.444 Y101.712 E54.99768
G1 X77.179 Y101.603 E55.00193
G1 X76.830 Y101.370 E55.00814
G1 X76.545 Y101.062 E55.01436
G1 X76.395 Y100.817 E55.01861
G1 X76.282 Y100.540 E55.02304
G1 X76.205 Y100.145 E55.02901
G1 X76.205 Y99.855 E55.03330
G1 X76.286 Y99.447 E55.03947
G1 X76.404 Y99.167 E55.04396
G1 X76.630 Y98.830 E55.04998
G1 X76.938 Y98.545 E55.05619
G1 X77.186 Y98.394 E55.06049
G1 X77.576 Y98.250 E55.06665
G1 X77.863 Y98.204 E55.07095 F900.000
G1 X78.278 Y98.221 E55.07711
G1 X78.556 Y98.288 E55.08135
G1 X78.821 Y98.397 E55.08560
G1 X79.167 Y98.628 E55.09175
G1 X79.372 Y98.833 E55.09605
G1 X79.603 Y99.179 E55.10222
G1 X79.718 Y99.460 E55.10671
G1 X79.795 Y99.855 E55.11267
G1 X79.795 Y100.145 E55.11697
G1 X79.714 Y100.553 E55.12313
G1 X79.603 Y100.821 E55.12743
G1 X79.370 Y101.170 E55.13364
G1 X79.286 Y101.247 E55.13533
G1 X79.296 Y101.528 F7800.000
G1 X82.996 Y104.004 F7800.000
G1 X74.996 Y104.004 E55.28324 F1800.000
G1 X74.996 Y95.996 E55.43129
G1 X82.996 Y95.996 E55.57921
G1 X82.996 Y86.496 E55.75485
G1 X125.004 Y86.496 E56.53153
G1 X125.004 Y113.504 E57.03087
G1 X82.996 Y113.504 E57.80755
G1 X82.996 Y104.064 E57.98208
G1 X82.577 Y104.423 F7800.000
G1 X74.577 Y104.423 E58.12999 F1800.000
G1 X74.577 Y95.577 E58.29354
G1 X82.577 Y95.577 E58.44145
G1 X82.577 Y86.077 E58.61709
G1 X125.423 Y86.077 E59.40926
G1 X125.423 Y113.923 E59.92409
G1 X82.577 Y113.923 E60.71626
G1 X82.577 Y104.483 E60.89079
G1 X82.200 Y104.800 F7800.000
G1 X74.200 Y104.800 E61.00930 F900.000
G1 X74.200 Y95.200 E61.15152
G1 X82.200 Y95.200 E61.27003
G1 X82.200 Y85.700 E61.41076
G1 X125.800 Y85.700 E62.05664
G1 X125.800 Y114.300 E62.48032
G1 X82.200 Y114.300 E63.12621
G1 X82.200 Y104.860 E63.26605
G1 X82.200 Y104.400 F7800.000
G1 E61.26605 F2400.00000
G92 E0
G1 X75.219 Y99.592 F7800.000
G1 E2.00000 F2400.00000
G1 X75.265 Y99.127 E2.00862 F1200.000
G1 X75.366 Y98.625 E2.01811
G1 X75.443 Y98.368 E2.02305
G1 X77.068 Y97.286 F7800.000
G1 X78.111 Y96.243 E2.05035 F1200.000
G1 X78.704 Y96.243 E2.06132
G1 X77.787 Y97.161 E2.08532
G1 X78.355 Y97.185 E2.09585
G1 X79.297 Y96.243 E2.12050
G1 X79.890 Y96.243 E2.13147
G1 X78.832 Y97.302 E2.15917
G1 X79.251 Y97.475 E2.16757
G1 X80.483 Y96.243 E2.19981
G1 X81.076 Y96.243 E2.21079
G1 X79.609 Y97.710 E2.24918
G1 X79.937 Y97.975 E2.25698
G1 X81.669 Y96.243 E2.30230
G1 X82.262 Y96.243 E2.31327
G1 X80.219 Y98.286 E2.36672
G1 X80.457 Y98.641 E2.37463
G1 X82.855 Y96.243 E2.43738
G1 X83.243 Y95.855 F7800.000
G1 X92.355 Y86.743 E2.67582 F1200.000
G1 X92.948 Y86.743 E2.68680
G1 X80.646 Y99.045 E3.00873
G1 X80.775 Y99.509 E3.01765
G1 X93.540 Y86.743 E3.35173
G1 X94.133 Y86.743 E3.36270
G1 X80.838 Y100.038 E3.71063
G1 X80.767 Y100.702 E3.72299
G1 X94.726 Y86.743 E4.08829
G1 X95.319 Y86.743 E4.09926
G1 X80.318 Y101.744 E4.49184
G1 X79.714 Y102.348 F7800.000
G1 X78.306 Y103.757 E4.52870 F1200.000
G1 X78.899 Y103.757 E4.53967
G1 X95.912 Y86.743 E4.98492
G1 X96.505 Y86.743 E4.99589
G1 X79.492 Y103.757 E5.44114
G1 X80.084 Y103.757 E5.45211
G1 X97.098 Y86.743 E5.89735
G1 X97.691 Y86.743 E5.90833
G1 X80.677 Y103.757 E6.35357
G1 X81.270 Y103.757 E6.36454
G1 X98.284 Y86.743 E6.80979
G1 X98.877 Y86.743 E6.82076
G1 X81.863 Y103.757 E7.26601
G1 X82.456 Y103.757 E7.27698
G1 X99.469 Y86.743 E7.72222
G1 X100.062 Y86.743 E7.73320
G1 X83.049 Y103.757 E8.17844
G1 X83.243 Y104.155 F7800.000
G1 X100.655 Y86.743 E8.63412 F1200.000
G1 X101.248 Y86.743 E8.64509
G1 X83.243 Y104.748 E9.11629
G1 X83.243 Y105.341 E9.12726
G1 X101.841 Y86.743 E9.61397
G1 X102.434 Y86.743 E9.62494
G1 X83.243 Y105.934 E10.12717
G1 X83.243 Y106.527 E10.13814
G1 X103.027 Y86.743 E10.65588
G1 X103.620 Y86.743 E10.66685
G1 X83.243 Y107.120 E11.20011
G1 X83.243 Y107.713 E11.21109
G1 X104.213 Y86.743 E11.75986
G1 X104.806 Y86.743 E11.77084
G1 X83.243 Y108.306 E12.33513
G1 X83.243 Y108.899 E12.34610
G1 X105.399 Y86.743 E12.92591
G1 X105.991 Y86.743 E12.93688
G1 X83.243 Y109.491 E13.53221
G1 X83.243 Y110.084 E13.54318
G1 X106.584 Y86.743 E14.15402
