; generated by Slic3r 1.2.9 on 2019-09-30 at 18:58:06

; external perimeters extrusion width = 0.40mm
; perimeters extrusion width = 0.48mm
; infill extrusion width = 0.48mm
; solid infill extrusion width = 0.48mm
; top infill extrusion width = 0.48mm

M107
M190 S65 ; set bed temperature
M104 S200 ; set temperature
G28 ; home all axes
G1 Z5 F5000 ; lift nozzle

M109 S200 ; wait for temperature to be reached
G21 ; set units to millimeters
G90 ; use absolute coordinates
M82 ; use absolute distances for extrusion
G92 E0
G1 Z0.350 F7800.000
G1 E-2.00000 F2400.00000
G92 E0
G1 X57.842 Y57.842 F7800.000
G1 E2.00000 F2400.00000
G1 X61.082 Y54.834 E2.14228 F1800.000
G1 X61.478 Y54.496 E2.15902
G1 X64.746 Y51.919 E2.29293
G1 X65.167 Y51.614 E2.30967
G1 X68.627 Y49.302 E2.44359
G1 X69.071 Y49.030 E2.46032
G1 X72.702 Y46.996 E2.59424
G1 X73.165 Y46.760 E2.61097
G1 X76.905 Y45.036 E2.74351
G1 X77.425 Y44.819 E2.76163
G1 X81.329 Y43.379 E2.89554
G1 X81.824 Y43.218 E2.91228
G1 X85.829 Y42.088 E3.04620
G1 X86.335 Y41.967 E3.06293
G1 X90.417 Y41.155 E3.19685
G1 X90.930 Y41.074 E3.21359
G1 X95.063 Y40.584 E3.34750
G1 X95.582 Y40.544 E3.36424
G1 X99.740 Y40.380 E3.49815
G1 X100.260 Y40.380 E3.51489
G1 X104.419 Y40.544 E3.64881 F1800.000
G1 X104.937 Y40.584 E3.66554
G1 X109.070 Y41.074 E3.79946
G1 X109.584 Y41.155 E3.81620
G1 X113.665 Y41.967 E3.95011
G1 X114.171 Y42.088 E3.96685
G1 X118.176 Y43.218 E4.10077
G1 X118.671 Y43.379 E4.11751
G1 X122.575 Y44.819 E4.25142
G1 X123.056 Y45.018 E4.26816
G1 X126.835 Y46.760 E4.40208
G1 X127.299 Y46.997 E4.41881
G1 X130.892 Y49.009 E4.55135
G1 X131.373 Y49.302 E4.56946
G1 X134.833 Y51.614 E4.70339
G1 X135.254 Y51.919 E4.72012
G1 X138.522 Y54.496 E4.85404
G1 X138.918 Y54.834 E4.87076
G1 X141.974 Y57.659 E5.00469
G1 X142.342 Y58.026 E5.02142
G1 X145.166 Y61.082 E5.15534
G1 X145.504 Y61.478 E5.17207
G1 X148.081 Y64.746 E5.30599
G1 X148.386 Y65.167 E5.32273
G1 X150.698 Y68.627 E5.45664
G1 X150.970 Y69.070 E5.47336
G1 X153.003 Y72.701 E5.60729
G1 X153.240 Y73.165 E5.62403
G1 X154.982 Y76.944 E5.75795
G1 X155.181 Y77.425 E5.77469
G1 X156.621 Y81.329 E5.90860
G1 X156.794 Y81.865 E5.92672
G1 X157.912 Y85.829 E6.05925
G1 X158.033 Y86.335 E6.07598
G1 X158.845 Y90.416 E6.20990
G1 X158.926 Y90.930 E6.22665
G1 X159.416 Y95.063 E6.36056
G1 X159.456 Y95.582 E6.37730
G1 X159.620 Y99.740 E6.51121
G1 X159.620 Y100.260 E6.52795
G1 X159.456 Y104.418 E6.66187
G1 X159.416 Y104.936 E6.67859
G1 X158.926 Y109.070 E6.81252
G1 X158.845 Y109.584 E6.82926
G1 X158.033 Y113.665 E6.96317
G1 X157.912 Y114.171 E6.97991
G1 X156.782 Y118.176 E7.11382
G1 X156.622 Y118.670 E7.13054
G1 X155.181 Y122.575 E7.26448
G1 X154.982 Y123.056 E7.28122
G1 X153.240 Y126.835 E7.41513
G1 X153.003 Y127.299 E7.43187
G1 X150.970 Y130.929 E7.56578
G1 X150.698 Y131.373 E7.58252
G1 X148.386 Y134.833 E7.71643
G1 X148.081 Y135.254 E7.73318
G1 X145.504 Y138.522 E7.86709
G1 X145.166 Y138.918 E7.88382
G1 X142.342 Y141.974 E8.01774
G1 X141.974 Y142.342 E8.03449
G1 X138.918 Y145.166 E8.16840
G1 X138.522 Y145.504 E8.18513
G1 X135.254 Y148.081 E8.31905
G1 X134.833 Y148.386 E8.33579
G1 X131.373 Y150.698 E8.46970
G1 X130.929 Y150.970 E8.48644
G1 X127.299 Y153.003 E8.62035
G1 X126.835 Y153.240 E8.63709
G1 X123.056 Y154.982 E8.77101
G1 X122.575 Y155.181 E8.78775
G1 X118.670 Y156.622 E8.92168
G1 X118.176 Y156.782 E8.93840
G1 X114.171 Y157.912 E9.07231
G1 X113.665 Y158.033 E9.08905
G1 X109.584 Y158.845 E9.22297
G1 X109.070 Y158.926 E9.23971
G1 X104.936 Y159.416 E9.37364
G1 X104.418 Y159.456 E9.39036
G1 X100.260 Y159.620 E9.52428
G1 X97.987 Y159.312 E9.59808
G1 X96.474 Y158.608 E9.65179
G1 X48.761 Y128.608 E11.46541
G1 X47.060 Y127.070 E11.53921
G1 X46.271 Y125.774 E11.58804
G1 X45.018 Y123.056 E11.68435
G1 X44.819 Y122.575 E11.70109
G1 X43.379 Y118.671 E11.83500
G1 X43.218 Y118.176 E11.85174
G1 X42.088 Y114.171 E11.98565
G1 X41.967 Y113.665 E12.00239
G1 X41.155 Y109.584 E12.13630
G1 X41.074 Y109.070 E12.15305
G1 X40.584 Y104.937 E12.28696
G1 X40.544 Y104.419 E12.30369
G1 X40.380 Y100.260 E12.43761
G1 X40.380 Y99.740 E12.45435
G1 X40.544 Y95.582 E12.58827
G1 X40.584 Y95.063 E12.60500
G1 X41.074 Y90.930 E12.73892
G1 X41.155 Y90.417 E12.75565
G1 X41.967 Y86.335 E12.88957
G1 X42.088 Y85.829 E12.90630
G1 X43.218 Y81.824 E13.04022
G1 X43.379 Y81.329 E13.05696
G1 X44.819 Y77.425 E13.19088
G1 X45.018 Y76.944 E13.20761
G1 X46.760 Y73.165 E13.34153
G1 X46.996 Y72.702 E13.35827
G1 X49.030 Y69.071 E13.49218
G1 X49.302 Y68.627 E13.50892
G1 X51.614 Y65.167 E13.64283
G1 X51.919 Y64.746 E13.65958
G1 X54.496 Y61.478 E13.79349
G1 X54.834 Y61.082 E13.81022
G1 X57.800 Y57.885 E13.95058
G1 E11.95058 F2400.00000
G92 E0
G1 X103.020 Y103.064 F7800.000
G1 E2.00000 F2400.00000
G1 X102.530 Y103.483 E2.02072 F1800.000
G1 X101.954 Y103.836 E2.04246
G1 X101.359 Y104.082 E2.06318
G1 X100.974 Y104.191 E2.07607
G1 X100.338 Y104.291 E2.09679
G1 X99.694 Y104.291 E2.11751
G1 X99.296 Y104.244 E2.13041
G1 X98.670 Y104.094 E2.15113
G1 X98.075 Y103.848 E2.17185
G1 X97.725 Y103.652 E2.18474
G1 X97.230 Y103.292 E2.20445
G1 X96.936 Y103.021 E2.21731
G1 X96.528 Y102.544 E2.23750
G1 X96.166 Y101.958 E2.25967
G1 X95.924 Y101.377 E2.27993
G1 X95.810 Y100.977 E2.29329
G1 X95.709 Y100.338 E2.31413
G1 X95.709 Y99.694 E2.33485
G1 X95.756 Y99.296 E2.34775
G1 X95.906 Y98.671 E2.36844
G1 X96.145 Y98.092 E2.38860
G1 X96.346 Y97.728 E2.40196
G1 X96.708 Y97.230 E2.42179
G1 X96.980 Y96.936 E2.43468
G1 X97.470 Y96.517 E2.45540
G1 X98.046 Y96.164 E2.47714
G1 X98.641 Y95.918 E2.49786
G1 X99.029 Y95.808 E2.51085
G1 X99.680 Y95.708 E2.53203 F1800.000
G1 X100.307 Y95.709 E2.55223
G1 X100.704 Y95.756 E2.56509
G1 X101.330 Y95.906 E2.58581
G1 X101.925 Y96.152 E2.60653
G1 X102.275 Y96.348 E2.61942
G1 X102.770 Y96.708 E2.63913
G1 X103.064 Y96.979 E2.65199
G1 X103.472 Y97.456 E2.67218
G1 X103.834 Y98.043 E2.69438
G1 X104.082 Y98.641 E2.71520
G1 X104.191 Y99.026 E2.72809
G1 X104.291 Y99.662 E2.74881
G1 X104.291 Y100.306 E2.76953
G1 X104.244 Y100.704 E2.78243
G1 X104.094 Y101.330 E2.80315
G1 X103.848 Y101.925 E2.82387
G1 X103.652 Y102.275 E2.83676
G1 X103.292 Y102.770 E2.85647
G1 X103.061 Y103.020 E2.86743
G1 X102.586 Y102.613 F7800.000
G1 X102.162 Y102.975 E2.88538 F1800.000
G1 X101.670 Y103.277 E2.90396
G1 X101.154 Y103.491 E2.92191
G1 X100.840 Y103.579 E2.93243
G1 X100.289 Y103.667 E2.95038
G1 X99.731 Y103.667 E2.96833
G1 X99.406 Y103.628 E2.97886
G1 X98.863 Y103.498 E2.99681
G1 X98.348 Y103.284 E3.01476
G1 X98.063 Y103.125 E3.02528
G1 X97.627 Y102.808 E3.04262
G1 X97.387 Y102.586 E3.05312
G1 X97.034 Y102.174 E3.07058
G1 X96.724 Y101.672 E3.08958
G1 X96.515 Y101.170 E3.10709
G1 X96.421 Y100.842 E3.11806
G1 X96.333 Y100.289 E3.13609
G1 X96.333 Y99.731 E3.15404
G1 X96.372 Y99.406 E3.16456
G1 X96.502 Y98.864 E3.18249
G1 X96.709 Y98.363 E3.19994
G1 X96.874 Y98.065 E3.21091
G1 X97.192 Y97.627 E3.22832
G1 X97.414 Y97.387 E3.23884
G1 X97.838 Y97.025 E3.25680
G1 X98.330 Y96.723 E3.27537
G1 X98.846 Y96.509 E3.29332
G1 X99.162 Y96.420 E3.30390
G1 X99.727 Y96.333 E3.32230 F1800.000
G1 X100.270 Y96.334 E3.33977
G1 X100.594 Y96.372 E3.35027
G1 X101.137 Y96.502 E3.36822
G1 X101.652 Y96.716 E3.38617
G1 X101.937 Y96.875 E3.39669
G1 X102.373 Y97.192 E3.41403
G1 X102.613 Y97.414 E3.42453
G1 X102.966 Y97.826 E3.44199
G1 X103.276 Y98.329 E3.46102
G1 X103.491 Y98.846 E3.47902
G1 X103.579 Y99.160 E3.48955
G1 X103.667 Y99.711 E3.50750
G1 X103.667 Y100.269 E3.52545
G1 X103.628 Y100.594 E3.53597
G1 X103.498 Y101.137 E3.55393
G1 X103.284 Y101.652 E3.57188
G1 X103.125 Y101.937 E3.58240
G1 X102.808 Y102.373 E3.59973
G1 X102.627 Y102.569 E3.60833
G1 X102.152 Y102.162 F7800.000
G1 X101.793 Y102.468 E3.62351 F1800.000
G1 X101.385 Y102.719 E3.63892
G1 X100.949 Y102.899 E3.65410
G1 X100.705 Y102.968 E3.66225
G1 X100.239 Y103.042 E3.67744
G1 X99.768 Y103.042 E3.69262
G1 X99.516 Y103.012 E3.70077
G1 X99.057 Y102.902 E3.71595
G1 X98.621 Y102.721 E3.73114
G1 X98.400 Y102.597 E3.73929
G1 X98.024 Y102.324 E3.75425
G1 X97.838 Y102.152 E3.76239
G1 X97.541 Y101.805 E3.77712
G1 X97.282 Y101.386 E3.79296
G1 X97.106 Y100.963 E3.80771
G1 X97.032 Y100.706 E3.81630
G1 X96.958 Y100.239 E3.83151
G1 X96.958 Y99.768 E3.84669
G1 X96.988 Y99.516 E3.85484
G1 X97.098 Y99.057 E3.87002
G1 X97.273 Y98.634 E3.88474
G1 X97.402 Y98.401 E3.89333
G1 X97.676 Y98.024 E3.90832
G1 X97.848 Y97.838 E3.91647
G1 X98.207 Y97.532 E3.93166
G1 X98.615 Y97.281 E3.94706
G1 X99.051 Y97.101 E3.96225
G1 X99.295 Y97.032 E3.97042
G1 X99.775 Y96.958 E3.98604 F1800.000
G1 X100.233 Y96.958 E4.00077
G1 X100.484 Y96.988 E4.00891
G1 X100.943 Y97.098 E4.02410
G1 X101.379 Y97.279 E4.03928
G1 X101.600 Y97.403 E4.04743
G1 X101.976 Y97.676 E4.06239
G1 X102.162 Y97.848 E4.07054
G1 X102.459 Y98.195 E4.08527
G1 X102.718 Y98.614 E4.10111
G1 X102.899 Y99.051 E4.11632
G1 X102.968 Y99.295 E4.12447
G1 X103.042 Y99.761 E4.13965
G1 X103.042 Y100.232 E4.15483
G1 X103.012 Y100.484 E4.16299
G1 X102.902 Y100.943 E4.17817
G1 X102.721 Y101.379 E4.19335
G1 X102.597 Y101.600 E4.20150
G1 X102.324 Y101.976 E4.21647
G1 X102.193 Y102.118 E4.22269
G1 X102.240 Y102.552 F7800.000
G1 X101.600 Y121.400 F7800.000
G1 X53.311 Y121.400 E5.77656 F1800.000
G1 X52.514 Y119.670 E5.83788
G1 X51.117 Y115.883 E5.96775
G1 X50.021 Y111.999 E6.09762
G1 X49.234 Y108.041 E6.22749
G1 X48.759 Y104.033 E6.35736
G1 X48.601 Y100.000 E6.48722
G1 X48.759 Y95.968 E6.61707
G1 X49.242 Y91.918 E6.74832
G1 X50.021 Y88.001 E6.87683
G1 X51.117 Y84.117 E7.00670
G1 X52.514 Y80.330 E7.13656
G1 X54.203 Y76.665 E7.26643
G1 X56.175 Y73.144 E7.39630
G1 X58.417 Y69.788 E7.52617
G1 X60.916 Y66.619 E7.65604
G1 X63.655 Y63.655 E7.78591
G1 X66.619 Y60.916 E7.91578
G1 X69.788 Y58.417 E8.04565
G1 X73.144 Y56.175 E8.17551
G1 X76.629 Y54.224 E8.30402
G1 X80.331 Y52.513 E8.43527
G1 X84.117 Y51.117 E8.56512
G1 X88.001 Y50.021 E8.69499
G1 X91.959 Y49.234 E8.82485
G1 X95.967 Y48.759 E8.95472
G1 X100.000 Y48.601 E9.08459
G1 X103.991 Y48.758 E9.21310
G1 X108.041 Y49.234 E9.34435
G1 X111.999 Y50.021 E9.47419
G1 X115.883 Y51.117 E9.60406
G1 X119.670 Y52.514 E9.73393
G1 X123.335 Y54.203 E9.86380
G1 X126.856 Y56.175 E9.99367
G1 X130.176 Y58.394 E10.12218
G1 X133.381 Y60.916 E10.25342
G1 X136.345 Y63.655 E10.38327
G1 X139.084 Y66.619 E10.51314
G1 X141.582 Y69.788 E10.64299
G1 X143.845 Y73.181 E10.77423
G1 X145.797 Y76.665 E10.90274
G1 X147.486 Y80.330 E11.03259
G1 X148.895 Y84.157 E11.16383
G1 X149.979 Y88.001 E11.29234
G1 X150.766 Y91.959 E11.42221
G1 X151.241 Y95.967 E11.55208
G1 X151.399 Y100.000 E11.68195
G1 X151.241 Y104.033 E11.81182
G1 X150.766 Y108.041 E11.94169
G1 X149.979 Y111.999 E12.07156
G1 X148.883 Y115.883 E12.20143
G1 X147.486 Y119.670 E12.33129
G1 X145.797 Y123.335 E12.46116
G1 X143.825 Y126.856 E12.59103
G1 X141.583 Y130.212 E12.72090
G1 X139.084 Y133.381 E12.85077
G1 X136.345 Y136.345 E12.98064
G1 X133.381 Y139.084 E13.11051
G1 X130.212 Y141.583 E13.24038
G1 X126.856 Y143.825 E13.37025
G1 X123.335 Y145.797 E13.50011
G1 X119.670 Y147.486 E13.62998
G1 X115.883 Y148.883 E13.75985
G1 X111.999 Y149.979 E13.88972
G1 X108.041 Y150.766 E14.01959
G1 X104.033 Y151.241 E14.14946
G1 X101.600 Y151.336 E14.22781
G1 X101.600 Y121.460 E15.18918
G1 X100.975 Y122.025 F7800.000
G1 X52.911 Y122.025 E16.73582 F1800.000
G1 X51.936 Y119.909 E16.81081
G1 X50.522 Y116.076 E16.94225
G1 X49.413 Y112.145 E17.07370
G1 X48.616 Y108.138 E17.20515
G1 X48.136 Y104.082 E17.33660
G1 X47.976 Y100.000 E17.46805
G1 X48.136 Y95.919 E17.59949
G1 X48.624 Y91.820 E17.73231
G1 X49.413 Y87.855 E17.86239
G1 X50.522 Y83.924 E17.99384
G1 X51.936 Y80.091 E18.12529
G1 X53.646 Y76.381 E18.25674
G1 X55.642 Y72.817 E18.38819
G1 X57.911 Y69.421 E18.51964
G1 X60.440 Y66.213 E18.65108
G1 X63.213 Y63.213 E18.78253
G1 X66.213 Y60.440 E18.91398
G1 X69.421 Y57.911 E19.04543
G1 X72.817 Y55.642 E19.17688
G1 X76.344 Y53.667 E19.30696
G1 X80.092 Y51.936 E19.43979
G1 X83.924 Y50.522 E19.57122
G1 X87.855 Y49.413 E19.70267
G1 X91.862 Y48.616 E19.83412
G1 X95.918 Y48.136 E19.96557
G1 X100.000 Y47.976 E20.09702
G1 X104.039 Y48.134 E20.22710
G1 X108.139 Y48.616 E20.35993
G1 X112.145 Y49.413 E20.49136
G1 X116.076 Y50.522 E20.62281
G1 X119.909 Y51.936 E20.75426
G1 X123.619 Y53.646 E20.88571
G1 X127.183 Y55.642 E21.01716
G1 X130.544 Y57.888 E21.14724
G1 X133.787 Y60.441 E21.28006
G1 X136.787 Y63.213 E21.41150
G1 X139.560 Y66.213 E21.54295
G1 X142.088 Y69.421 E21.67439
G1 X144.379 Y72.854 E21.80721
G1 X146.354 Y76.381 E21.93729
G1 X148.064 Y80.091 E22.06873
G1 X149.490 Y83.964 E22.20155
G1 X150.587 Y87.855 E22.33163
G1 X151.384 Y91.862 E22.46308
G1 X151.864 Y95.918 E22.59453
G1 X152.024 Y100.000 E22.72598
G1 X151.864 Y104.082 E22.85743
G1 X151.384 Y108.138 E22.98888
G1 X150.587 Y112.145 E23.12033
G1 X149.478 Y116.076 E23.25178
G1 X148.064 Y119.909 E23.38322
G1 X146.354 Y123.619 E23.51467
G1 X144.358 Y127.183 E23.64612
G1 X142.089 Y130.579 E23.77757
G1 X139.560 Y133.787 E23.90902
G1 X136.787 Y136.787 E24.04047
G1 X133.787 Y139.560 E24.17192
G1 X130.579 Y142.089 E24.30337
G1 X127.183 Y144.358 E24.43482
G1 X123.619 Y146.354 E24.56626
G1 X119.909 Y148.064 E24.69771
G1 X116.076 Y149.478 E24.82916
G1 X112.145 Y150.587 E24.96061
G1 X108.138 Y151.384 E25.09206
G1 X104.082 Y151.864 E25.22351
G1 X100.975 Y151.986 E25.32356
G1 X100.975 Y122.085 E26.28574
G1 X100.350 Y122.650 F7800.000
G1 X52.511 Y122.650 E27.82514 F1800.000
G1 X51.358 Y120.148 E27.91379
G1 X49.927 Y116.270 E28.04682
G1 X48.805 Y112.291 E28.17985
G1 X47.998 Y108.236 E28.31288
G1 X47.513 Y104.131 E28.44591
G1 X47.350 Y100.000 E28.57894
G1 X47.513 Y95.869 E28.71196
G1 X48.007 Y91.722 E28.84637
G1 X48.805 Y87.709 E28.97802
G1 X49.927 Y83.730 E29.11105
G1 X51.358 Y79.852 E29.24408
G1 X53.089 Y76.098 E29.37711
G1 X55.109 Y72.491 E29.51014
G1 X57.405 Y69.053 E29.64316
G1 X59.965 Y65.807 E29.77619
G1 X62.771 Y62.771 E29.90922
G1 X65.807 Y59.965 E30.04225
G1 X69.053 Y57.405 E30.17528
G1 X72.491 Y55.109 E30.30831
G1 X76.060 Y53.110 E30.43996
G1 X79.852 Y51.358 E30.57437
G1 X83.730 Y49.927 E30.70739
G1 X87.709 Y48.805 E30.84042
G1 X91.764 Y47.998 E30.97345
G1 X95.869 Y47.513 E31.10648
G1 X100.000 Y47.350 E31.23951
G1 X104.088 Y47.511 E31.37116
G1 X108.236 Y47.998 E31.50557
G1 X112.291 Y48.805 E31.63859
G1 X116.270 Y49.927 E31.77162
G1 X120.148 Y51.358 E31.90465
G1 X123.902 Y53.089 E32.03768
G1 X127.509 Y55.109 E32.17071
G1 X130.911 Y57.382 E32.30236
G1 X134.193 Y59.965 E32.43677
G1 X137.229 Y62.771 E32.56979
G1 X140.035 Y65.807 E32.70282
G1 X142.594 Y69.053 E32.83585
G1 X144.912 Y72.528 E32.97025
G1 X146.911 Y76.098 E33.10190
G1 X148.642 Y79.852 E33.23493
G1 X150.084 Y83.771 E33.36933
G1 X151.195 Y87.709 E33.50099
G1 X152.002 Y91.764 E33.63402
G1 X152.487 Y95.869 E33.76704
G1 X152.650 Y100.000 E33.90007
G1 X152.487 Y104.131 E34.03310
G1 X152.002 Y108.236 E34.16613
G1 X151.195 Y112.291 E34.29916
G1 X150.073 Y116.270 E34.43219
G1 X148.642 Y120.148 E34.56522
G1 X146.911 Y123.902 E34.69825
G1 X144.891 Y127.509 E34.83128
G1 X142.595 Y130.947 E34.96430
G1 X140.035 Y134.193 E35.09733
G1 X137.229 Y137.229 E35.23036
G1 X134.193 Y140.035 E35.36339
G1 X130.947 Y142.595 E35.49642
G1 X127.509 Y144.891 E35.62945
G1 X123.902 Y146.911 E35.76248
G1 X120.148 Y148.642 E35.89551
G1 X116.270 Y150.073 E36.02854
G1 X112.291 Y151.195 E36.16157
G1 X108.236 Y152.002 E36.29460
G1 X104.131 Y152.487 E36.42762
G1 X100.350 Y152.636 E36.54938
G1 X100.350 Y122.710 E37.51237
G1 X100.350 Y122.250 F7800.000
G1 X100.780 Y121.022 F7800.000
G1 X55.243 Y75.485 E39.59077 F1800.000
G1 X54.925 Y76.053 E39.61179
G1 X99.894 Y121.022 E41.66426
G1 X99.007 Y121.022 E41.69286
G1 X54.607 Y76.621 E43.71940
G1 X54.317 Y77.218 E43.74081
G1 X98.121 Y121.022 E45.74011
G1 X97.234 Y121.022 E45.76871
G1 X54.038 Y77.825 E47.74032
G1 X53.758 Y78.432 E47.76188
G1 X96.348 Y121.022 E49.70579
G1 X95.462 Y121.022 E49.73439
G1 X53.478 Y79.038 E51.65062
G1 X53.199 Y79.645 E51.67218
G1 X94.575 Y121.022 E53.56071
G1 X93.689 Y121.022 E53.58932
G1 X52.919 Y80.252 E55.45017
G1 X52.671 Y80.889 E55.47226
G1 X92.803 Y121.022 E57.30399
G1 X91.916 Y121.022 E57.33260
G1 X52.432 Y81.537 E59.13477
G1 X52.193 Y82.184 E59.15705
G1 X91.030 Y121.022 E60.92967
