; generated by Slic3r 1.2.9 on 2019-09-30 at 15:50:33

; external perimeters extrusion width = 0.40mm
; perimeters extrusion width = 0.48mm
; infill extrusion width = 0.48mm
; solid infill extrusion width = 0.48mm
; top infill extrusion width = 0.48mm

M107
M190 S65 ; set bed temperature
M104 S200 ; set temperature
G28 ; home all axes
G1 Z5 F5000 ; lift nozzle

M109 S200 ; wait for temperature to be reached
G21 ; set units to millimeters
G90 ; use absolute coordinates
M82 ; use absolute distances for extrusion
G92 E0
G1 Z0.350 F7800.000
G1 E-2.00000 F2400.00000
G92 E0
G1 X81.540 Y85.872 F7800.000
G1 E2.00000 F2400.00000
G1 X82.295 Y85.174 E2.03310 F1800.000
G1 X82.691 Y84.836 E2.04985
G1 X83.499 Y84.199 E2.08295
G1 X83.919 Y83.894 E2.09968
G1 X84.775 Y83.322 E2.13278
G1 X85.218 Y83.050 E2.14951
G1 X86.115 Y82.548 E2.18261
G1 X86.579 Y82.311 E2.19936
G1 X87.513 Y81.881 E2.23246
G1 X87.994 Y81.682 E2.24920
G1 X88.959 Y81.326 E2.28231
G1 X89.454 Y81.165 E2.29903
G1 X90.444 Y80.886 E2.33214
G1 X90.949 Y80.764 E2.34886
G1 X91.958 Y80.564 E2.38197
G1 X92.472 Y80.482 E2.39871
G1 X93.494 Y80.361 E2.43181
G1 X94.012 Y80.321 E2.44855
G1 X95.300 Y80.275 E2.49002
G1 X115.300 Y80.275 E3.13360
G1 X117.559 Y80.672 E3.20740
G1 X119.547 Y81.815 E3.28120 F1800.000
G1 X121.026 Y83.568 E3.35500
G1 X121.630 Y84.946 E3.40342
G1 X124.130 Y93.046 E3.67620
G1 X124.425 Y95.000 E3.73978
G1 X124.425 Y105.000 E4.06157
G1 X124.130 Y106.954 E4.12515
G1 X121.630 Y115.054 E4.39794
G1 X120.585 Y117.095 E4.47174
G1 X118.906 Y118.658 E4.54554
G1 X116.795 Y119.554 E4.61934
G1 X115.300 Y119.725 E4.66776
G1 X95.300 Y119.725 E5.31134
G1 X94.012 Y119.679 E5.35281
G1 X93.494 Y119.639 E5.36954
G1 X92.472 Y119.518 E5.40264
G1 X91.958 Y119.436 E5.41939
G1 X90.949 Y119.236 E5.45249
G1 X90.444 Y119.114 E5.46922
G1 X89.454 Y118.835 E5.50232
G1 X88.959 Y118.674 E5.51905
G1 X87.994 Y118.318 E5.55215
G1 X87.513 Y118.119 E5.56889
G1 X86.579 Y117.689 E5.60199
G1 X86.115 Y117.452 E5.61874
G1 X85.218 Y116.950 E5.65184
G1 X84.775 Y116.678 E5.66857
G1 X83.919 Y116.106 E5.70168
G1 X83.499 Y115.801 E5.71841
G1 X82.691 Y115.164 E5.75151
G1 X82.295 Y114.826 E5.76826
G1 X81.540 Y114.128 E5.80136
G1 X81.172 Y113.760 E5.81809
G1 X80.474 Y113.005 E5.85119
G1 X80.136 Y112.609 E5.86793
G1 X79.499 Y111.801 E5.90103
G1 X79.194 Y111.381 E5.91776
G1 X78.622 Y110.525 E5.95086
G1 X78.350 Y110.082 E5.96761
G1 X77.848 Y109.184 E6.00071
G1 X77.611 Y108.721 E6.01745
G1 X77.181 Y107.786 E6.05055
G1 X76.982 Y107.306 E6.06729
G1 X76.626 Y106.341 E6.10039
G1 X76.465 Y105.846 E6.11712
G1 X76.196 Y104.891 E6.14906
G1 X76.064 Y104.351 E6.16695
G1 X75.864 Y103.342 E6.20005
G1 X75.782 Y102.828 E6.21680
G1 X75.661 Y101.806 E6.24990
G1 X75.621 Y101.288 E6.26663
G1 X75.580 Y100.260 E6.29974
G1 X75.580 Y99.740 E6.31648
G1 X75.621 Y98.712 E6.34958
G1 X75.661 Y98.193 E6.36631
G1 X75.782 Y97.172 E6.39941
G1 X75.864 Y96.658 E6.41616
G1 X76.064 Y95.649 E6.44926
G1 X76.186 Y95.144 E6.46599
G1 X76.455 Y94.188 E6.49793
G1 X76.626 Y93.659 E6.51582
G1 X76.982 Y92.694 E6.54892
G1 X77.181 Y92.213 E6.56566
G1 X77.611 Y91.279 E6.59876
G1 X77.848 Y90.816 E6.61550
G1 X78.350 Y89.918 E6.64860
G1 X78.622 Y89.475 E6.66535
G1 X79.194 Y88.619 E6.69845
G1 X79.499 Y88.199 E6.71518
G1 X80.136 Y87.391 E6.74829
G1 X80.474 Y86.995 E6.76502
G1 X81.497 Y85.915 E6.81292
G1 E4.81292 F2400.00000
G92 E0
G1 X103.432 Y108.132 F7800.000
G1 E2.00000 F2400.00000
G1 X102.769 Y108.745 E2.02906 F1800.000
G1 X102.084 Y109.285 E2.05711
G1 X101.309 Y109.805 E2.08715
G1 X100.521 Y110.247 E2.11623
G1 X99.701 Y110.625 E2.14528
G1 X98.854 Y110.937 E2.17434
G1 X97.985 Y111.182 E2.20340
G1 X97.099 Y111.359 E2.23246
G1 X96.202 Y111.465 E2.26151
G1 X95.300 Y111.500 E2.29057
G1 X94.398 Y111.465 E2.31963
G1 X93.501 Y111.359 E2.34869
G1 X92.615 Y111.182 E2.37774
G1 X91.746 Y110.937 E2.40680
G1 X90.899 Y110.625 E2.43586
G1 X90.079 Y110.247 E2.46492
G1 X89.291 Y109.806 E2.49398
G1 X88.540 Y109.304 E2.52303
G1 X87.831 Y108.745 E2.55209
G1 X87.168 Y108.132 E2.58115
G1 X86.555 Y107.469 E2.61020
G1 X85.996 Y106.760 E2.63926
G1 X85.494 Y106.009 E2.66832
G1 X85.053 Y105.221 E2.69738
G1 X84.675 Y104.401 E2.72643
G1 X84.363 Y103.554 E2.75549
G1 X84.118 Y102.685 E2.78455
G1 X83.941 Y101.799 E2.81361
G1 X83.835 Y100.902 E2.84266
G1 X83.800 Y100.000 E2.87172
G1 X83.835 Y99.098 E2.90078
G1 X83.941 Y98.201 E2.92984
G1 X84.118 Y97.315 E2.95889
G1 X84.363 Y96.446 E2.98795
G1 X84.675 Y95.599 E3.01701
G1 X85.053 Y94.779 E3.04608
G1 X85.512 Y93.965 E3.07612
G1 X85.996 Y93.240 E3.10418
G1 X86.555 Y92.531 E3.13324
G1 X87.168 Y91.868 E3.16229
G1 X87.831 Y91.255 E3.19135
G1 X88.540 Y90.696 E3.22041
G1 X89.291 Y90.194 E3.24946
G1 X90.079 Y89.753 E3.27852
G1 X90.899 Y89.375 E3.30758
G1 X91.746 Y89.063 E3.33664
G1 X92.615 Y88.818 E3.36570
G1 X93.501 Y88.641 E3.39475
G1 X94.398 Y88.535 E3.42381
G1 X95.322 Y88.499 E3.45356 F1800.000
G1 X96.203 Y88.535 E3.48194
G1 X97.099 Y88.641 E3.51098
G1 X97.985 Y88.818 E3.54004
G1 X98.854 Y89.063 E3.56910
G1 X99.701 Y89.375 E3.59816
G1 X100.521 Y89.753 E3.62721
G1 X101.309 Y90.194 E3.65627
G1 X102.060 Y90.696 E3.68533
G1 X102.769 Y91.255 E3.71439
G1 X103.432 Y91.868 E3.74344
G1 X104.045 Y92.531 E3.77250
G1 X104.604 Y93.240 E3.80156
G1 X105.106 Y93.991 E3.83062
G1 X105.547 Y94.779 E3.85969
G1 X105.936 Y95.628 E3.88973
G1 X106.237 Y96.446 E3.91779
G1 X106.483 Y97.315 E3.94684
G1 X106.659 Y98.201 E3.97590
G1 X106.765 Y99.098 E4.00496
G1 X106.800 Y100.000 E4.03402
G1 X106.765 Y100.902 E4.06307
G1 X106.659 Y101.799 E4.09213
G1 X106.483 Y102.685 E4.12119
G1 X106.237 Y103.554 E4.15026
G1 X105.912 Y104.429 E4.18030
G1 X105.547 Y105.221 E4.20836
G1 X105.106 Y106.009 E4.23742
G1 X104.604 Y106.760 E4.26647
G1 X104.045 Y107.469 E4.29553
G1 X103.473 Y108.088 E4.32266
G1 X103.530 Y108.520 F7800.000
G1 X113.700 Y103.400 F7800.000
G1 X113.700 Y111.500 E4.58331 F1800.000
G1 X101.414 Y111.500 E4.97866
G1 X101.341 Y111.220 E4.98798
G1 X101.964 Y110.871 E5.01096
G1 X102.821 Y110.295 E5.04416
G1 X103.581 Y109.696 E5.07533
G1 X104.316 Y109.016 E5.10754
G1 X104.996 Y108.281 E5.13976
G1 X105.616 Y107.495 E5.17198
G1 X106.172 Y106.662 E5.20420
G1 X106.661 Y105.789 E5.23642
G1 X107.067 Y104.909 E5.26758
G1 X107.426 Y103.942 E5.30078
G1 X107.699 Y102.977 E5.33307
G1 X107.894 Y101.995 E5.36528
G1 X108.012 Y101.000 E5.39750
G1 X108.051 Y100.000 E5.42972
G1 X108.012 Y99.000 E5.46194
G1 X107.894 Y98.005 E5.49415
G1 X107.699 Y97.023 E5.52637
G1 X107.427 Y96.060 E5.55859
G1 X107.092 Y95.151 E5.58975
G1 X106.662 Y94.213 E5.62295
G1 X106.172 Y93.338 E5.65524
G1 X105.616 Y92.505 E5.68746
G1 X104.996 Y91.719 E5.71968
G1 X104.316 Y90.984 E5.75189
G1 X103.581 Y90.304 E5.78411
G1 X102.795 Y89.684 E5.81633
G1 X101.962 Y89.128 E5.84855
G1 X101.341 Y88.780 E5.87146
G1 X101.414 Y88.500 E5.88078
G1 X113.700 Y88.500 E6.27613
G1 X113.700 Y96.600 E6.53678
G1 X116.200 Y96.600 E6.61723
G1 X116.200 Y103.400 E6.83606
G1 X113.760 Y103.400 E6.91458
G1 X114.325 Y104.025 F7800.000
G1 X114.325 Y112.125 E7.17523 F1800.000
G1 X98.136 Y112.125 E7.69616
G1 X98.092 Y111.802 E7.70667
G1 X99.047 Y111.532 E7.73861
G1 X99.940 Y111.203 E7.76925
G1 X100.805 Y110.804 E7.79989
G1 X101.637 Y110.338 E7.83057
G1 X102.452 Y109.790 E7.86219
G1 X103.175 Y109.220 E7.89180
G1 X103.874 Y108.574 E7.92244
G1 X104.520 Y107.875 E7.95307
G1 X105.110 Y107.127 E7.98371
G1 X105.639 Y106.336 E8.01435
G1 X106.104 Y105.505 E8.04499
G1 X106.489 Y104.669 E8.07460
G1 X106.832 Y103.748 E8.10622
G1 X107.091 Y102.831 E8.13690
G1 X107.276 Y101.897 E8.16753
G1 X107.388 Y100.951 E8.19817
G1 X107.426 Y100.000 E8.22881
G1 X107.388 Y99.049 E8.25945
G1 X107.276 Y98.103 E8.29008
G1 X107.091 Y97.169 E8.32072
G1 X106.832 Y96.253 E8.35136
G1 X106.514 Y95.390 E8.38097
G1 X106.105 Y94.496 E8.41259
G1 X105.639 Y93.664 E8.44327
G1 X105.110 Y92.873 E8.47391
G1 X104.520 Y92.125 E8.50454
G1 X103.874 Y91.426 E8.53518
G1 X103.175 Y90.780 E8.56582
G1 X102.427 Y90.190 E8.59646
G1 X101.636 Y89.661 E8.62709
G1 X100.805 Y89.196 E8.65773
G1 X99.940 Y88.797 E8.68837
G1 X99.047 Y88.468 E8.71901
G1 X98.092 Y88.198 E8.75095
G1 X98.136 Y87.875 E8.76146
G1 X114.325 Y87.875 E9.28239
G1 X114.325 Y95.975 E9.54304
G1 X116.825 Y95.975 E9.62349
G1 X116.825 Y104.025 E9.88254
G1 X114.385 Y104.025 E9.96105
G1 X114.950 Y104.650 F7800.000
G1 X114.950 Y112.750 E10.22170 F1800.000
G1 X95.307 Y112.750 E10.85380
G1 X94.300 Y112.710 E10.88623
G1 X93.305 Y112.593 E10.91845
G1 X92.324 Y112.397 E10.95066
G1 X91.360 Y112.126 E10.98288
G1 X90.421 Y111.779 E11.01509
G1 X89.512 Y111.360 E11.04731
G1 X88.638 Y110.871 E11.07952
G1 X87.806 Y110.315 E11.11174
G1 X87.020 Y109.695 E11.14395
G1 X86.285 Y109.015 E11.17616
G1 X85.605 Y108.280 E11.20838
G1 X84.985 Y107.494 E11.24059
G1 X84.429 Y106.662 E11.27281
G1 X83.940 Y105.788 E11.30502
G1 X83.521 Y104.879 E11.33724
G1 X83.187 Y103.973 E11.36831
G1 X82.902 Y102.976 E11.40168
G1 X82.707 Y101.994 E11.43388
G1 X82.590 Y101.000 E11.46609
G1 X82.552 Y100.036 E11.49716
G1 X82.590 Y98.999 E11.53053
G1 X82.707 Y98.006 E11.56273
G1 X82.903 Y97.024 E11.59495
G1 X83.165 Y96.094 E11.62602
G1 X83.521 Y95.120 E11.65939
G1 X83.940 Y94.212 E11.69159
G1 X84.429 Y93.338 E11.72380
G1 X84.985 Y92.506 E11.75602
G1 X85.583 Y91.748 E11.78709
G1 X86.285 Y90.984 E11.82046
G1 X87.020 Y90.305 E11.85265
G1 X87.806 Y89.685 E11.88487
G1 X88.638 Y89.129 E11.91709
G1 X89.512 Y88.640 E11.94930
G1 X90.421 Y88.221 E11.98151
G1 X91.360 Y87.874 E12.01373
G1 X92.324 Y87.603 E12.04594
G1 X93.305 Y87.407 E12.07816
G1 X94.300 Y87.290 E12.11037
G1 X95.307 Y87.250 E12.14281
G1 X114.950 Y87.250 E12.77490
G1 X114.950 Y95.350 E13.03555
G1 X117.450 Y95.350 E13.11600
G1 X117.450 Y104.650 E13.41527
G1 X115.010 Y104.650 E13.49378
G1 X114.550 Y104.650 F7800.000
G1 X113.322 Y103.555 F7800.000
G1 X108.362 Y98.595 E13.72321 F1800.000
G1 X108.417 Y99.549 E13.75446
G1 X113.322 Y104.454 E13.98131
G1 X113.322 Y105.352 E14.01069
G1 X108.408 Y100.438 E14.23799
G1 X108.346 Y101.274 E14.26543
G1 X113.322 Y106.250 E14.49559
G1 X113.322 Y107.148 E14.52497
G1 X108.242 Y102.068 E14.75995
G1 X108.093 Y102.818 E14.78494
G1 X113.322 Y108.047 E15.02681
G1 X113.322 Y108.945 E15.05619
G1 X107.904 Y103.528 E15.30677
G1 X107.690 Y104.211 E15.33020
G1 X113.322 Y109.843 E15.59071
G1 X113.322 Y110.741 E15.62009
G1 X107.446 Y104.866 E15.89185
G1 X107.169 Y105.487 E15.91410
G1 X112.804 Y111.122 E16.17472
G1 X111.905 Y111.122 E16.20410
G1 X106.872 Y106.089 E16.43691
G1 X106.550 Y106.664 E16.45849
G1 X111.007 Y111.122 E16.66467
G1 X110.109 Y111.122 E16.69405
G1 X106.199 Y107.211 E16.87492
G1 X105.833 Y107.744 E16.89605
G1 X109.211 Y111.122 E17.05228
G1 X108.312 Y111.122 E17.08166
G1 X105.437 Y108.246 E17.21466
G1 X105.022 Y108.730 E17.23549
G1 X107.414 Y111.122 E17.34614
G1 X106.516 Y111.122 E17.37552
G1 X104.591 Y109.196 E17.46457
G1 X104.128 Y109.632 E17.48535
G1 X105.618 Y111.122 E17.55427
G1 X104.720 Y111.122 E17.58365
G1 X103.652 Y110.054 E17.63304
G1 X103.150 Y110.450 E17.65396
G1 X103.821 Y111.122 E17.68503
G1 X102.923 Y111.122 E17.71441
G1 X102.623 Y110.822 E17.72826
G1 X113.686 Y103.022 F7800.000
G1 X108.219 Y97.555 E17.98113 F1800.000
G1 X107.957 Y96.394 E18.02004
G1 X114.584 Y103.022 E18.32659
G1 X115.483 Y103.022 E18.35596
G1 X107.518 Y95.057 E18.72436
G1 X106.703 Y93.344 F7800.000
G1 X115.822 Y102.462 E19.14616 F1800.000
G1 X115.822 Y101.564 E19.17554
G1 X103.136 Y88.878 E19.76233
G1 X104.034 Y88.878 E19.79170
G1 X115.822 Y100.666 E20.33695
G1 X115.822 Y99.768 E20.36633
G1 X104.932 Y88.878 E20.87002
G1 X105.831 Y88.878 E20.89940
G1 X113.322 Y96.369 E21.24590
G1 X113.322 Y95.471 E21.27528
G1 X106.729 Y88.878 E21.58024
G1 X107.627 Y88.878 E21.60962
G1 X113.322 Y94.573 E21.87302
G1 X113.322 Y93.675 E21.90240
G1 X108.525 Y88.878 E22.12426
G1 X109.424 Y88.878 E22.15364
G1 X113.322 Y92.776 E22.33395
G1 X113.322 Y91.878 E22.36333
G1 X110.322 Y88.878 E22.50209
G1 X111.220 Y88.878 E22.53147
G1 X113.322 Y90.980 E22.62868
G1 X113.322 Y90.082 E22.65806
G1 X112.118 Y88.878 E22.71372
G1 X113.017 Y88.878 E22.74310
G1 X113.322 Y89.183 E22.75721
G1 X115.822 Y97.971 F7800.000
G1 X114.829 Y96.978 E22.80314 F1800.000
G1 X113.931 Y96.978 E22.83252
G1 X115.822 Y98.869 E22.91999
G1 X101.075 Y88.563 F7800.000
G1 X100.130 Y88.356 E22.95110 F1800.000
G1 X99.286 Y88.205 E22.97869
G1 X97.803 Y88.008 F7800.000
G1 X97.193 Y87.949 E23.02046 F1800.000
G1 X96.266 Y87.894 E23.08381
G1 X95.310 Y87.875 E23.14910
G1 X94.337 Y87.914 E23.21555
G1 X93.403 Y88.024 E23.27966
G1 X92.470 Y88.210 E23.34461
G1 X91.553 Y88.469 E23.40957
G1 X90.671 Y88.794 E23.47369
G1 X89.795 Y89.197 E23.53948
G1 X88.954 Y89.669 E23.60527
G1 X88.173 Y90.191 E23.66938
G1 X87.426 Y90.780 E23.73434
G1 X86.718 Y91.435 E23.80012
G1 X86.073 Y92.136 E23.86507
G1 X85.491 Y92.873 E23.92919
G1 X84.963 Y93.665 E23.99414
G1 X84.503 Y94.483 E24.05813
G1 X84.103 Y95.349 E24.12320
G1 X83.759 Y96.287 E24.19135
G1 X83.510 Y97.170 E24.25394
G1 X83.327 Y98.091 E24.31806
G1 X83.213 Y99.047 E24.38376
G1 X83.176 Y100.012 E24.44963
G1 X83.213 Y100.951 E24.51374
G1 X83.323 Y101.885 E24.57786
G1 X83.510 Y102.829 E24.64356
G1 X83.780 Y103.779 E24.71097
G1 X84.098 Y104.640 E24.77355
G1 X84.491 Y105.494 E24.83767
G1 X84.962 Y106.335 E24.90345
G1 X85.498 Y107.137 E24.96924
G1 X86.080 Y107.874 E25.03336
G1 X86.718 Y108.565 E25.09748
G1 X87.426 Y109.220 E25.16326
G1 X88.173 Y109.809 E25.22822
G1 X88.954 Y110.331 E25.29234
G1 X89.795 Y110.803 E25.35812
G1 X90.671 Y111.206 E25.42392
G1 X91.553 Y111.531 E25.48803
G1 X92.470 Y111.790 E25.55299
G1 X93.415 Y111.977 E25.61877
G1 X94.349 Y112.087 E25.68289
G1 X95.288 Y112.125 E25.74701
G1 X96.266 Y112.106 E25.81375
G1 X97.193 Y112.051 E25.87714
G1 X97.803 Y111.992 E25.91891
G1 X99.286 Y111.795 F7800.000
G1 X100.130 Y111.644 E25.94650 F1800.000
G1 X101.075 Y111.437 E25.97761
G1 Z0.650 F7800.000
G1 E23.97761 F2400.00000
G92 E0
G1 X106.704 Y102.738 F7800.000
G1 E2.00000 F2400.00000
G1 X106.454 Y103.624 E2.01703 F1800.000
G1 X106.135 Y104.488 E2.03405
G1 X105.749 Y105.324 E2.05108
G1 X105.299 Y106.128 E2.06810
G1 X104.788 Y106.893 E2.08513
G1 X104.218 Y107.617 E2.10215
G1 X103.593 Y108.293 E2.11918
G1 X102.917 Y108.918 E2.13620
G1 X102.193 Y109.488 E2.15323
G1 X101.428 Y109.999 E2.17026
G1 X100.624 Y110.449 E2.18728
G1 X99.788 Y110.835 E2.20431
G1 X98.924 Y111.154 E2.22133
G1 X98.038 Y111.404 E2.23836
G1 X97.135 Y111.583 E2.25538
G1 X96.220 Y111.691 E2.27241
G1 X95.300 Y111.728 E2.28943
G1 X94.380 Y111.691 E2.30646
G1 X93.465 Y111.583 E2.32348
G1 X92.562 Y111.404 E2.34051
G1 X91.676 Y111.154 E2.35754
G1 X90.812 Y110.835 E2.37456
G1 X89.976 Y110.449 E2.39159
G1 X89.172 Y109.999 E2.40861
G1 X88.407 Y109.488 E2.42564
G1 X87.684 Y108.918 E2.44266
G1 X87.007 Y108.293 E2.45969
G1 X86.382 Y107.617 E2.47672
G1 X85.811 Y106.892 E2.49378
G1 X85.257 Y106.050 E2.51242
G1 X84.851 Y105.324 E2.52779
G1 X84.464 Y104.486 E2.54485
G1 X84.122 Y103.538 E2.56349
G1 X83.896 Y102.738 E2.57886
G1 X83.717 Y101.835 E2.59589
G1 X83.608 Y100.920 E2.61291
G1 X83.572 Y100.000 E2.62994
G1 X83.609 Y99.079 E2.64699
G1 X83.728 Y98.110 E2.66502
G1 X83.896 Y97.262 E2.68101
G1 X84.146 Y96.376 E2.69804
G1 X84.465 Y95.512 E2.71506
G1 X84.851 Y94.676 E2.73209
G1 X85.301 Y93.872 E2.74911
G1 X85.812 Y93.107 E2.76614
G1 X86.382 Y92.383 E2.78316
G1 X87.007 Y91.707 E2.80019
G1 X87.684 Y91.082 E2.81721
G1 X88.407 Y90.512 E2.83424
G1 X89.172 Y90.000 E2.85126
G1 X89.976 Y89.551 E2.86829
G1 X90.812 Y89.165 E2.88532
G1 X91.676 Y88.846 E2.90234
G1 X92.562 Y88.596 E2.91937
G1 X93.465 Y88.417 E2.93639
G1 X94.380 Y88.308 E2.95342
G1 X95.210 Y88.276 E2.96879 F1800.000
G1 X96.218 Y88.308 E2.98743
G1 X97.135 Y88.417 E3.00449
G1 X98.038 Y88.596 E3.02152
G1 X98.875 Y88.832 E3.03760
G1 X99.787 Y89.164 E3.05554
G1 X100.624 Y89.551 E3.07259
G1 X101.428 Y90.000 E3.08962
G1 X102.193 Y90.512 E3.10664
G1 X102.917 Y91.082 E3.12367
G1 X103.593 Y91.707 E3.14069
G1 X104.219 Y92.385 E3.15776
G1 X104.838 Y93.181 E3.17640
G1 X105.299 Y93.872 E3.19176
G1 X105.749 Y94.676 E3.20879
G1 X106.135 Y95.512 E3.22582
G1 X106.454 Y96.376 E3.24284
G1 X106.704 Y97.262 E3.25987
G1 X106.883 Y98.165 E3.27689
