; generated by Slic3r 1.2.9 on 2019-09-28 at 11:02:35

; external perimeters extrusion width = 0.40mm
; perimeters extrusion width = 0.48mm
; infill extrusion width = 0.48mm
; solid infill extrusion width = 0.48mm
; top infill extrusion width = 0.48mm

M107
M190 S65 ; set bed temperature
M104 S200 ; set temperature
G28 ; home all axes
G1 Z5 F5000 ; lift nozzle

M109 S200 ; wait for temperature to be reached
G21 ; set units to millimeters
G90 ; use absolute coordinates
M82 ; use absolute distances for extrusion
G92 E0
G1 Z0.350 F7800.000
G1 E-2.00000 F2400.00000
G92 E0
G1 X71.883 Y71.343 F7800.000
G1 E2.00000 F2400.00000
G1 X72.719 Y70.563 E2.03679 F1800.000
G1 X75.967 Y67.859 E2.17278
G1 X76.356 Y67.558 E2.18859
G1 X77.296 Y66.909 E2.22536
G1 X80.903 Y64.707 E2.36135
G1 X81.920 Y64.164 E2.39847
G1 X82.356 Y63.960 E2.41393
G1 X86.246 Y62.307 E2.54994
G1 X86.697 Y62.134 E2.56549
G1 X87.791 Y61.780 E2.60250
G1 X91.880 Y60.711 E2.73850
G1 X93.007 Y60.484 E2.77550
G1 X93.486 Y60.414 E2.79108
G1 X97.687 Y59.952 E2.92708
G1 X98.828 Y59.892 E2.96384
G1 X99.319 Y59.892 E2.97965
G1 X103.543 Y60.047 E3.11567
G1 X104.679 Y60.153 E3.15237 F1800.000
G1 X105.166 Y60.224 E3.16822
G1 X109.322 Y60.992 E3.30422
G1 X109.791 Y61.097 E3.31966
G1 X110.902 Y61.405 E3.35678
G1 X114.902 Y62.770 E3.49278
G1 X115.962 Y63.201 E3.52961
G1 X116.406 Y63.409 E3.54536
G1 X120.164 Y65.342 E3.68135
G1 X121.152 Y65.924 E3.71826
G1 X121.557 Y66.192 E3.73390
G1 X124.994 Y68.651 E3.86989
G1 X125.889 Y69.372 E3.90686
G1 X126.250 Y69.696 E3.92246
G1 X129.292 Y72.629 E4.05844
G1 X130.070 Y73.470 E4.09530
G1 X130.382 Y73.845 E4.11101
G1 X132.965 Y77.190 E4.24701
G1 X133.250 Y77.589 E4.26281
G1 X133.866 Y78.553 E4.29959
G1 X135.934 Y82.238 E4.43557
G1 X136.437 Y83.268 E4.47247
G1 X136.627 Y83.716 E4.48812
G1 X138.137 Y87.663 E4.62410
G1 X138.293 Y88.121 E4.63968
G1 X138.608 Y89.227 E4.67669
G1 X139.527 Y93.352 E4.81269
G1 X139.712 Y94.487 E4.84969
G1 X139.765 Y94.969 E4.86529
G1 X140.073 Y99.184 E5.00128
G1 X140.090 Y100.333 E5.03826
G1 X140.073 Y100.816 E5.05380
G1 X139.765 Y105.031 E5.18980
G1 X139.712 Y105.513 E5.20540
G1 X139.527 Y106.648 E5.24240
G1 X138.608 Y110.773 E5.37839
G1 X138.485 Y111.241 E5.39398
G1 X138.137 Y112.337 E5.43098
G1 X136.627 Y116.284 E5.56697
G1 X136.437 Y116.732 E5.58262
G1 X135.934 Y117.762 E5.61952
G1 X133.866 Y121.447 E5.75550
G1 X133.250 Y122.411 E5.79228
G1 X132.965 Y122.810 E5.80808
G1 X130.382 Y126.155 E5.94407
G1 X130.070 Y126.530 E5.95978
G1 X129.292 Y127.371 E5.99665
G1 X126.250 Y130.304 E6.13262
G1 X125.889 Y130.628 E6.14822
G1 X124.994 Y131.349 E6.18520
G1 X121.557 Y133.808 E6.32119
G1 X120.583 Y134.423 E6.35827
G1 X120.164 Y134.658 E6.37373
G1 X116.406 Y136.591 E6.50972
G1 X115.962 Y136.799 E6.52548
G1 X114.902 Y137.230 E6.56231
G1 X110.902 Y138.595 E6.69831
G1 X110.435 Y138.735 E6.71401
G1 X109.322 Y139.008 E6.75087
G1 X105.166 Y139.776 E6.88687
G1 X104.679 Y139.847 E6.90272
G1 X103.543 Y139.953 E6.93942
G1 X99.319 Y140.108 E7.07543
G1 X98.828 Y140.108 E7.09126
G1 X97.687 Y140.048 E7.12801
G1 X93.486 Y139.586 E7.26400
G1 X93.007 Y139.516 E7.27959
G1 X91.880 Y139.289 E7.31659
G1 X87.791 Y138.220 E7.45259
G1 X87.327 Y138.081 E7.46818
G1 X86.246 Y137.693 E7.50514
G1 X82.356 Y136.040 E7.64115
G1 X81.328 Y135.532 E7.67803
G1 X80.903 Y135.293 E7.69374
G1 X77.296 Y133.091 E7.82973
G1 X76.356 Y132.442 E7.86649
G1 X75.967 Y132.141 E7.88230
G1 X72.719 Y129.437 E8.01830
G1 X71.883 Y128.657 E8.05509
G1 X71.544 Y128.305 E8.07083
G1 X68.724 Y125.158 E8.20680
G1 X68.007 Y124.259 E8.24379
G1 X67.725 Y123.865 E8.25938
G1 X65.393 Y120.340 E8.39539
G1 X65.141 Y119.927 E8.41098
G1 X64.594 Y118.917 E8.44794
G1 X62.800 Y115.091 E8.58392
G1 X62.610 Y114.642 E8.59959
G1 X62.216 Y113.563 E8.63655
G1 X60.999 Y109.517 E8.77251
G1 X60.872 Y109.027 E8.78881
G1 X60.644 Y107.922 E8.82511
G1 X60.029 Y103.741 E8.96110
G1 X59.928 Y102.601 E8.99795
G1 X59.910 Y102.113 E9.01365
G1 X59.910 Y97.887 E9.14963
G1 X59.928 Y97.399 E9.16533
G1 X60.029 Y96.259 E9.20218
G1 X60.644 Y92.078 E9.33817
G1 X60.732 Y91.602 E9.35375
G1 X60.999 Y90.483 E9.39077
G1 X62.216 Y86.437 E9.52673
G1 X62.610 Y85.358 E9.56369
G1 X62.800 Y84.909 E9.57936
G1 X64.594 Y81.083 E9.71534
G1 X65.141 Y80.073 E9.75231
G1 X65.393 Y79.660 E9.76789
G1 X67.725 Y76.135 E9.90390
G1 X68.007 Y75.741 E9.91949
G1 X68.724 Y74.842 E9.95648
G1 X71.544 Y71.695 E10.09245
G1 X71.842 Y71.386 E10.10626
G1 E8.10626 F2400.00000
G92 E0
G1 X103.898 Y127.428 F7800.000
G1 E2.00000 F2400.00000
G1 X100.656 Y118.520 E2.30507 F1800.000
G1 X100.303 Y116.089 E2.38411
G1 X100.615 Y113.681 E2.46223
G1 X101.566 Y111.447 E2.54035
G1 X103.083 Y109.553 E2.61848
G1 X105.056 Y108.137 E2.69660
G1 X107.338 Y107.307 E2.77473
G1 X109.758 Y107.123 E2.85285
G1 X112.139 Y107.599 E2.93097
G1 X114.303 Y108.700 E3.00910
G1 X116.090 Y110.343 E3.08722
G1 X117.367 Y112.408 E3.16535
G1 X118.040 Y114.741 E3.24347
G1 X118.058 Y117.168 E3.32160
G1 X117.421 Y119.511 E3.39972
G1 X116.175 Y121.595 E3.47784
G1 X114.414 Y123.265 E3.55597
G1 X112.364 Y124.347 E3.63054
G1 X103.955 Y127.408 E3.91851
G1 X104.272 Y126.628 F7800.000
G1 X101.265 Y118.366 E4.20141 F1800.000
G1 X100.934 Y116.084 E4.27561
G1 X101.224 Y113.847 E4.34821
G1 X102.107 Y111.771 E4.42081
G1 X103.517 Y110.010 E4.49340
G1 X105.351 Y108.695 E4.56600
G1 X107.471 Y107.924 E4.63860
G1 X109.517 Y107.768 E4.70464
G1 X109.720 Y107.753 E4.71119
G1 X111.932 Y108.195 E4.78379
G1 X113.943 Y109.218 E4.85639
G1 X115.604 Y110.745 E4.92898
G1 X116.790 Y112.664 E5.00158
G1 X117.416 Y114.831 E5.07417
G1 X117.433 Y117.087 E5.14677
G1 X116.841 Y119.264 E5.21937
G1 X115.683 Y121.201 E5.29196
G1 X114.046 Y122.753 E5.36456
G1 X112.110 Y123.775 E5.43499
G1 X104.328 Y126.607 E5.70148
G1 X104.645 Y125.827 F7800.000
G1 X101.874 Y118.213 E5.96221 F1800.000
G1 X101.564 Y116.080 E6.03158
G1 X101.833 Y114.013 E6.09865
G1 X102.648 Y112.095 E6.16571
G1 X103.951 Y110.468 E6.23278
G1 X105.645 Y109.253 E6.29985
G1 X107.604 Y108.540 E6.36692
G1 X109.564 Y108.391 E6.43020
G1 X109.682 Y108.382 E6.43399
G1 X111.726 Y108.791 E6.50106
G1 X113.583 Y109.736 E6.56813
G1 X115.117 Y111.147 E6.63520
G1 X116.214 Y112.919 E6.70227
G1 X116.791 Y114.922 E6.76933
G1 X116.807 Y117.006 E6.83640
G1 X116.260 Y119.017 E6.90347
G1 X115.191 Y120.806 E6.97054
G1 X113.678 Y122.240 E7.03761
G1 X111.856 Y123.202 E7.10390
G1 X104.702 Y125.806 E7.34891
G1 X104.269 Y125.963 F7800.000
G1 E5.34891 F2400.00000
G92 E0
G1 X101.278 Y105.743 F7800.000
G1 E2.00000 F2400.00000
G1 X98.657 Y105.743 E2.08436 F1800.000
G1 X96.295 Y104.606 E2.16873
G1 X94.660 Y102.556 E2.25309
G1 X94.566 Y102.146 E2.26662
G1 X94.077 Y100.000 E2.33746
G1 X94.660 Y97.444 E2.42182
G1 X96.295 Y95.394 E2.50618
G1 X98.657 Y94.257 E2.59055
G1 X101.278 Y94.257 E2.67491 F1800.000
G1 X103.640 Y95.394 E2.75927
G1 X105.275 Y97.444 E2.84364
G1 X105.858 Y100.000 E2.92800
G1 X105.275 Y102.556 E3.01237
G1 X103.640 Y104.606 E3.09673
G1 X101.332 Y105.717 E3.17916
G1 X101.136 Y105.118 F7800.000
G1 X98.799 Y105.118 E3.25435 F1800.000
G1 X96.694 Y104.105 E3.32953
G1 X95.237 Y102.278 E3.40472
G1 X95.176 Y102.007 E3.41365
G1 X94.718 Y100.000 E3.47990
G1 X95.237 Y97.722 E3.55509
G1 X96.694 Y95.895 E3.63027
G1 X98.799 Y94.882 E3.70545
G1 X101.136 Y94.882 E3.78064 F1800.000
G1 X103.241 Y95.895 E3.85582
G1 X104.698 Y97.722 E3.93101
G1 X105.217 Y100.000 E4.00619
G1 X104.698 Y102.278 E4.08138
G1 X103.241 Y104.105 E4.15656
G1 X101.190 Y105.092 E4.22982
G1 X100.993 Y104.493 F7800.000
G1 X98.942 Y104.493 E4.29582 F1800.000
G1 X97.094 Y103.603 E4.36183
G1 X95.815 Y102.000 E4.42783
G1 X95.785 Y101.868 E4.43218
G1 X95.358 Y100.000 E4.49384
G1 X95.815 Y98.000 E4.55984
G1 X97.094 Y96.397 E4.62585
G1 X98.942 Y95.507 E4.69185
G1 X100.993 Y95.507 E4.75786 F1800.000
G1 X102.841 Y96.397 E4.82387
G1 X104.120 Y98.000 E4.88987
G1 X104.576 Y100.000 E4.95588
G1 X104.120 Y102.000 E5.02188
G1 X102.841 Y103.603 E5.08789
G1 X101.047 Y104.467 E5.15196
G1 X100.847 Y104.866 F7800.000
G1 E3.15196 F2400.00000
G92 E0
G1 X78.179 Y117.118 F7800.000
G1 E2.00000 F2400.00000
G1 X84.273 Y109.856 E2.30507 F1800.000
G1 X86.202 Y108.335 E2.38411
G1 X88.443 Y107.402 E2.46223
G1 X90.853 Y107.108 E2.54035
G1 X93.253 Y107.475 E2.61848
G1 X95.465 Y108.476 E2.69660
G1 X97.324 Y110.036 E2.77473
G1 X98.694 Y112.041 E2.85285
G1 X99.472 Y114.340 E2.93097
G1 X99.601 Y116.765 E3.00910
G1 X99.538 Y117.047 E3.01841
G1 X99.071 Y119.134 E3.08722
G1 X97.922 Y121.272 E3.16535
G1 X96.238 Y123.021 E3.24347
G1 X94.145 Y124.251 E3.32160
G1 X91.797 Y124.871 E3.39972
G1 X89.370 Y124.834 E3.47784
G1 X87.042 Y124.143 E3.55597
G1 X85.081 Y122.909 E3.63054
G1 X78.225 Y117.157 E3.91851
G1 X79.060 Y117.041 F7800.000
G1 X84.711 Y110.307 E4.20141 F1800.000
G1 X86.521 Y108.879 E4.27561
G1 X88.604 Y108.012 E4.34821
G1 X90.843 Y107.738 E4.42081
G1 X93.073 Y108.079 E4.49340
G1 X95.129 Y109.010 E4.56600
G1 X96.857 Y110.460 E4.63860
G1 X98.130 Y112.322 E4.71119
G1 X98.853 Y114.459 E4.78379
G1 X98.973 Y116.712 E4.85638
G1 X98.928 Y116.911 E4.86294
G1 X98.480 Y118.914 E4.92898
G1 X97.412 Y120.901 E5.00158
G1 X95.847 Y122.526 E5.07417
G1 X93.902 Y123.669 E5.14677
G1 X91.721 Y124.245 E5.21937
G1 X89.465 Y124.210 E5.29196
G1 X87.302 Y123.569 E5.36456
G1 X85.450 Y122.403 E5.43499
G1 X79.106 Y117.080 E5.70148
G1 X79.940 Y116.964 F7800.000
G1 X85.148 Y110.758 E5.96221 F1800.000
G1 X86.841 Y109.423 E6.03158
G1 X88.765 Y108.621 E6.09864
G1 X90.834 Y108.369 E6.16571
G1 X92.894 Y108.684 E6.23278
G1 X94.793 Y109.543 E6.29985
G1 X96.389 Y110.883 E6.36692
G1 X97.565 Y112.604 E6.43399
G1 X98.233 Y114.578 E6.50106
G1 X98.344 Y116.660 E6.56813
G1 X98.318 Y116.774 E6.57191
G1 X97.889 Y118.694 E6.63520
G1 X96.902 Y120.529 E6.70226
G1 X95.457 Y122.031 E6.76933
G1 X93.660 Y123.087 E6.83640
G1 X91.644 Y123.618 E6.90347
G1 X89.560 Y123.587 E6.97054
G1 X87.562 Y122.994 E7.03761
G1 X85.819 Y121.897 E7.10390
G1 X79.986 Y117.003 E7.34891
G1 X79.634 Y116.707 F7800.000
G1 E5.34891 F2400.00000
G92 E0
G1 X74.248 Y89.690 F7800.000
G1 E2.00000 F2400.00000
G1 X83.585 Y91.336 E2.30507 F1800.000
G1 X85.866 Y92.246 E2.38411
G1 X87.795 Y93.720 E2.46223
G1 X89.255 Y95.660 E2.54035
G1 X90.137 Y97.922 E2.61848
G1 X90.376 Y100.338 E2.69660
G1 X89.954 Y102.729 E2.77473
G1 X88.903 Y104.918 E2.85285
G1 X87.301 Y106.741 E2.93097
G1 X85.266 Y108.065 E3.00910
G1 X82.949 Y108.791 E3.08722
G1 X80.522 Y108.865 E3.16535
G1 X78.166 Y108.281 E3.24347
G1 X76.054 Y107.083 E3.32160
G1 X74.344 Y105.360 E3.39972
G1 X73.162 Y103.239 E3.47784
G1 X72.596 Y100.878 E3.55597
G1 X72.684 Y98.562 E3.63054
G1 X74.238 Y89.749 E3.91851
G1 X74.755 Y90.414 F7800.000
G1 X83.413 Y91.941 E4.20141 F1800.000
G1 X85.555 Y92.795 E4.27561
G1 X87.347 Y94.165 E4.34821
G1 X88.704 Y95.967 E4.42081
G1 X89.523 Y98.069 E4.49340
G1 X89.746 Y100.314 E4.56600
G1 X89.354 Y102.536 E4.63860
G1 X89.266 Y102.719 E4.64515
G1 X88.377 Y104.570 E4.71119
G1 X86.888 Y106.264 E4.78379
G1 X84.997 Y107.495 E4.85638
G1 X82.844 Y108.169 E4.92898
G1 X80.589 Y108.237 E5.00158
G1 X78.399 Y107.695 E5.07417
G1 X76.437 Y106.582 E5.14677
G1 X74.848 Y104.980 E5.21937
G1 X73.750 Y103.010 E5.29196
G1 X73.224 Y100.816 E5.36456
G1 X73.307 Y98.629 E5.43499
G1 X74.745 Y90.473 E5.70148
G1 X75.262 Y91.138 F7800.000
G1 X83.241 Y92.545 E5.96221 F1800.000
G1 X85.244 Y93.343 E6.03158
G1 X86.900 Y94.609 E6.09864
G1 X88.153 Y96.274 E6.16571
G1 X88.910 Y98.216 E6.23278
G1 X89.115 Y100.290 E6.29985
G1 X88.753 Y102.343 E6.36692
G1 X87.851 Y104.222 E6.43399
G1 X86.475 Y105.787 E6.50106
G1 X84.728 Y106.924 E6.56813
G1 X82.739 Y107.547 E6.63520
G1 X80.656 Y107.610 E6.70226
G1 X78.633 Y107.109 E6.76933
G1 X76.820 Y106.081 E6.83640
G1 X75.352 Y104.601 E6.90347
G1 X74.337 Y102.781 E6.97054
G1 X73.851 Y100.754 E7.03761
G1 X73.930 Y98.695 E7.10390
G1 X75.252 Y91.197 E7.34891
G1 X75.332 Y90.744 F7800.000
G1 E5.34891 F2400.00000
G92 E0
G1 X96.037 Y72.572 F7800.000
G1 E2.00000 F2400.00000
G1 X99.279 Y81.480 E2.30507 F1800.000
G1 X99.632 Y83.911 E2.38411
G1 X99.320 Y86.319 E2.46223
G1 X98.369 Y88.553 E2.54035
G1 X96.852 Y90.447 E2.61848
G1 X94.879 Y91.863 E2.69660
G1 X92.597 Y92.693 E2.77473
G1 X90.177 Y92.877 E2.85285
G1 X87.796 Y92.401 E2.93097
G1 X85.632 Y91.300 E3.00910
G1 X83.845 Y89.657 E3.08722
G1 X82.568 Y87.592 E3.16535
G1 X81.895 Y85.259 E3.24347
G1 X81.877 Y82.832 E3.32160
G1 X82.514 Y80.489 E3.39972
G1 X83.760 Y78.405 E3.47784
G1 X85.521 Y76.735 E3.55597
G1 X87.571 Y75.653 E3.63054
G1 X95.980 Y72.592 E3.91851
G1 X95.663 Y73.372 F7800.000
G1 X98.670 Y81.634 E4.20141 F1800.000
G1 X99.001 Y83.916 E4.27561
G1 X98.711 Y86.153 E4.34821
G1 X97.828 Y88.229 E4.42081
G1 X96.418 Y89.990 E4.49340
G1 X94.584 Y91.305 E4.56600
G1 X92.464 Y92.076 E4.63860
G1 X90.215 Y92.247 E4.71119
G1 X88.003 Y91.805 E4.78379
G1 X85.992 Y90.782 E4.85638
G1 X84.331 Y89.255 E4.92898
G1 X83.145 Y87.336 E5.00158
G1 X82.519 Y85.169 E5.07417
G1 X82.502 Y82.913 E5.14677
G1 X83.094 Y80.736 E5.21937
G1 X84.252 Y78.799 E5.29196
G1 X85.889 Y77.247 E5.36456
G1 X87.825 Y76.225 E5.43499
G1 X95.607 Y73.393 E5.70148
G1 X95.290 Y74.173 F7800.000
G1 X98.061 Y81.787 E5.96221 F1800.000
G1 X98.371 Y83.920 E6.03158
G1 X98.102 Y85.987 E6.09864
G1 X97.287 Y87.905 E6.16571
G1 X95.984 Y89.532 E6.23278
G1 X94.290 Y90.747 E6.29985
G1 X92.331 Y91.460 E6.36692
G1 X90.253 Y91.618 E6.43399
G1 X88.209 Y91.209 E6.50106
G1 X86.352 Y90.264 E6.56813
G1 X84.818 Y88.853 E6.63520
G1 X83.721 Y87.081 E6.70226
G1 X83.144 Y85.078 E6.76933
G1 X83.128 Y82.994 E6.83640
G1 X83.675 Y80.983 E6.90347
G1 X84.744 Y79.194 E6.97054
G1 X86.257 Y77.760 E7.03761
G1 X88.079 Y76.798 E7.10390
G1 X95.233 Y74.194 E7.34891
G1 X95.666 Y74.037 F7800.000
G1 E5.34891 F2400.00000
G92 E0
G1 X121.756 Y82.882 F7800.000
G1 E2.00000 F2400.00000
G1 X115.662 Y90.144 E2.30507 F1800.000
G1 X113.733 Y91.665 E2.38411
G1 X111.492 Y92.598 E2.46223
G1 X109.082 Y92.892 E2.54035
G1 X106.682 Y92.525 E2.61848
G1 X104.470 Y91.524 E2.69660
G1 X102.611 Y89.964 E2.77473
G1 X102.447 Y89.725 E2.78404
G1 X101.241 Y87.959 E2.85285
G1 X100.463 Y85.660 E2.93097
G1 X100.334 Y83.235 E3.00910
G1 X100.864 Y80.866 E3.08722
G1 X102.013 Y78.728 E3.16535
G1 X103.697 Y76.979 E3.24347
G1 X105.790 Y75.749 E3.32160
G1 X108.138 Y75.129 E3.39972
G1 X110.565 Y75.166 E3.47784
G1 X112.893 Y75.857 E3.55597
G1 X114.854 Y77.091 E3.63054
G1 X121.710 Y82.843 E3.91851
G1 X120.875 Y82.959 F7800.000
G1 X115.224 Y89.693 E4.20141 F1800.000
G1 X113.414 Y91.121 E4.27561
G1 X111.331 Y91.988 E4.34821
G1 X109.092 Y92.262 E4.42081
G1 X106.862 Y91.921 E4.49340
G1 X104.806 Y90.990 E4.56600
G1 X103.078 Y89.540 E4.63860
G1 X102.963 Y89.372 E4.64515
G1 X101.805 Y87.678 E4.71119
G1 X101.082 Y85.541 E4.78379
G1 X100.962 Y83.288 E4.85638
G1 X101.455 Y81.086 E4.92898
G1 X102.523 Y79.099 E5.00158
G1 X104.088 Y77.474 E5.07417
G1 X106.033 Y76.331 E5.14677
G1 X108.214 Y75.755 E5.21937
G1 X110.470 Y75.790 E5.29196
G1 X112.633 Y76.431 E5.36456
G1 X114.485 Y77.597 E5.43499
G1 X120.829 Y82.920 E5.70148
G1 X119.995 Y83.036 F7800.000
G1 X114.787 Y89.242 E5.96221 F1800.000
G1 X113.094 Y90.577 E6.03158
G1 X111.170 Y91.378 E6.09864
G1 X109.101 Y91.631 E6.16571
G1 X107.041 Y91.316 E6.23278
G1 X105.142 Y90.457 E6.29985
G1 X103.546 Y89.117 E6.36692
G1 X103.479 Y89.020 E6.37071
G1 X102.370 Y87.396 E6.43399
G1 X101.702 Y85.422 E6.50106
G1 X101.591 Y83.340 E6.56813
G1 X102.046 Y81.306 E6.63520
G1 X103.033 Y79.471 E6.70226
G1 X104.478 Y77.969 E6.76933
G1 X106.275 Y76.913 E6.83640
G1 X108.291 Y76.382 E6.90347
G1 X110.375 Y76.413 E6.97054
G1 X112.373 Y77.006 E7.03761
G1 X114.116 Y78.103 E7.10390
G1 X119.949 Y82.997 E7.34891
G1 X120.301 Y83.293 F7800.000
G1 E5.34891 F2400.00000
G92 E0
G1 X125.687 Y110.310 F7800.000
G1 E2.00000 F2400.00000
G1 X116.350 Y108.664 E2.30507 F1800.000
G1 X114.069 Y107.754 E2.38411
G1 X112.140 Y106.280 E2.46223
G1 X110.680 Y104.340 E2.54035
G1 X109.798 Y102.078 E2.61848
G1 X109.559 Y99.662 E2.69660
G1 X109.981 Y97.271 E2.77473
G1 X111.032 Y95.082 E2.85285
G1 X112.634 Y93.259 E2.93097
G1 X114.669 Y91.935 E3.00910
G1 X116.986 Y91.209 E3.08722
G1 X119.413 Y91.135 E3.16535
G1 X121.769 Y91.719 E3.24347
G1 X123.881 Y92.917 E3.32160
