; generated by Slic3r 1.3.0 on 2019-07-10 at 20:47:54

; external perimeters extrusion width = 0.55mm (3.72mm^3/s)
; perimeters extrusion width = 0.70mm (9.70mm^3/s)
; infill extrusion width = 0.63mm (11.43mm^3/s)
; solid infill extrusion width = 0.70mm (3.23mm^3/s)
; top infill extrusion width = 0.70mm (2.42mm^3/s)
; support material extrusion width = 0.55mm (7.45mm^3/s)

M107
M190 S65 ; set bed temperature and wait for it to be reached
M104 S205 ; set temperature
G28 ; home all axes
G1 Z5 F5000 ; lift nozzle

; Filament gcode

M109 S205 ; set temperature and wait for it to be reached
G21 ; set units to millimeters
G90 ; use absolute coordinates
M82 ; use absolute distances for extrusion
G92 E0
G1 Z0.350 F7800.000
G1 E-2.00000 F2400.00000
G92 E0
G1 X62.915 Y53.753 F7800.000
G1 E2.00000 F2400.00000
G1 F1800
G1 X64.668 Y52.274 E2.07096
G1 X66.661 Y51.512 E2.13698
G1 X72.416 Y50.324 E2.31879
G1 X73.755 Y50.188 E2.36043
G1 X76.395 Y50.189 E2.44214
G1 X132.141 Y51.377 E4.16738
G1 X134.391 Y51.822 E4.23834
G1 X136.354 Y53.007 E4.30930
G1 X137.796 Y54.791 E4.38026
G1 X138.625 Y58.000 E4.48282
G1 X138.625 Y110.000 E6.09177
G1 X138.463 Y113.462 E6.19900
G1 X138.399 Y114.110 E6.21914
G1 X137.938 Y117.216 E6.31629
G1 X137.811 Y117.853 E6.33639
G1 X137.048 Y120.899 E6.43355
G1 X136.860 Y121.521 E6.45366
G1 X135.802 Y124.478 E6.55084
G1 X135.553 Y125.079 E6.57097
G1 X134.209 Y127.918 E6.66816
G1 X133.903 Y128.491 E6.68824
G1 X132.289 Y131.184 E6.78539
G1 X131.928 Y131.724 E6.80550
G1 X130.057 Y134.247 E6.90269
G1 X129.644 Y134.751 E6.92285
G1 X127.535 Y137.077 E7.02000
G1 X127.077 Y137.535 E7.04004
G1 X124.751 Y139.644 E7.13719
G1 X124.247 Y140.057 E7.15735
G1 X121.724 Y141.929 E7.25455
G1 X121.184 Y142.289 E7.27465
G1 X118.490 Y143.904 E7.37181
G1 X117.918 Y144.210 E7.39189
G1 X115.079 Y145.553 E7.48907
G1 X114.478 Y145.802 E7.50920
G1 X111.521 Y146.860 E7.60637
G1 X110.899 Y147.048 E7.62649
G1 X107.853 Y147.811 E7.72365
G1 X107.216 Y147.938 E7.74375
G1 X104.109 Y148.399 E7.84091
G1 X103.462 Y148.463 E7.86104
G1 X100.325 Y148.617 E7.95822
G1 X99.676 Y148.617 E7.97831
G1 X96.538 Y148.463 E8.07550
G1 X95.890 Y148.399 E8.09564
G1 X92.784 Y147.938 E8.19280
G1 X92.147 Y147.811 E8.21290
G1 X89.101 Y147.048 E8.31008
G1 X88.479 Y146.860 E8.33017
G1 X85.522 Y145.802 E8.42735
G1 X84.921 Y145.553 E8.44748
G1 X82.082 Y144.210 E8.54465
G1 X81.510 Y143.904 E8.56473
G1 X78.816 Y142.289 E8.66189
G1 X78.276 Y141.928 E8.68201
G1 X75.753 Y140.057 E8.77919
G1 X75.249 Y139.644 E8.79936
G1 X72.923 Y137.535 E8.89652
G1 X72.465 Y137.077 E8.91655
G1 X70.356 Y134.751 E9.01369
G1 X69.943 Y134.247 E9.03386
G1 X68.071 Y131.724 E9.13106
G1 X67.711 Y131.184 E9.15115
G1 X66.097 Y128.491 E9.24831
G1 X65.790 Y127.918 E9.26840
G1 X64.447 Y125.079 E9.36557
G1 X64.198 Y124.478 E9.38570
G1 X63.140 Y121.521 E9.48288
G1 X62.952 Y120.899 E9.50299
G1 X62.189 Y117.853 E9.60015
G1 X62.062 Y117.216 E9.62025
G1 X61.601 Y114.110 E9.71741
G1 X61.537 Y113.462 E9.73755
G1 X61.375 Y110.000 E9.84478
G1 X61.375 Y58.000 E11.45373
G1 X61.772 Y55.741 E11.52469
G1 X62.878 Y53.818 E11.59333
G1 E9.59333 F2400.00000
G92 E0
G1 X120.180 Y120.924 F7800.000
G1 E2.00000 F2400.00000
G1 F1800
G1 X120.345 Y121.117 E2.00785
G1 X120.886 Y122.000 E2.03990
G1 X121.284 Y122.958 E2.07199
G1 X121.526 Y123.967 E2.10410
G1 X121.607 Y125.000 E2.13617
G1 X121.526 Y126.033 E2.16823
G1 X121.284 Y127.042 E2.20034
G1 X120.886 Y128.000 E2.23243
G1 X120.345 Y128.883 E2.26448
G1 X119.672 Y129.672 E2.29656
G1 X118.883 Y130.345 E2.32864
G1 X118.000 Y130.886 E2.36070
G1 X117.042 Y131.284 E2.39278
G1 X116.033 Y131.526 E2.42489
G1 X115.000 Y131.607 E2.45696
G1 X113.967 Y131.526 E2.48903
G1 X112.958 Y131.284 E2.52113
G1 X112.000 Y130.886 E2.55322
G1 X111.117 Y130.345 E2.58527
G1 X110.328 Y129.672 E2.61736
G1 X109.655 Y128.883 E2.64944
G1 X109.114 Y128.000 E2.68149
G1 X108.716 Y127.042 E2.71358
G1 X108.474 Y126.034 E2.74565
G1 X108.392 Y125.000 E2.77775
G1 X108.474 Y123.966 E2.80985
G1 X108.716 Y122.958 E2.84193
G1 X109.114 Y122.000 E2.87402
G1 X109.655 Y121.117 E2.90607
G1 X110.328 Y120.328 E2.93815
G1 X111.117 Y119.655 E2.97023
G1 X112.000 Y119.114 E3.00229
G1 X112.958 Y118.716 E3.03437
G1 X113.966 Y118.474 E3.06645
G1 X114.977 Y118.394 E3.09785
G1 X116.031 Y118.473 E3.13055
G1 X117.042 Y118.716 E3.16272
G1 X118.000 Y119.114 E3.19481
G1 X118.883 Y119.655 E3.22686
G1 X119.672 Y120.328 E3.25894
G1 X120.132 Y120.867 E3.28085
G1 X119.705 Y121.330 F7800.000
G1 F1800
G1 X119.838 Y121.485 E3.28718
G1 X120.328 Y122.285 E3.31620
G1 X120.688 Y123.152 E3.34524
G1 X120.907 Y124.065 E3.37429
G1 X120.980 Y125.000 E3.40332
G1 X120.907 Y125.935 E3.43235
G1 X120.688 Y126.848 E3.46140
G1 X120.328 Y127.715 E3.49044
G1 X119.838 Y128.515 E3.51946
G1 X119.228 Y129.228 E3.54850
G1 X118.515 Y129.838 E3.57754
G1 X117.715 Y130.328 E3.60656
G1 X116.848 Y130.688 E3.63560
G1 X115.935 Y130.907 E3.66465
G1 X115.000 Y130.980 E3.69368
G1 X114.065 Y130.907 E3.72271
G1 X113.152 Y130.688 E3.75176
G1 X112.285 Y130.328 E3.78080
G1 X111.485 Y129.838 E3.80982
G1 X110.772 Y129.228 E3.83886
G1 X110.162 Y128.515 E3.86790
G1 X109.672 Y127.715 E3.89691
G1 X109.312 Y126.848 E3.92595
G1 X109.093 Y125.936 E3.95499
G1 X109.019 Y125.000 E3.98404
G1 X109.093 Y124.064 E4.01310
G1 X109.312 Y123.152 E4.04213
G1 X109.672 Y122.285 E4.07117
G1 X110.162 Y121.485 E4.10018
G1 X110.772 Y120.772 E4.12922
G1 X111.485 Y120.162 E4.15826
G1 X112.285 Y119.672 E4.18728
G1 X113.152 Y119.312 E4.21632
G1 X114.064 Y119.093 E4.24535
G1 X114.979 Y119.021 E4.27374
G1 X115.934 Y119.093 E4.30339
G1 X116.848 Y119.312 E4.33248
G1 X117.715 Y119.672 E4.36152
G1 X118.515 Y120.162 E4.39054
G1 X119.228 Y120.772 E4.41958
G1 X119.657 Y121.273 E4.43997
G1 X119.230 Y121.735 F7800.000
G1 F1800
G1 X119.331 Y121.854 E4.44478
G1 X119.770 Y122.569 E4.47075
G1 X120.092 Y123.345 E4.49675
G1 X120.288 Y124.162 E4.52274
G1 X120.353 Y125.000 E4.54874
G1 X120.288 Y125.838 E4.57474
G1 X120.092 Y126.655 E4.60073
G1 X119.770 Y127.431 E4.62673
G1 X119.331 Y128.146 E4.65270
G1 X118.785 Y128.785 E4.67870
G1 X118.146 Y129.331 E4.70470
G1 X117.431 Y129.770 E4.73068
G1 X116.655 Y130.092 E4.75667
G1 X115.838 Y130.288 E4.78267
G1 X115.000 Y130.353 E4.80866
G1 X114.162 Y130.288 E4.83466
G1 X113.345 Y130.092 E4.86066
G1 X112.569 Y129.770 E4.88665
G1 X111.854 Y129.331 E4.91263
G1 X111.215 Y128.785 E4.93863
G1 X110.669 Y128.146 E4.96463
G1 X110.230 Y127.431 E4.99060
G1 X109.908 Y126.655 E5.01660
G1 X109.712 Y125.838 E5.04258
G1 X109.646 Y125.000 E5.06859
G1 X109.712 Y124.162 E5.09460
G1 X109.908 Y123.345 E5.12059
G1 X110.230 Y122.569 E5.14658
G1 X110.669 Y121.854 E5.17256
G1 X111.215 Y121.215 E5.19856
G1 X111.854 Y120.669 E5.22456
G1 X112.569 Y120.230 E5.25053
G1 X113.345 Y119.908 E5.27653
G1 X114.162 Y119.712 E5.30251
G1 X114.980 Y119.648 E5.32789
G1 X115.837 Y119.712 E5.35450
G1 X116.655 Y119.908 E5.38051
G1 X117.431 Y120.230 E5.40650
G1 X118.146 Y120.669 E5.43248
G1 X118.785 Y121.215 E5.45848
G1 X119.181 Y121.678 E5.47735
G1 X119.382 Y121.703 F7800.000
G1 E3.47735 F2400.00000
G92 E0
G1 X125.480 Y109.441 F7800.000
G1 E2.00000 F2400.00000
G1 F1800
G1 X124.665 Y109.027 E2.02827
G1 X123.973 Y108.335 E2.05857
G1 X123.531 Y107.465 E2.08877
G1 X123.377 Y106.500 E2.11899
G1 X123.531 Y105.535 E2.14921
G1 X123.973 Y104.665 E2.17941
G1 X124.675 Y103.963 E2.21014
G1 X125.576 Y103.524 E2.24114
G1 X126.500 Y103.377 E2.27009
G1 X127.465 Y103.531 E2.30031
G1 X128.335 Y103.973 E2.33051
G1 X129.027 Y104.665 E2.36080
G1 X129.470 Y105.537 E2.39105
G1 X129.621 Y106.500 E2.42122
G1 X129.470 Y107.463 E2.45138
G1 X129.027 Y108.335 E2.48163
G1 X128.335 Y109.027 E2.51193
G1 X127.463 Y109.470 E2.54218
G1 X126.500 Y109.621 E2.57234
G1 X125.548 Y109.472 E2.60216
G1 X125.732 Y108.868 F7800.000
G1 F1800
G1 X125.037 Y108.515 E2.62627
G1 X124.485 Y107.963 E2.65043
G1 X124.132 Y107.269 E2.67451
G1 X124.010 Y106.500 E2.69861
G1 X124.132 Y105.731 E2.72270
G1 X124.485 Y105.037 E2.74678
G1 X125.043 Y104.479 E2.77120
G1 X125.766 Y104.127 E2.79609
G1 X126.500 Y104.010 E2.81908
G1 X127.269 Y104.132 E2.84317
G1 X127.963 Y104.485 E2.86726
G1 X128.515 Y105.037 E2.89141
G1 X128.868 Y105.732 E2.91553
G1 X128.989 Y106.500 E2.93958
G1 X128.868 Y107.268 E2.96364
G1 X128.515 Y107.963 E2.98776
G1 X127.963 Y108.515 E3.01191
G1 X127.268 Y108.868 E3.03603
G1 X126.500 Y108.989 E3.06008
G1 X125.806 Y108.880 E3.08182
G1 X125.927 Y108.266 F7800.000
G1 F1800
G1 X125.409 Y108.003 E3.09980
G1 X124.997 Y107.591 E3.11781
G1 X124.734 Y107.074 E3.13578
G1 X124.643 Y106.500 E3.15375
G1 X124.734 Y105.926 E3.17172
G1 X124.997 Y105.409 E3.18969
G1 X125.411 Y104.995 E3.20779
G1 X125.957 Y104.729 E3.22657
G1 X126.500 Y104.643 E3.24360
G1 X127.074 Y104.734 E3.26157
G1 X127.591 Y104.997 E3.27954
G1 X128.003 Y105.409 E3.29755
G1 X128.266 Y105.927 E3.31553
G1 X128.356 Y106.500 E3.33348
G1 X128.266 Y107.073 E3.35143
G1 X128.003 Y107.591 E3.36941
G1 X127.591 Y108.003 E3.38743
G1 X127.073 Y108.266 E3.40541
G1 X126.500 Y108.356 E3.42336
G1 X126.001 Y108.278 E3.43899
G1 X125.927 Y108.266 F7800.000
G1 E1.43899 F2400.00000
G92 E0
G1 X108.602 Y118.602 F7800.000
G1 E2.00000 F2400.00000
G1 F1800
G1 X91.397 Y118.602 E2.53233
G1 X91.397 Y90.397 E3.40502
G1 X92.397 Y90.397 E3.43596
G1 X92.397 Y83.397 E3.65255
G1 X107.602 Y83.397 E4.12300
G1 X107.602 Y90.397 E4.33959
G1 X108.602 Y90.397 E4.37053
G1 X108.602 Y118.527 E5.24089
G1 X107.977 Y117.977 F7800.000
G1 F1800
G1 X92.022 Y117.977 E5.73455
G1 X92.022 Y91.022 E6.56857
G1 X107.977 Y91.022 E7.06223
G1 X107.977 Y117.902 E7.89393
G1 X107.352 Y117.352 F7800.000
G1 F1800
G1 X92.647 Y117.352 E8.34892
G1 X92.647 Y91.647 E9.14427
G1 X107.352 Y91.647 E9.59926
G1 X107.352 Y117.277 E10.39228
G1 X107.438 Y117.845 F7800.000
G1 E8.39228 F2400.00000
G92 E0
G1 X106.977 Y89.977 F7800.000
G1 E2.00000 F2400.00000
G1 F1800
G1 X93.022 Y89.977 E2.43178
G1 X93.022 Y84.022 E2.61603
G1 X106.977 Y84.022 E3.04781
G1 X106.977 Y89.902 E3.22973
G1 X106.352 Y89.352 F7800.000
G1 F1800
G1 X93.647 Y89.352 E3.62284
G1 X93.647 Y84.647 E3.76842
G1 X106.352 Y84.647 E4.16153
G1 X106.352 Y89.277 E4.30479
G1 X106.549 Y89.811 F7800.000
G1 E2.30479 F2400.00000
G92 E0
G1 X76.068 Y104.747 F7800.000
G1 E2.00000 F2400.00000
G1 F1800
G1 X76.469 Y105.535 E2.02738
G1 X76.623 Y106.500 E2.05760
G1 X76.469 Y107.465 E2.08782
G1 X76.027 Y108.335 E2.11802
G1 X75.335 Y109.027 E2.14831
G1 X74.463 Y109.470 E2.17856
G1 X73.500 Y109.621 E2.20873
G1 X72.537 Y109.470 E2.23889
G1 X71.665 Y109.027 E2.26914
G1 X70.973 Y108.334 E2.29944
G1 X70.531 Y107.465 E2.32963
G1 X70.377 Y106.500 E2.35986
G1 X70.531 Y105.535 E2.39008
G1 X70.973 Y104.665 E2.42027
G1 X71.665 Y103.973 E2.45057
G1 X72.535 Y103.531 E2.48077
G1 X73.500 Y103.377 E2.51099
G1 X74.465 Y103.531 E2.54121
G1 X75.335 Y103.973 E2.57141
G1 X76.034 Y104.680 E2.60218
G1 X75.515 Y105.037 F7800.000
G1 F1800
G1 X75.868 Y105.731 E2.62626
G1 X75.990 Y106.500 E2.65036
G1 X75.868 Y107.269 E2.67445
G1 X75.515 Y107.963 E2.69853
G1 X74.963 Y108.515 E2.72269
G1 X74.268 Y108.868 E2.74681
G1 X73.500 Y108.989 E2.77086
G1 X72.732 Y108.868 E2.79492
G1 X72.037 Y108.515 E2.81904
G1 X71.485 Y107.963 E2.84319
G1 X71.132 Y107.269 E2.86727
G1 X71.010 Y106.500 E2.89137
G1 X71.132 Y105.731 E2.91546
G1 X71.485 Y105.037 E2.93955
G1 X72.037 Y104.485 E2.96370
G1 X72.731 Y104.132 E2.98778
G1 X73.500 Y104.010 E3.01188
G1 X74.269 Y104.132 E3.03597
G1 X74.963 Y104.485 E3.06006
G1 X75.462 Y104.984 E3.08189
G1 X75.003 Y105.409 F7800.000
G1 F1800
G1 X75.266 Y105.926 E3.09986
G1 X75.357 Y106.500 E3.11783
G1 X75.266 Y107.074 E3.13580
G1 X75.003 Y107.591 E3.15377
G1 X74.591 Y108.003 E3.17178
G1 X74.073 Y108.266 E3.18976
G1 X73.500 Y108.356 E3.20771
G1 X72.927 Y108.266 E3.22566
G1 X72.409 Y108.003 E3.24364
G1 X71.997 Y107.591 E3.26165
G1 X71.734 Y107.074 E3.27962
G1 X71.643 Y106.500 E3.29759
G1 X71.734 Y105.926 E3.31556
G1 X71.997 Y105.409 E3.33353
G1 X72.409 Y104.997 E3.35154
G1 X72.926 Y104.734 E3.36951
G1 X73.500 Y104.643 E3.38748
G1 X74.074 Y104.734 E3.40545
G1 X74.591 Y104.997 E3.42342
G1 X74.950 Y105.356 E3.43911
G1 X75.003 Y105.409 F7800.000
G1 E1.43911 F2400.00000
G92 E0
G1 X123.973 Y65.335 F7800.000
G1 E2.00000 F2400.00000
G1 F1800
G1 X123.531 Y64.465 E2.03020
G1 X123.377 Y63.500 E2.06042
G1 X123.531 Y62.535 E2.09064
G1 X123.973 Y61.665 E2.12084
G1 X124.665 Y60.973 E2.15113
G1 X125.535 Y60.531 E2.18133
G1 X126.500 Y60.377 E2.21155
G1 X127.465 Y60.531 E2.24177
G1 X128.335 Y60.973 E2.27197
G1 X129.027 Y61.665 E2.30227
G1 X129.470 Y62.537 E2.33252
G1 X129.621 Y63.500 E2.36268
G1 X129.470 Y64.463 E2.39284
G1 X129.027 Y65.335 E2.42309
G1 X128.334 Y66.027 E2.45339
G1 X127.463 Y66.470 E2.48364
G1 X126.500 Y66.621 E2.51380
G1 X125.537 Y66.470 E2.54397
G1 X124.665 Y66.027 E2.57422
G1 X124.026 Y65.388 E2.60219
G1 X124.485 Y64.963 F7800.000
G1 F1800
G1 X124.132 Y64.269 E2.62628
G1 X124.010 Y63.500 E2.65037
G1 X124.132 Y62.731 E2.67447
G1 X124.485 Y62.037 E2.69855
G1 X125.037 Y61.485 E2.72270
G1 X125.731 Y61.132 E2.74679
G1 X126.500 Y61.010 E2.77088
G1 X127.269 Y61.132 E2.79498
G1 X127.963 Y61.485 E2.81906
G1 X128.515 Y62.037 E2.84321
G1 X128.868 Y62.732 E2.86733
G1 X128.989 Y63.500 E2.89139
G1 X128.868 Y64.268 E2.91545
G1 X128.515 Y64.963 E2.93956
G1 X127.963 Y65.515 E2.96372
G1 X127.268 Y65.868 E2.98783
G1 X126.500 Y65.989 E3.01189
G1 X125.732 Y65.868 E3.03595
G1 X125.037 Y65.515 E3.06006
G1 X124.538 Y65.016 E3.08190
G1 X124.997 Y64.591 F7800.000
G1 F1800
G1 X124.734 Y64.074 E3.09986
G1 X124.643 Y63.500 E3.11783
G1 X124.734 Y62.926 E3.13580
G1 X124.997 Y62.409 E3.15377
G1 X125.409 Y61.997 E3.17178
G1 X125.926 Y61.734 E3.18975
G1 X126.500 Y61.643 E3.20772
G1 X127.074 Y61.734 E3.22569
G1 X127.591 Y61.997 E3.24366
G1 X128.003 Y62.409 E3.26167
G1 X128.266 Y62.927 E3.27965
G1 X128.356 Y63.500 E3.29760
G1 X128.266 Y64.073 E3.31555
G1 X128.003 Y64.591 E3.33353
G1 X127.591 Y65.003 E3.35155
G1 X127.073 Y65.266 E3.36953
G1 X126.500 Y65.356 E3.38748
G1 X125.927 Y65.266 E3.40543
G1 X125.409 Y65.003 E3.42341
G1 X125.050 Y64.644 E3.43910
G1 X124.997 Y64.591 F7800.000
G1 E1.43910 F2400.00000
G92 E0
G1 X130.400 Y59.600 F7800.000
G1 E2.00000 F2400.00000
G1 F1800
G1 X130.400 Y109.961 E3.55823
G1 X130.252 Y112.980 E3.65177
G1 X129.814 Y115.930 E3.74406
G1 X129.089 Y118.824 E3.83636
G1 X128.084 Y121.633 E3.92866
G1 X126.808 Y124.330 E4.02098
G1 X125.275 Y126.888 E4.11326
G1 X123.498 Y129.285 E4.20558
G1 X121.494 Y131.494 E4.29787
G1 X119.285 Y133.498 E4.39016
G1 X116.888 Y135.275 E4.48248
G1 X114.330 Y136.808 E4.57476
G1 X111.633 Y138.084 E4.66707
G1 X108.824 Y139.089 E4.75938
G1 X105.930 Y139.814 E4.85168
G1 X102.980 Y140.252 E4.94397
G1 X100.000 Y140.398 E5.03629
G1 X97.020 Y140.252 E5.12860
G1 X94.070 Y139.814 E5.22089
G1 X91.202 Y139.096 E5.31236
G1 X88.366 Y138.084 E5.40552
G1 X85.670 Y136.808 E5.49781
G1 X83.112 Y135.275 E5.59009
G1 X80.715 Y133.498 E5.68241
G1 X78.506 Y131.494 E5.77470
G1 X76.503 Y129.285 E5.86697
G1 X74.711 Y126.865 E5.96013
G1 X73.192 Y124.330 E6.05159
G1 X71.916 Y121.633 E6.14390
G1 X70.911 Y118.824 E6.23621
G1 X70.186 Y115.930 E6.32850
G1 X69.748 Y112.980 E6.42080
G1 X69.600 Y109.961 E6.51433
G1 X69.600 Y59.600 E8.07256
G1 X130.325 Y59.600 E9.95149
G1 X131.025 Y58.975 F7800.000
G1 F1800
G1 X131.025 Y109.976 E11.52953
G1 X130.875 Y113.041 E11.62449
G1 X130.428 Y116.053 E11.71868
G1 X129.688 Y119.006 E11.81288
G1 X128.662 Y121.872 E11.90709
G1 X127.360 Y124.625 E12.00130
G1 X125.795 Y127.236 E12.09548
G1 X123.982 Y129.682 E12.18970
G1 X121.937 Y131.937 E12.28389
G1 X119.682 Y133.982 E12.37807
G1 X117.236 Y135.795 E12.47229
