; generated by Slic3r 1.3.0 on 2019-07-10 at 20:44:10

; external perimeters extrusion width = 0.55mm (3.72mm^3/s)
; perimeters extrusion width = 0.70mm (9.70mm^3/s)
; infill extrusion width = 0.63mm (11.43mm^3/s)
; solid infill extrusion width = 0.70mm (3.23mm^3/s)
; top infill extrusion width = 0.70mm (2.42mm^3/s)
; support material extrusion width = 0.55mm (7.45mm^3/s)

M107
M190 S65 ; set bed temperature and wait for it to be reached
M104 S205 ; set temperature
G28 ; home all axes
G1 Z5 F5000 ; lift nozzle

; Filament gcode

M109 S205 ; set temperature and wait for it to be reached
G21 ; set units to millimeters
G90 ; use absolute coordinates
M82 ; use absolute distances for extrusion
G92 E0
G1 Z0.350 F7800.000
G1 E-2.00000 F2400.00000
G92 E0
G1 X67.390 Y84.445 F7800.000
G1 E2.00000 F2400.00000
G1 F1800
G1 X68.945 Y83.702 E2.05329
G1 X95.332 Y75.090 E2.91213
G1 X95.775 Y74.962 E2.92640
G1 X96.632 Y74.747 E2.95374
G1 X97.269 Y74.620 E2.97384
G1 X98.146 Y74.490 E3.00127
G1 X98.795 Y74.426 E3.02145
G1 X99.678 Y74.383 E3.04882
G1 X100.322 Y74.383 E3.06873
G1 X101.205 Y74.426 E3.09609
G1 X101.854 Y74.490 E3.11628
G1 X102.731 Y74.620 E3.14370
G1 X103.368 Y74.747 E3.16380
G1 X104.668 Y75.090 E3.20541
G1 X131.055 Y83.702 E4.06424
G1 X133.080 Y84.780 E4.13520
G1 X134.615 Y86.484 E4.20617
G1 X135.477 Y88.609 E4.27713
G1 X135.617 Y90.326 E4.33042
G1 X135.477 Y93.168 E4.41847
G1 X135.413 Y93.812 E4.43850
G1 X134.996 Y96.628 E4.52658
G1 X134.869 Y97.269 E4.54679
G1 X134.177 Y100.029 E4.63484
G1 X133.989 Y100.648 E4.65484
G1 X133.031 Y103.328 E4.74291
G1 X132.782 Y103.931 E4.76309
G1 X131.565 Y106.504 E4.85116
G1 X131.258 Y107.077 E4.87126
G1 X129.795 Y109.518 E4.95932
G1 X129.433 Y110.060 E4.97951
G1 X127.737 Y112.345 E5.06756
G1 X127.326 Y112.845 E5.08758
G1 X125.415 Y114.954 E5.17564
G1 X124.954 Y115.415 E5.19580
G1 X122.845 Y117.326 E5.28386
G1 X122.345 Y117.737 E5.30388
G1 X120.060 Y119.433 E5.39192
G1 X119.518 Y119.795 E5.41212
G1 X117.077 Y121.258 E5.50018
G1 X116.504 Y121.565 E5.52028
G1 X113.931 Y122.782 E5.60835
G1 X113.328 Y123.031 E5.62853
G1 X110.648 Y123.989 E5.71660
G1 X110.029 Y124.177 E5.73660
G1 X107.269 Y124.869 E5.82464
G1 X106.629 Y124.996 E5.84485
G1 X103.812 Y125.413 E5.93294
G1 X103.168 Y125.477 E5.95297
G1 X100.326 Y125.617 E6.04102
G1 X99.674 Y125.617 E6.06119
G1 X96.832 Y125.477 E6.14923
G1 X96.188 Y125.413 E6.16927
G1 X93.372 Y124.996 E6.25735
G1 X92.731 Y124.869 E6.27756
G1 X89.971 Y124.177 E6.36560
G1 X89.352 Y123.989 E6.38561
G1 X86.672 Y123.031 E6.47367
G1 X86.069 Y122.782 E6.49385
G1 X83.496 Y121.565 E6.58192
G1 X82.923 Y121.258 E6.60203
G1 X80.482 Y119.795 E6.69008
G1 X79.940 Y119.433 E6.71028
G1 X77.655 Y117.737 E6.79833
G1 X77.155 Y117.326 E6.81834
G1 X75.046 Y115.415 E6.90640
G1 X74.585 Y114.954 E6.92657
G1 X72.674 Y112.845 E7.01463
G1 X72.263 Y112.346 E7.03464
G1 X70.567 Y110.060 E7.12269
G1 X70.205 Y109.518 E7.14289
G1 X68.742 Y107.077 E7.23094
G1 X68.435 Y106.504 E7.25105
G1 X67.218 Y103.931 E7.33912
G1 X66.969 Y103.328 E7.35930
G1 X66.011 Y100.648 E7.44736
G1 X65.823 Y100.029 E7.46737
G1 X65.131 Y97.269 E7.55541
G1 X65.004 Y96.629 E7.57562
G1 X64.587 Y93.812 E7.66371
G1 X64.523 Y93.168 E7.68374
G1 X64.383 Y90.326 E7.77179
G1 X64.668 Y88.050 E7.84275
G1 X65.713 Y86.008 E7.91371
G1 X67.336 Y84.496 E7.98235
G1 E5.98235 F2400.00000
G92 E0
G1 X105.130 Y115.986 F7800.000
G1 E2.00000 F2400.00000
G1 F1800
G1 X104.265 Y116.461 E2.03053
G1 X103.288 Y116.845 E2.06300
G1 X102.236 Y117.125 E2.09671
G1 X101.131 Y117.296 E2.13131
G1 X100.000 Y117.353 E2.16634
G1 X98.869 Y117.296 E2.20137
G1 X97.764 Y117.125 E2.23597
G1 X96.712 Y116.845 E2.26967
G1 X95.735 Y116.461 E2.30214
G1 X94.858 Y115.979 E2.33312
G1 X94.101 Y115.409 E2.36241
G1 X93.485 Y114.761 E2.39008
G1 X93.025 Y114.049 E2.41632
G1 X92.742 Y113.288 E2.44145
G1 X92.644 Y112.500 E2.46600
G1 X92.742 Y111.712 E2.49056
G1 X93.025 Y110.951 E2.51569
G1 X93.485 Y110.239 E2.54193
G1 X94.101 Y109.591 E2.56960
G1 X94.858 Y109.021 E2.59889
G1 X95.735 Y108.539 E2.62986
G1 X96.712 Y108.155 E2.66234
G1 X97.813 Y107.862 E2.69761
G1 X98.887 Y107.703 E2.73118
G1 X100.000 Y107.648 E2.76568
G1 X101.130 Y107.704 E2.80067
G1 X102.187 Y107.862 E2.83375
G1 X103.288 Y108.155 E2.86902
G1 X104.265 Y108.539 E2.90149
G1 X105.142 Y109.021 E2.93246
G1 X105.899 Y109.591 E2.96175
G1 X106.515 Y110.239 E2.98943
G1 X106.975 Y110.951 E3.01566
G1 X107.258 Y111.713 E3.04080
G1 X107.355 Y112.500 E3.06534
G1 X107.258 Y113.287 E3.08989
G1 X106.975 Y114.049 E3.11503
G1 X106.515 Y114.761 E3.14126
G1 X105.898 Y115.409 E3.16895
G1 X105.190 Y115.941 E3.19634
G1 X105.130 Y115.986 F7800.000
G1 E1.19634 F2400.00000
G92 E0
G1 X101.582 Y94.871 F7800.000
G1 E2.00000 F2400.00000
G1 F1800
G1 X100.000 Y95.123 E2.04958
G1 X98.418 Y94.871 E2.09915
G1 X96.989 Y94.145 E2.14873
G1 X95.855 Y93.011 E2.19836
G1 X95.129 Y91.582 E2.24794
G1 X94.877 Y90.000 E2.29752
G1 X95.129 Y88.418 E2.34709
G1 X95.855 Y86.989 E2.39668
G1 X96.989 Y85.855 E2.44630
G1 X98.418 Y85.128 E2.49591
G1 X100.000 Y84.878 E2.54545
G1 X101.582 Y85.128 E2.59500
G1 X103.011 Y85.855 E2.64461
G1 X104.145 Y86.989 E2.69423
G1 X104.872 Y88.418 E2.74384
G1 X105.122 Y90.000 E2.79339
G1 X104.872 Y91.582 E2.84293
G1 X104.145 Y93.011 E2.89254
G1 X103.011 Y94.145 E2.94216
G1 X101.649 Y94.837 E2.98943
G1 X101.387 Y94.270 F7800.000
G1 F1800
G1 X100.000 Y94.490 E3.03288
G1 X98.613 Y94.270 E3.07633
G1 X97.361 Y93.633 E3.11979
G1 X96.367 Y92.639 E3.16328
G1 X95.730 Y91.387 E3.20674
G1 X95.510 Y90.000 E3.25020
G1 X95.730 Y88.613 E3.29365
G1 X96.367 Y87.361 E3.33711
G1 X97.361 Y86.367 E3.38060
G1 X98.613 Y85.730 E3.42408
G1 X100.000 Y85.511 E3.46751
G1 X101.387 Y85.730 E3.51094
G1 X102.639 Y86.367 E3.55442
G1 X103.633 Y87.361 E3.59791
G1 X104.270 Y88.613 E3.64138
G1 X104.489 Y90.000 E3.68482
G1 X104.270 Y91.387 E3.72825
G1 X103.633 Y92.639 E3.77173
G1 X102.639 Y93.633 E3.81522
G1 X101.454 Y94.236 E3.85636
G1 X101.191 Y93.668 F7800.000
G1 F1800
G1 X100.000 Y93.857 E3.89369
G1 X98.809 Y93.668 E3.93101
G1 X97.733 Y93.121 E3.96836
G1 X96.879 Y92.267 E4.00571
G1 X96.332 Y91.191 E4.04305
G1 X96.143 Y90.000 E4.08038
G1 X96.332 Y88.809 E4.11771
G1 X96.879 Y87.733 E4.15505
G1 X97.733 Y86.879 E4.19240
G1 X98.809 Y86.332 E4.22975
G1 X100.000 Y86.144 E4.26707
G1 X101.191 Y86.332 E4.30439
G1 X102.267 Y86.879 E4.34174
G1 X103.121 Y87.733 E4.37909
G1 X103.668 Y88.809 E4.41644
G1 X103.856 Y90.000 E4.45375
G1 X103.668 Y91.191 E4.49107
G1 X103.121 Y92.267 E4.52842
G1 X102.267 Y93.121 E4.56577
G1 X101.258 Y93.634 E4.60080
G1 X101.191 Y93.668 F7800.000
G1 E2.60080 F2400.00000
G92 E0
G1 X107.476 Y91.600 F7800.000
G1 E2.00000 F2400.00000
G1 F1800
G1 X127.319 Y91.600 E2.61397
G1 X127.266 Y92.685 E2.64760
G1 X126.872 Y95.346 E2.73081
G1 X126.218 Y97.953 E2.81399
G1 X125.313 Y100.485 E2.89719
G1 X124.163 Y102.916 E2.98039
G1 X122.781 Y105.222 E3.06357
G1 X121.179 Y107.381 E3.14676
G1 X119.373 Y109.373 E3.22996
G1 X117.381 Y111.179 E3.31316
G1 X115.222 Y112.781 E3.39635
G1 X112.916 Y114.163 E3.47953
G1 X110.485 Y115.313 E3.56273
G1 X107.953 Y116.218 E3.64593
G1 X107.000 Y116.457 E3.67634
G1 X106.858 Y116.214 E3.68505
G1 X107.502 Y115.538 E3.71394
G1 X108.099 Y114.612 E3.74801
G1 X108.481 Y113.586 E3.78191
G1 X108.614 Y112.500 E3.81575
G1 X108.481 Y111.414 E3.84959
G1 X108.099 Y110.388 E3.88348
G1 X107.502 Y109.462 E3.91756
G1 X106.733 Y108.654 E3.95207
G1 X105.823 Y107.969 E3.98732
G1 X104.797 Y107.406 E4.02353
G1 X103.679 Y106.966 E4.06069
G1 X102.441 Y106.636 E4.10035
G1 X101.253 Y106.459 E4.13749
G1 X100.000 Y106.396 E4.17633
G1 X98.764 Y106.458 E4.21463
G1 X97.560 Y106.636 E4.25226
G1 X96.321 Y106.966 E4.29196
G1 X95.203 Y107.406 E4.32912
G1 X94.177 Y107.969 E4.36533
G1 X93.267 Y108.654 E4.40058
G1 X92.498 Y109.462 E4.43509
G1 X91.901 Y110.388 E4.46917
G1 X91.519 Y111.413 E4.50303
G1 X91.385 Y112.500 E4.53690
G1 X91.519 Y113.587 E4.57078
G1 X91.901 Y114.612 E4.60464
G1 X92.498 Y115.538 E4.63872
G1 X93.142 Y116.214 E4.66760
G1 X93.000 Y116.457 E4.67632
G1 X92.047 Y116.218 E4.70672
G1 X89.515 Y115.313 E4.78993
G1 X87.084 Y114.163 E4.87312
G1 X84.778 Y112.781 E4.95631
G1 X82.619 Y111.179 E5.03949
G1 X80.627 Y109.373 E5.12270
G1 X78.821 Y107.381 E5.20590
G1 X77.219 Y105.222 E5.28908
G1 X75.837 Y102.916 E5.37227
G1 X74.687 Y100.485 E5.45546
G1 X73.782 Y97.953 E5.53867
G1 X73.128 Y95.346 E5.62185
G1 X72.734 Y92.685 E5.70506
G1 X72.681 Y91.600 E5.73868
G1 X92.524 Y91.600 E6.35266
G1 X92.637 Y89.275 E6.42467
G1 X92.744 Y88.557 E6.44713
G1 X92.921 Y87.852 E6.46963
G1 X93.165 Y87.169 E6.49207
G1 X93.475 Y86.512 E6.51454
G1 X93.849 Y85.890 E6.53701
G1 X94.281 Y85.306 E6.55949
G1 X94.769 Y84.769 E6.58193
G1 X95.306 Y84.281 E6.60438
G1 X95.890 Y83.849 E6.62685
G1 X96.512 Y83.475 E6.64932
G1 X97.169 Y83.165 E6.67179
G1 X97.852 Y82.921 E6.69424
G1 X98.557 Y82.744 E6.71673
G1 X99.275 Y82.637 E6.73918
G1 X100.004 Y82.602 E6.76177
G1 X100.725 Y82.637 E6.78410
G1 X101.443 Y82.744 E6.80656
G1 X102.148 Y82.921 E6.82906
G1 X102.831 Y83.165 E6.85150
G1 X103.488 Y83.475 E6.87397
G1 X104.110 Y83.849 E6.89644
G1 X104.694 Y84.281 E6.91892
G1 X105.231 Y84.769 E6.94136
G1 X105.719 Y85.306 E6.96381
G1 X106.151 Y85.890 E6.98628
G1 X106.525 Y86.512 E7.00875
G1 X106.835 Y87.169 E7.03122
G1 X107.079 Y87.852 E7.05367
G1 X107.256 Y88.557 E7.07616
G1 X107.363 Y89.275 E7.09862
G1 X107.473 Y91.525 E7.16831
G1 X108.071 Y90.975 F7800.000
G1 F1800
G1 X127.976 Y90.975 E7.78418
G1 X127.889 Y92.746 E7.83906
G1 X127.486 Y95.468 E7.92418
G1 X126.817 Y98.135 E8.00926
G1 X125.891 Y100.725 E8.09436
G1 X124.715 Y103.211 E8.17946
G1 X123.302 Y105.570 E8.26454
G1 X121.663 Y107.778 E8.34963
G1 X119.816 Y109.816 E8.43473
G1 X117.778 Y111.663 E8.51983
G1 X115.570 Y113.302 E8.60491
G1 X113.211 Y114.715 E8.69000
G1 X110.725 Y115.891 E8.77510
G1 X108.135 Y116.817 E8.86020
G1 X105.468 Y117.486 E8.94528
G1 X103.555 Y117.769 E9.00512
G1 X103.468 Y117.446 E9.01546
G1 X104.531 Y117.027 E9.05080
G1 X105.469 Y116.512 E9.08393
G1 X106.315 Y115.878 E9.11663
G1 X107.009 Y115.150 E9.14775
G1 X107.537 Y114.330 E9.17791
G1 X107.870 Y113.437 E9.20743
G1 X107.984 Y112.500 E9.23662
G1 X107.870 Y111.563 E9.26581
G1 X107.537 Y110.670 E9.29533
G1 X107.009 Y109.850 E9.32548
G1 X106.316 Y109.123 E9.35657
G1 X105.483 Y108.495 E9.38885
G1 X104.531 Y107.973 E9.42244
G1 X103.484 Y107.560 E9.45726
G1 X102.314 Y107.249 E9.49472
G1 X101.192 Y107.082 E9.52983
G1 X100.000 Y107.022 E9.56674
G1 X98.825 Y107.081 E9.60314
G1 X97.687 Y107.249 E9.63874
G1 X96.516 Y107.560 E9.67623
G1 X95.469 Y107.973 E9.71104
G1 X94.517 Y108.495 E9.74463
G1 X93.684 Y109.123 E9.77691
G1 X92.991 Y109.850 E9.80800
G1 X92.463 Y110.670 E9.83815
G1 X92.131 Y111.563 E9.86765
G1 X92.015 Y112.500 E9.89687
G1 X92.131 Y113.437 E9.92608
G1 X92.463 Y114.330 E9.95558
G1 X92.991 Y115.150 E9.98573
G1 X93.684 Y115.877 E10.01683
G1 X94.517 Y116.505 E10.04910
G1 X95.469 Y117.027 E10.08269
G1 X96.532 Y117.446 E10.11803
G1 X96.445 Y117.769 E10.12838
G1 X94.532 Y117.486 E10.18822
G1 X91.865 Y116.817 E10.27329
G1 X89.275 Y115.891 E10.35840
G1 X86.789 Y114.715 E10.44350
G1 X84.430 Y113.302 E10.52858
G1 X82.222 Y111.663 E10.61367
G1 X80.184 Y109.816 E10.69877
G1 X78.337 Y107.778 E10.78387
G1 X76.698 Y105.570 E10.86895
G1 X75.285 Y103.211 E10.95404
G1 X74.109 Y100.725 E11.03914
G1 X73.183 Y98.135 E11.12424
G1 X72.514 Y95.468 E11.20932
G1 X72.111 Y92.746 E11.29443
G1 X72.024 Y90.975 E11.34931
G1 X91.929 Y90.975 E11.96518
G1 X92.014 Y89.214 E12.01974
G1 X92.130 Y88.435 E12.04410
G1 X92.322 Y87.670 E12.06849
G1 X92.587 Y86.929 E12.09283
G1 X92.924 Y86.217 E12.11721
G1 X93.329 Y85.542 E12.14157
G1 X93.798 Y84.909 E12.16595
G1 X94.326 Y84.326 E12.19029
G1 X94.909 Y83.798 E12.21464
G1 X95.542 Y83.329 E12.23902
G1 X96.217 Y82.924 E12.26337
G1 X96.929 Y82.587 E12.28775
G1 X97.670 Y82.322 E12.31210
G1 X98.435 Y82.130 E12.33648
G1 X99.213 Y82.014 E12.36084
G1 X100.004 Y81.976 E12.38534
G1 X100.786 Y82.014 E12.40956
G1 X101.565 Y82.130 E12.43393
G1 X102.330 Y82.322 E12.45831
G1 X103.071 Y82.587 E12.48266
G1 X103.783 Y82.924 E12.50704
G1 X104.458 Y83.329 E12.53139
G1 X105.091 Y83.798 E12.55577
G1 X105.674 Y84.326 E12.58012
G1 X106.202 Y84.909 E12.60447
G1 X106.671 Y85.542 E12.62884
G1 X107.076 Y86.217 E12.65320
G1 X107.413 Y86.929 E12.67758
G1 X107.678 Y87.670 E12.70192
G1 X107.870 Y88.435 E12.72631
G1 X107.986 Y89.214 E12.75067
G1 X108.068 Y90.900 E12.80291
G1 X108.667 Y90.350 F7800.000
G1 F1800
G1 X128.632 Y90.350 E13.42068
G1 X128.511 Y92.808 E13.49681
G1 X128.099 Y95.590 E13.58383
G1 X127.416 Y98.316 E13.67081
G1 X126.469 Y100.964 E13.75780
G1 X125.267 Y103.506 E13.84481
G1 X123.822 Y105.917 E13.93179
G1 X122.146 Y108.175 E14.01878
G1 X120.258 Y110.258 E14.10578
G1 X118.175 Y112.146 E14.19277
G1 X115.917 Y113.822 E14.27976
G1 X113.506 Y115.267 E14.36675
G1 X110.964 Y116.469 E14.45375
G1 X108.316 Y117.416 E14.54075
G1 X105.590 Y118.099 E14.62772
G1 X102.808 Y118.511 E14.71474
G1 X100.000 Y118.650 E14.80172
G1 X97.192 Y118.511 E14.88870
G1 X94.410 Y118.099 E14.97571
G1 X91.684 Y117.416 E15.06269
G1 X89.036 Y116.469 E15.14969
G1 X86.494 Y115.267 E15.23669
G1 X84.083 Y113.822 E15.32368
G1 X81.825 Y112.146 E15.41066
G1 X79.742 Y110.258 E15.49766
G1 X77.854 Y108.175 E15.58466
G1 X76.178 Y105.917 E15.67164
G1 X74.733 Y103.506 E15.75863
G1 X73.531 Y100.964 E15.84563
G1 X72.584 Y98.316 E15.93263
G1 X71.901 Y95.590 E16.01961
G1 X71.489 Y92.808 E16.10663
G1 X71.368 Y90.350 E16.18276
G1 X91.333 Y90.350 E16.80053
G1 X91.392 Y89.152 E16.83763
G1 X91.517 Y88.312 E16.86390
G1 X91.723 Y87.489 E16.89018
G1 X92.009 Y86.690 E16.91642
G1 X92.372 Y85.922 E16.94270
G1 X92.808 Y85.195 E16.96895
G1 X93.314 Y84.512 E16.99523
G1 X93.884 Y83.884 E17.02148
G1 X94.512 Y83.314 E17.04773
G1 X95.195 Y82.808 E17.07401
G1 X95.922 Y82.372 E17.10026
G1 X96.690 Y82.009 E17.12654
G1 X97.489 Y81.723 E17.15278
G1 X98.312 Y81.517 E17.17906
G1 X99.152 Y81.392 E17.20533
G1 X100.004 Y81.351 E17.23173
G1 X100.848 Y81.392 E17.25785
G1 X101.688 Y81.517 E17.28412
G1 X102.511 Y81.723 E17.31040
G1 X103.310 Y82.009 E17.33664
G1 X104.078 Y82.372 E17.36292
G1 X104.805 Y82.808 E17.38917
G1 X105.488 Y83.314 E17.41545
G1 X106.116 Y83.884 E17.44170
G1 X106.686 Y84.512 E17.46795
G1 X107.192 Y85.195 E17.49423
G1 X107.628 Y85.922 E17.52048
G1 X107.991 Y86.690 E17.54676
G1 X108.277 Y87.489 E17.57300
G1 X108.483 Y88.312 E17.59928
G1 X108.608 Y89.152 E17.62555
G1 X108.663 Y90.275 E17.66033
G1 X108.682 Y90.850 F7800.000
G1 E15.66033 F2400.00000
G92 E0
G1 X104.866 Y92.735 F7800.000
G1 E2.00000 F2400.00000
G1 F1800
G1 X107.054 Y90.548 E2.09641
G1 X107.013 Y89.699 E2.12289
G1 X105.331 Y91.380 E2.19698
G1 X105.499 Y90.323 E2.23033
G1 X106.950 Y88.871 E2.29431
G1 X106.886 Y88.436 E2.30802
G1 X106.807 Y88.124 E2.31804
G1 X105.399 Y89.533 E2.38011
G1 X105.278 Y88.764 E2.40435
G1 X106.599 Y87.443 E2.46260
G1 X106.500 Y87.165 E2.47178
G1 X106.335 Y86.817 E2.48380
G1 X105.047 Y88.105 E2.54058
G1 X104.747 Y87.515 E2.56120
G1 X106.022 Y86.240 E2.61738
G1 X105.874 Y85.994 E2.62633
G1 X105.663 Y85.709 E2.63738
G1 X104.447 Y86.925 E2.69098
G1 X104.414 Y86.861 E2.69323
G1 X104.017 Y86.464 E2.71070
G1 X105.261 Y85.221 E2.76551
G1 X105.032 Y84.968 E2.77614
G1 X104.818 Y84.774 E2.78514
G1 X103.572 Y86.019 E2.84003
G1 X103.124 Y85.578 E2.85964
G1 X104.333 Y84.369 E2.91295
G1 X104.006 Y84.126 E2.92565
G1 X103.806 Y84.006 E2.93292
G1 X102.534 Y85.278 E2.98898
G1 X101.944 Y84.978 E3.00960
G1 X103.233 Y83.688 E3.06643
G1 X102.835 Y83.500 E3.08017
G1 X102.612 Y83.420 E3.08756
G1 X101.299 Y84.733 E3.14539
G1 X100.531 Y84.611 E3.16964
