; generated by Slic3r 1.3.0 on 2019-07-10 at 20:43:17

; external perimeters extrusion width = 0.55mm (3.72mm^3/s)
; perimeters extrusion width = 0.70mm (9.70mm^3/s)
; infill extrusion width = 0.63mm (11.43mm^3/s)
; solid infill extrusion width = 0.70mm (3.23mm^3/s)
; top infill extrusion width = 0.70mm (2.42mm^3/s)
; support material extrusion width = 0.55mm (7.45mm^3/s)

M107
M190 S65 ; set bed temperature and wait for it to be reached
M104 S205 ; set temperature
G28 ; home all axes
G1 Z5 F5000 ; lift nozzle

; Filament gcode

M109 S205 ; set temperature and wait for it to be reached
G21 ; set units to millimeters
G90 ; use absolute coordinates
M82 ; use absolute distances for extrusion
G92 E0
G1 Z0.350 F7800.000
G1 E-2.00000 F2400.00000
G92 E0
G1 X63.586 Y93.060 F7800.000
G1 E2.00000 F2400.00000
G1 F1800
G1 X85.979 Y73.052 E2.92915
G1 X87.368 Y71.840 E2.98619
G1 X87.968 Y71.376 E3.00965
G1 X89.432 Y70.369 E3.06463
G1 X90.125 Y69.952 E3.08965
G1 X91.649 Y69.158 E3.14284
G1 X92.443 Y68.808 E3.16969
G1 X94.014 Y68.236 E3.22143
G1 X94.886 Y67.985 E3.24950
G1 X96.489 Y67.640 E3.30022
G1 X97.408 Y67.508 E3.32896
G1 X99.026 Y67.392 E3.37914
G1 X99.974 Y67.392 E3.40848
G1 X101.592 Y67.508 E3.45866
G1 X102.511 Y67.639 E3.48739
G1 X104.114 Y67.985 E3.53812
G1 X104.986 Y68.236 E3.56619
G1 X106.557 Y68.808 E3.61792
G1 X107.351 Y69.158 E3.64478
G1 X108.875 Y69.952 E3.69795
G1 X109.568 Y70.369 E3.72299
G1 X111.032 Y71.376 E3.77797
G1 X111.587 Y71.802 E3.79959
G1 X136.309 Y92.968 E4.80658
G1 X137.766 Y94.738 E4.87754
G1 X138.625 Y98.000 E4.98190
G1 X138.625 Y112.000 E5.41508
G1 X138.228 Y114.259 E5.48604
G1 X137.085 Y116.247 E5.55701
G1 X134.960 Y117.927 E5.64081
G1 X110.238 Y130.274 E6.49583
G1 X109.743 Y130.496 E6.51261
G1 X108.279 Y131.083 E6.56142
G1 X107.740 Y131.273 E6.57911
G1 X106.216 Y131.736 E6.62840
G1 X105.668 Y131.877 E6.64591
G1 X104.097 Y132.211 E6.69560
G1 X103.548 Y132.304 E6.71283
G1 X101.946 Y132.506 E6.76279
G1 X101.391 Y132.552 E6.78001
G1 X99.774 Y132.619 E6.83008
G1 X99.226 Y132.619 E6.84705
G1 X97.609 Y132.552 E6.89713
G1 X97.054 Y132.506 E6.91435
G1 X95.452 Y132.304 E6.96431
G1 X94.903 Y132.211 E6.98153
G1 X93.332 Y131.877 E7.03123
G1 X92.784 Y131.736 E7.04874
G1 X91.260 Y131.273 E7.09804
G1 X90.721 Y131.083 E7.11571
G1 X89.257 Y130.496 E7.16453
G1 X88.720 Y130.253 E7.18275
G1 X87.331 Y129.547 E7.23096
G1 X64.938 Y117.875 E8.01231
G1 X63.118 Y116.479 E8.08327
G1 X61.884 Y114.546 E8.15424
G1 X61.375 Y112.000 E8.23456
G1 X61.375 Y98.000 E8.66774
G1 X61.772 Y95.741 E8.73870
G1 X63.544 Y93.122 E8.83655
G1 E6.83655 F2400.00000
G92 E0
G1 X111.338 Y121.260 F7800.000
G1 E2.00000 F2400.00000
G1 F1800
G1 X111.082 Y120.988 E2.01156
G1 X111.738 Y120.366 E2.03954
G1 X112.667 Y119.287 E2.08360
G1 X113.470 Y118.134 E2.12707
G1 X114.138 Y116.917 E2.17002
G1 X114.707 Y115.549 E2.21588
G1 X115.042 Y115.667 E2.22687
G1 X114.960 Y115.946 E2.23587
G1 X114.429 Y117.204 E2.27813
G1 X113.755 Y118.413 E2.32095
G1 X112.944 Y119.561 E2.36445
G1 X112.003 Y120.638 E2.40870
G1 X111.393 Y121.209 E2.43455
G1 X111.245 Y120.898 F7800.000
G1 E0.43455 F2400.00000
G92 E0
G1 X114.968 Y115.269 F7800.000
G1 E2.00000 F2400.00000
G1 F1800
G1 X115.208 Y114.408 E2.04403
G1 F1800
G1 X115.400 Y113.312 E2.09585
G1 X115.492 Y112.000 E2.15702
G1 E0.15702 F2400.00000
G92 E0
G1 X110.968 Y121.378 F7800.000
G1 E2.00000 F2400.00000
G1 F1800
G1 X109.664 Y122.388 E2.08088
G1 X108.352 Y123.217 E2.15702
G1 X107.044 Y123.885 E2.22904
G1 X105.645 Y124.452 E2.30311
G1 X104.164 Y124.907 E2.37909
G1 F1800
G1 X102.616 Y125.238 E2.45245
G1 X101.041 Y125.437 E2.52606
G1 X99.500 Y125.501 E2.59759
G1 X97.959 Y125.437 E2.66912
G1 X96.370 Y125.237 E2.74335
G1 X94.836 Y124.907 E2.81610
G1 X93.375 Y124.459 E2.88697
G1 X91.998 Y123.903 E2.95581
G1 X90.606 Y123.194 E3.02824
G1 X89.336 Y122.388 E3.09801
G1 F1800
G1 X88.032 Y121.378 E3.17889
G1 X87.918 Y120.988 F7800.000
G1 F1800
G1 X87.662 Y121.260 E3.19044
G1 X86.997 Y120.638 E3.21862
G1 X86.056 Y119.561 E3.26286
G1 X85.245 Y118.413 E3.30637
G1 X84.571 Y117.204 E3.34919
G1 X84.040 Y115.946 E3.39144
G1 X83.958 Y115.667 E3.40044
G1 X84.293 Y115.548 E3.41143
G1 X84.862 Y116.917 E3.45729
G1 X85.530 Y118.134 E3.50024
G1 X86.333 Y119.287 E3.54372
G1 X87.262 Y120.366 E3.58778
G1 X87.864 Y120.937 E3.61344
G1 X87.558 Y121.088 F7800.000
G1 E1.61344 F2400.00000
G92 E0
G1 X84.032 Y115.269 F7800.000
G1 E2.00000 F2400.00000
G1 F1800
G1 X83.792 Y114.408 E2.04403
G1 X83.600 Y113.312 E2.09889
G1 X83.570 Y113.053 E2.11170
G1 F1800
G1 X83.509 Y112.000 E2.16096
G1 E0.16096 F2400.00000
G92 E0
G1 X75.646 Y108.716 F7800.000
G1 E2.00000 F2400.00000
G1 F1800
G1 X75.335 Y109.027 E2.01362
G1 X74.465 Y109.469 E2.04381
G1 X73.500 Y109.623 E2.07403
G1 X72.535 Y109.469 E2.10426
G1 X71.665 Y109.027 E2.13445
G1 X70.973 Y108.335 E2.16475
G1 X70.530 Y107.463 E2.19500
G1 X70.379 Y106.500 E2.22516
G1 X70.530 Y105.537 E2.25533
G1 X70.973 Y104.665 E2.28558
G1 X71.665 Y103.973 E2.31587
G1 X72.537 Y103.530 E2.34612
G1 X73.459 Y103.385 E2.37501
G1 X74.451 Y103.524 E2.40598
G1 X75.335 Y103.973 E2.43666
G1 X76.027 Y104.665 E2.46696
G1 X76.469 Y105.535 E2.49716
G1 X76.623 Y106.500 E2.52738
G1 X76.469 Y107.465 E2.55760
G1 X76.027 Y108.335 E2.58780
G1 X75.699 Y108.663 E2.60216
G1 X75.204 Y108.274 F7800.000
G1 F1800
G1 X74.963 Y108.515 E2.61270
G1 X74.269 Y108.868 E2.63678
G1 X73.500 Y108.990 E2.66088
G1 X72.731 Y108.868 E2.68498
G1 X72.037 Y108.515 E2.70906
G1 X71.485 Y107.963 E2.73321
G1 X71.132 Y107.268 E2.75733
G1 X71.011 Y106.500 E2.78139
G1 X71.132 Y105.732 E2.80544
G1 X71.485 Y105.037 E2.82956
G1 X72.037 Y104.485 E2.85371
G1 X72.732 Y104.132 E2.87783
G1 X73.465 Y104.017 E2.90078
G1 X74.261 Y104.128 E2.92564
G1 X74.963 Y104.485 E2.95002
G1 X75.515 Y105.037 E2.97418
G1 X75.868 Y105.731 E2.99826
G1 X75.990 Y106.500 E3.02235
G1 X75.868 Y107.269 E3.04645
G1 X75.515 Y107.963 E3.07053
G1 X75.257 Y108.221 E3.08182
G1 X74.762 Y107.832 F7800.000
G1 F1800
G1 X74.591 Y108.003 E3.08929
G1 X74.074 Y108.266 E3.10726
G1 X73.500 Y108.357 E3.12523
G1 X72.926 Y108.266 E3.14320
G1 X72.409 Y108.003 E3.16117
G1 X71.997 Y107.591 E3.17918
G1 X71.734 Y107.073 E3.19716
G1 X71.644 Y106.500 E3.21511
G1 X71.734 Y105.927 E3.23307
G1 X71.997 Y105.409 E3.25105
G1 X72.409 Y104.997 E3.26906
G1 X72.927 Y104.734 E3.28704
G1 X73.470 Y104.648 E3.30405
G1 X74.070 Y104.732 E3.32281
G1 X74.591 Y104.997 E3.34088
G1 X75.003 Y105.409 E3.35890
G1 X75.266 Y105.926 E3.37686
G1 X75.357 Y106.500 E3.39483
G1 X75.266 Y107.074 E3.41280
G1 X75.003 Y107.591 E3.43077
G1 X74.815 Y107.779 E3.43899
G1 X74.840 Y108.061 F7800.000
G1 E1.43899 F2400.00000
G92 E0
G1 X69.600 Y110.400 F7800.000
G1 E2.00000 F2400.00000
G1 F1800
G1 X69.600 Y99.600 E2.33418
G1 X82.398 Y99.600 E2.73018
G1 X82.398 Y110.400 E3.06436
G1 X69.675 Y110.400 E3.45804
G1 X68.975 Y111.025 F7800.000
G1 F1800
G1 X68.975 Y98.975 E3.83089
G1 X83.042 Y98.975 E4.26615
G1 X83.023 Y99.313 E4.27665
G1 X83.023 Y111.025 E4.63902
G1 X69.050 Y111.025 E5.07137
G1 X68.350 Y111.650 F7800.000
G1 F1800
G1 X68.350 Y98.350 E5.48289
G1 X83.704 Y98.350 E5.95795
G1 X83.648 Y99.331 E5.98835
G1 X83.648 Y111.650 E6.36952
G1 X68.425 Y111.650 E6.84054
G1 X68.497 Y111.172 F7800.000
G1 E4.84054 F2400.00000
G92 E0
G1 X85.545 Y90.272 F7800.000
G1 E2.00000 F2400.00000
G1 F1800
G1 X85.795 Y89.255 E2.03242
G1 X86.450 Y87.239 E2.09801
G1 X87.235 Y85.335 E2.16172
G1 X88.139 Y83.563 E2.22328
G1 X89.152 Y81.938 E2.28253
G1 X90.259 Y80.478 E2.33922
G1 X91.459 Y79.186 E2.39378
G1 X92.704 Y78.100 E2.44489
G1 X94.012 Y77.201 E2.49401
G1 X95.356 Y76.500 E2.54090
G1 X96.725 Y76.002 E2.58598
G1 X98.110 Y75.704 E2.62980
G1 X99.500 Y75.604 E2.67293
G1 X100.878 Y75.703 E2.71569
G1 X102.276 Y76.002 E2.75990
G1 X103.644 Y76.500 E2.80496
G1 X104.988 Y77.201 E2.85185
G1 X106.296 Y78.100 E2.90097
G1 X107.551 Y79.195 E2.95251
G1 X108.740 Y80.478 E3.00662
G1 X109.848 Y81.938 E3.06333
G1 X110.861 Y83.563 E3.12258
G1 X111.765 Y85.335 E3.18414
G1 X112.550 Y87.239 E3.24785
G1 X113.205 Y89.255 E3.31344
G1 X113.455 Y90.272 E3.34586
G1 X113.192 Y90.408 E3.35501
G1 X112.644 Y89.771 E3.38102
G1 X111.507 Y88.693 E3.42949
G1 X110.260 Y87.718 E3.47847
G1 X108.912 Y86.858 E3.52795
G1 X107.478 Y86.118 E3.57788
G1 X105.971 Y85.505 E3.62821
G1 X104.404 Y85.023 E3.67893
G1 X102.794 Y84.676 E3.72989
G1 X101.155 Y84.466 E3.78102
G1 X99.486 Y84.396 E3.83270
G1 X97.844 Y84.467 E3.88355
G1 X96.206 Y84.676 E3.93466
G1 X94.596 Y85.023 E3.98563
G1 X93.029 Y85.505 E4.03635
G1 X91.522 Y86.118 E4.08668
G1 X90.088 Y86.858 E4.13660
G1 X88.740 Y87.718 E4.18609
G1 X87.493 Y88.693 E4.23506
G1 X86.356 Y89.771 E4.28354
G1 X85.808 Y90.408 E4.30954
G1 X85.612 Y90.307 E4.31638
G1 E2.31638 F2400.00000
G92 E0
G1 X84.649 Y93.173 F7800.000
G1 E2.00000 F2400.00000
G1 F1800
G1 X84.349 Y93.069 E2.00982
G1 X84.665 Y91.232 E2.06747
G1 X85.194 Y89.084 E2.13595
G1 X85.864 Y87.023 E2.20298
G1 X86.667 Y85.074 E2.26822
G1 X87.595 Y83.255 E2.33138
G1 X88.637 Y81.583 E2.39235
G1 X89.780 Y80.076 E2.45089
G1 X91.024 Y78.736 E2.50743
G1 X92.321 Y77.606 E2.56067
G1 X93.689 Y76.664 E2.61208
G1 X95.104 Y75.927 E2.66142
G1 X96.552 Y75.400 E2.70910
G1 X98.021 Y75.083 E2.75561
G1 X99.500 Y74.977 E2.80149
G1 X100.966 Y75.083 E2.84698
G1 X102.449 Y75.400 E2.89389
G1 X103.896 Y75.927 E2.94155
G1 X105.311 Y76.664 E2.99089
G1 X106.679 Y77.606 E3.04230
G1 X107.987 Y78.746 E3.09598
G1 X109.219 Y80.076 E3.15207
G1 X110.363 Y81.583 E3.21062
G1 X111.405 Y83.255 E3.27159
G1 X112.333 Y85.074 E3.33476
G1 X113.136 Y87.023 E3.39999
G1 X113.806 Y89.084 E3.46703
G1 X114.335 Y91.232 E3.53550
G1 X114.651 Y93.069 E3.59315
G1 X114.351 Y93.173 E3.60297
G1 X114.002 Y92.536 E3.62545
G1 X113.161 Y91.330 E3.67095
G1 X112.191 Y90.203 E3.71697
G1 X111.099 Y89.167 E3.76354
G1 X109.899 Y88.229 E3.81067
G1 X108.600 Y87.400 E3.85835
G1 X107.216 Y86.687 E3.90652
G1 X105.761 Y86.094 E3.95513
G1 X104.246 Y85.628 E4.00416
G1 X102.689 Y85.292 E4.05347
G1 X101.102 Y85.090 E4.10295
G1 X99.487 Y85.022 E4.15298
G1 X97.897 Y85.090 E4.20220
G1 X96.311 Y85.292 E4.25168
G1 X94.754 Y85.628 E4.30098
G1 X93.239 Y86.094 E4.35001
G1 X91.784 Y86.687 E4.39862
G1 X90.400 Y87.400 E4.44679
G1 X89.101 Y88.229 E4.49447
G1 X87.901 Y89.167 E4.54160
G1 X86.809 Y90.203 E4.58817
G1 X85.839 Y91.330 E4.63419
G1 X84.998 Y92.536 E4.67969
G1 X84.685 Y93.108 E4.69985
G1 E2.69985 F2400.00000
G92 E0
G1 X83.694 Y98.165 F7800.000
G1 E2.00000 F2400.00000
G1 F1800
G1 X83.346 Y98.129 E2.01083
G1 X83.428 Y95.672 E2.08692
G1 X83.664 Y93.365 E2.15864
G1 X84.053 Y91.105 E2.22963
G1 X84.593 Y88.912 E2.29949
G1 X85.277 Y86.807 E2.36798
G1 X86.099 Y84.812 E2.43473
G1 X87.050 Y82.947 E2.49951
G1 X88.122 Y81.228 E2.56220
G1 X89.301 Y79.673 E2.62258
G1 X90.588 Y78.287 E2.68110
G1 X91.937 Y77.111 E2.73647
G1 X93.367 Y76.128 E2.79017
G1 X94.851 Y75.354 E2.84197
G1 X96.378 Y74.798 E2.89224
G1 X97.933 Y74.463 E2.94144
G1 X99.500 Y74.351 E2.99006
G1 X101.055 Y74.462 E3.03829
G1 X102.622 Y74.798 E3.08789
G1 X104.149 Y75.354 E3.13816
G1 X105.633 Y76.128 E3.18995
G1 X107.063 Y77.111 E3.24365
G1 X108.423 Y78.297 E3.29947
G1 X109.699 Y79.673 E3.35754
G1 X110.878 Y81.228 E3.41793
G1 X111.950 Y82.947 E3.48062
G1 X112.901 Y84.812 E3.54539
G1 X113.723 Y86.807 E3.61215
G1 X114.407 Y88.912 E3.68063
G1 X114.947 Y91.105 E3.75050
G1 X115.336 Y93.366 E3.82148
G1 X115.572 Y95.672 E3.89321
G1 X115.654 Y98.129 E3.96929
G1 X115.306 Y98.165 E3.98013
G1 X115.047 Y96.659 E4.02740
G1 X114.666 Y95.351 E4.06955
G1 X114.138 Y94.083 E4.11205
G1 X113.470 Y92.866 E4.15500
G1 X112.667 Y91.713 E4.19848
G1 X111.738 Y90.634 E4.24254
G1 X110.691 Y89.641 E4.28720
G1 X109.537 Y88.740 E4.33248
G1 X108.288 Y87.942 E4.37835
G1 X106.955 Y87.255 E4.42476
G1 X105.551 Y86.683 E4.47166
G1 X104.088 Y86.233 E4.51900
G1 X102.583 Y85.909 E4.56664
G1 X101.050 Y85.713 E4.61448
G1 X99.487 Y85.647 E4.66287
G1 X97.950 Y85.713 E4.71046
G1 X96.417 Y85.909 E4.75829
G1 X94.912 Y86.233 E4.80594
G1 X93.449 Y86.683 E4.85328
G1 X92.045 Y87.255 E4.90018
G1 X90.712 Y87.942 E4.94659
G1 X89.463 Y88.740 E4.99246
G1 X88.309 Y89.641 E5.03774
G1 X87.262 Y90.634 E5.08240
G1 X86.333 Y91.713 E5.12646
G1 X85.530 Y92.866 E5.16993
G1 X84.862 Y94.083 E5.21289
G1 X84.334 Y95.351 E5.25539
G1 X83.953 Y96.659 E5.29753
G1 X83.707 Y98.091 E5.34249
G1 X83.419 Y97.949 F7800.000
G1 E3.34249 F2400.00000
G92 E0
G1 X123.531 Y105.535 F7800.000
G1 E2.00000 F2400.00000
G1 F1800
G1 X123.973 Y104.665 E2.03020
G1 X124.675 Y103.963 E2.06093
G1 X125.578 Y103.524 E2.09199
G1 X126.500 Y103.379 E2.12087
G1 X127.463 Y103.530 E2.15103
G1 X128.335 Y103.973 E2.18128
G1 X129.027 Y104.665 E2.21158
G1 X129.469 Y105.535 E2.24178
G1 X129.623 Y106.500 E2.27200
G1 X129.469 Y107.465 E2.30222
G1 X129.027 Y108.334 E2.33242
G1 X128.335 Y109.027 E2.36272
G1 X127.465 Y109.469 E2.39291
G1 X126.500 Y109.623 E2.42313
G1 X125.535 Y109.469 E2.45335
G1 X124.665 Y109.027 E2.48355
G1 X123.973 Y108.335 E2.51385
G1 X123.531 Y107.465 E2.54405
G1 X123.377 Y106.500 E2.57427
G1 X123.519 Y105.610 E2.60217
G1 X124.132 Y105.731 F7800.000
G1 F1800
G1 X124.485 Y105.037 E2.62625
G1 X125.043 Y104.479 E2.65067
G1 X125.767 Y104.126 E2.67559
G1 X126.500 Y104.011 E2.69854
G1 X127.268 Y104.132 E2.72260
G1 X127.963 Y104.485 E2.74671
G1 X128.515 Y105.037 E2.77087
G1 X128.868 Y105.731 E2.79495
G1 X128.990 Y106.500 E2.81904
G1 X128.868 Y107.269 E2.84314
G1 X128.515 Y107.963 E2.86722
G1 X127.963 Y108.515 E2.89138
G1 X127.269 Y108.868 E2.91546
G1 X126.500 Y108.990 E2.93956
G1 X125.731 Y108.868 E2.96365
G1 X125.037 Y108.515 E2.98773
G1 X124.485 Y107.963 E3.01189
G1 X124.132 Y107.269 E3.03597
G1 X124.010 Y106.500 E3.06007
G1 X124.121 Y105.805 E3.08184
G1 X124.734 Y105.926 F7800.000
G1 F1800
G1 X124.997 Y105.409 E3.09981
G1 X125.411 Y104.995 E3.11791
G1 X125.957 Y104.729 E3.13670
G1 X126.500 Y104.644 E3.15371
G1 X127.073 Y104.734 E3.17167
G1 X127.591 Y104.997 E3.18965
G1 X128.003 Y105.409 E3.20766
G1 X128.266 Y105.926 E3.22563
G1 X128.357 Y106.500 E3.24360
G1 X128.266 Y107.074 E3.26156
G1 X128.003 Y107.591 E3.27953
G1 X127.591 Y108.003 E3.29754
G1 X127.074 Y108.266 E3.31551
G1 X126.500 Y108.357 E3.33348
G1 X125.926 Y108.266 E3.35145
G1 X125.409 Y108.003 E3.36942
G1 X124.997 Y107.591 E3.38743
G1 X124.734 Y107.074 E3.40540
G1 X124.643 Y106.500 E3.42337
G1 X124.722 Y106.001 E3.43902
G1 X124.734 Y105.926 F7800.000
G1 E1.43902 F2400.00000
G92 E0
G1 X130.400 Y110.400 F7800.000
G1 E2.00000 F2400.00000
G1 F1800
G1 X116.603 Y110.400 E2.42691
G1 X116.603 Y99.600 E2.76109
G1 X130.400 Y99.600 E3.18800
G1 X130.400 Y110.325 E3.51986
G1 X131.025 Y111.025 F7800.000
G1 F1800
G1 X115.978 Y111.025 E3.98544
G1 X115.978 Y99.313 E4.34783
G1 X115.958 Y98.975 E4.35831
G1 X131.025 Y98.975 E4.82449
G1 X131.025 Y110.950 E5.19502
G1 X131.650 Y111.650 F7800.000
G1 F1800
G1 X115.353 Y111.650 E5.69927
G1 X115.353 Y99.331 E6.08044
G1 X115.297 Y98.350 E6.11084
G1 X131.650 Y98.350 E6.61683
G1 X131.650 Y111.575 E7.02603
G1 X131.163 Y111.537 F7800.000
G1 E5.02603 F2400.00000
G92 E0
G1 X130.018 Y109.532 F7800.000
G1 E2.00000 F2400.00000
G1 F1800
G1 X129.532 Y110.018 E2.02552
G1 X128.852 Y109.638 F7800.000
G1 F1800
G1 X129.638 Y108.852 E2.06681
G1 X129.416 Y108.338 F7800.000
G1 F1800
G1 X129.583 Y108.107 E2.06813
G1 F1800
G1 X129.751 Y107.876 E2.07066
G1 F1800
G1 X129.918 Y107.645 E2.07412
G1 X129.949 Y107.319 E2.07809
G1 F1800
G1 X129.992 Y106.781 E2.08235
G1 F1800
G1 X130.013 Y106.488 E2.08343
G1 F1800
G1 X129.970 Y105.950 E2.08769
G1 F1800
G1 X129.918 Y105.355 E2.09425
G1 X129.751 Y105.124 E2.09738
G1 F1800
G1 X129.583 Y104.893 E2.09931
G1 F1800
